<?xml version="1.0" encoding="UTF-8"?>
<map version="1.10" tiledversion="1.11.1" orientation="orthogonal" renderorder="right-down" width="144" height="208" tilewidth="32" tileheight="32" infinite="1" nextlayerid="17" nextobjectid="1">
 <tileset firstgid="1" source="Tilemap_Flat.tsx"/>
 <tileset firstgid="161" source="Water.tsx"/>
 <tileset firstgid="165" source="kolekcja2.tsx"/>
 <tileset firstgid="231" source="pustynia_obrazki.tsx"/>
 <tileset firstgid="392" source="Rocks_01.tsx"/>
 <tileset firstgid="520" source="Rocks_03.tsx"/>
 <tileset firstgid="648" source="Foam.tsx"/>
 <tileset firstgid="936" source="Tilemap_Elevation.tsx"/>
 <tileset firstgid="1064" source="Tree.tsx"/>
 <layer id="1" name="piach" width="144" height="208">
  <data encoding="csv">
   <chunk x="0" y="0" width="16" height="16">
32,33,34,32,32,32,32,32,32,32,33,32,32,32,33,34,
32,33,34,52,52,52,52,52,52,52,53,52,52,32,32,33,
52,53,54,72,72,72,72,72,72,72,73,72,72,52,52,53,
72,73,74,92,92,92,92,92,92,92,93,92,92,72,72,73,
92,93,94,95,32,33,34,35,32,33,34,35,32,92,92,93,
32,33,34,35,52,53,54,55,52,53,54,55,52,53,54,55,
52,53,54,55,72,73,74,75,72,73,74,75,72,73,74,75,
72,73,74,75,92,93,94,95,92,93,94,95,92,93,94,95,
92,93,94,95,32,33,34,35,32,33,34,35,32,33,34,35,
52,53,54,55,52,53,54,55,52,53,54,55,52,53,54,55,
72,73,74,75,72,73,74,75,72,73,74,75,72,73,74,75,
92,93,94,95,92,93,94,95,92,93,94,95,92,93,94,95,
52,53,54,55,32,33,34,35,32,33,34,35,32,33,34,35,
72,73,74,75,52,53,54,55,52,53,54,55,52,53,54,55,
92,93,94,95,72,73,74,75,72,73,74,75,72,73,74,75,
32,33,34,35,92,93,94,95,92,93,94,95,92,93,94,95
</chunk>
   <chunk x="16" y="0" width="16" height="16">
35,32,33,34,35,32,32,33,34,32,33,34,35,32,33,34,
32,52,53,54,55,52,52,53,54,52,53,54,55,52,53,54,
52,72,73,74,75,72,72,73,74,72,73,74,75,72,73,74,
72,92,93,94,95,92,92,93,94,92,93,94,95,92,93,94,
92,92,93,94,95,33,34,35,32,33,34,35,32,33,34,35,
52,53,54,55,52,53,54,55,52,53,54,55,52,53,54,55,
72,73,74,75,72,73,74,75,72,73,74,75,72,73,74,75,
92,93,94,95,92,93,94,95,92,93,94,95,92,93,94,95,
32,33,34,35,32,33,34,35,32,33,34,35,32,33,34,35,
52,53,54,55,52,53,54,55,52,53,54,55,52,53,54,55,
72,73,74,75,72,73,74,75,72,73,74,75,72,73,74,75,
92,93,94,95,92,93,94,95,92,93,94,95,92,93,94,95,
32,33,34,35,32,33,34,35,32,33,34,35,32,33,34,35,
52,53,54,55,52,53,54,55,52,53,54,55,52,53,54,55,
72,73,74,75,72,73,74,75,72,73,74,75,72,73,74,75,
92,93,94,95,92,93,94,95,92,93,94,95,92,93,94,95
</chunk>
   <chunk x="32" y="0" width="16" height="16">
35,32,33,34,35,32,32,33,34,35,32,33,34,35,32,33,
55,52,53,54,55,52,52,53,54,55,52,53,54,55,52,53,
75,72,73,74,75,72,72,73,74,75,72,73,74,75,72,73,
95,92,93,94,95,92,92,93,94,95,92,93,94,95,92,93,
32,92,93,94,95,33,34,35,32,33,34,35,32,33,34,35,
52,53,54,55,52,53,54,55,52,53,54,55,52,53,54,55,
72,73,74,75,72,73,74,75,72,73,74,75,72,73,74,75,
92,93,94,95,92,93,94,95,92,93,94,95,92,93,94,95,
32,33,34,35,32,33,34,35,32,33,34,35,32,33,34,35,
52,53,54,55,52,53,54,55,52,53,54,55,52,53,54,55,
72,73,74,75,72,73,74,75,72,73,74,75,72,73,74,75,
92,93,94,95,92,93,94,95,92,93,94,95,92,93,94,95,
32,33,34,35,32,33,34,35,32,33,34,35,32,33,34,35,
52,53,54,55,52,53,54,55,52,53,54,55,52,53,54,55,
72,73,74,75,72,73,74,75,72,73,74,75,72,73,74,75,
92,93,94,95,92,93,94,95,92,93,94,95,92,93,94,95
</chunk>
   <chunk x="48" y="0" width="16" height="16">
34,32,33,34,35,32,33,34,35,32,32,33,34,32,33,34,
54,52,53,54,55,52,53,54,55,52,52,53,54,52,53,54,
74,72,73,74,75,72,73,74,75,72,72,73,74,72,73,74,
94,92,93,94,95,92,93,94,95,92,92,93,94,92,93,94,
32,33,92,93,94,92,93,94,95,33,34,35,32,33,34,35,
52,53,54,55,52,53,54,55,52,53,54,55,52,53,54,55,
72,73,74,75,72,73,74,75,72,73,74,75,72,73,74,75,
92,93,94,95,92,93,94,95,92,93,94,95,92,93,94,95,
32,33,34,35,32,33,34,35,32,33,34,35,32,33,34,35,
52,53,54,55,52,53,54,55,52,53,54,55,52,53,54,55,
72,73,74,75,72,73,74,75,72,73,74,75,72,73,74,75,
92,93,94,95,92,93,94,95,92,93,94,95,92,93,94,95,
32,33,34,35,32,33,34,35,32,33,34,35,32,33,34,35,
52,53,54,55,52,53,54,55,52,53,54,55,52,53,54,55,
72,73,74,75,72,73,74,75,72,73,74,75,72,73,74,75,
92,93,94,95,92,93,94,95,92,93,94,95,92,93,94,95
</chunk>
   <chunk x="64" y="0" width="16" height="16">
35,32,33,34,32,33,34,35,34,35,32,32,32,33,34,35,
55,52,53,54,52,53,54,55,54,55,52,52,52,53,54,55,
75,72,73,74,72,73,74,75,74,75,72,72,72,73,74,75,
95,92,93,94,92,93,94,95,94,95,92,92,92,93,94,95,
32,33,34,35,32,33,34,35,32,33,34,35,32,33,34,35,
52,53,54,55,52,53,54,55,52,53,54,55,52,53,54,55,
72,73,74,75,72,73,74,75,72,73,74,75,72,73,74,75,
92,93,94,95,92,93,94,95,92,93,94,95,92,93,94,95,
32,33,34,35,32,33,34,35,32,33,34,35,32,33,34,35,
52,53,54,55,52,53,54,55,52,53,54,55,52,53,54,55,
72,73,74,75,72,73,74,75,72,73,74,75,72,73,74,75,
92,93,94,95,92,93,94,95,92,93,94,95,92,93,94,95,
32,33,34,35,32,33,34,35,32,33,34,35,32,33,34,35,
52,53,54,55,52,53,54,55,52,53,54,55,52,53,54,55,
72,73,74,75,72,73,74,75,72,73,74,75,72,73,74,75,
92,93,94,95,92,93,94,95,92,93,94,95,92,93,94,95
</chunk>
   <chunk x="80" y="0" width="16" height="16">
32,33,34,35,32,33,34,35,35,32,33,34,32,32,33,32,
52,53,54,55,52,53,54,55,55,52,53,54,52,52,53,52,
72,73,74,75,72,73,74,75,75,72,73,74,72,72,73,72,
92,93,94,95,92,93,94,95,95,92,93,94,92,92,93,92,
32,33,34,35,32,33,34,35,32,33,34,35,32,33,34,35,
52,53,54,55,52,53,54,55,52,53,54,55,52,53,54,55,
72,73,74,75,72,73,74,75,72,73,74,75,72,73,74,75,
92,93,94,95,92,93,94,95,92,93,94,95,92,93,94,95,
32,33,34,35,32,33,34,35,32,33,34,35,32,33,34,35,
52,53,54,55,52,53,54,55,52,53,54,55,52,53,54,55,
72,73,74,75,72,73,74,75,72,73,74,75,72,73,74,75,
92,93,94,95,92,93,94,95,92,93,94,95,92,93,94,95,
32,33,34,35,32,33,34,35,32,33,34,35,32,33,34,35,
52,53,54,55,52,53,54,55,52,53,54,55,52,53,54,55,
72,73,74,75,72,73,74,75,72,73,74,75,72,73,74,75,
92,93,94,95,92,93,94,95,92,93,94,95,92,93,94,95
</chunk>
   <chunk x="96" y="0" width="16" height="16">
33,34,35,32,33,34,35,32,33,34,35,32,33,34,35,32,
53,54,55,52,53,54,55,52,53,54,55,52,53,54,55,52,
73,74,75,72,73,74,75,72,73,74,75,72,73,74,75,72,
93,94,95,92,93,94,95,92,93,94,95,92,93,94,95,92,
32,33,34,35,32,33,34,35,32,33,34,35,32,33,34,35,
52,53,54,55,52,53,54,55,52,53,54,55,52,53,54,55,
72,73,74,75,72,73,74,75,72,73,74,75,72,73,74,75,
92,93,94,95,92,93,94,95,92,93,94,95,92,93,94,95,
32,33,34,35,32,33,34,35,32,33,34,35,32,33,34,35,
52,53,54,55,52,53,54,55,52,53,54,55,52,53,54,55,
72,73,74,75,72,73,74,75,72,73,74,75,72,73,74,75,
92,93,94,95,92,93,94,95,92,93,94,95,92,93,94,95,
32,33,34,35,32,33,34,35,32,33,34,35,32,33,34,35,
52,53,54,55,52,53,54,55,52,53,54,55,52,53,54,55,
72,73,74,75,72,73,74,75,72,73,74,75,72,73,74,75,
92,93,94,95,92,93,94,95,92,93,94,95,92,93,94,95
</chunk>
   <chunk x="112" y="0" width="16" height="16">
33,34,35,32,33,34,35,35,32,33,34,32,33,34,35,32,
53,54,55,52,53,54,55,55,52,53,54,52,53,54,55,52,
73,74,75,72,73,74,75,75,72,73,74,72,73,74,75,72,
93,94,95,92,93,94,95,95,92,93,94,92,93,94,95,92,
32,33,34,35,32,33,34,35,32,33,34,35,32,33,34,35,
52,53,54,55,52,53,54,55,52,53,54,55,52,53,54,55,
72,73,74,75,72,73,74,75,72,73,74,75,72,73,74,75,
92,93,94,95,92,93,94,95,92,93,94,95,92,93,94,95,
32,33,34,35,32,33,34,35,32,33,34,35,32,33,34,35,
52,53,54,55,52,53,54,55,52,53,54,55,52,53,54,55,
72,73,74,75,72,73,74,75,72,73,74,75,72,73,74,75,
92,93,94,95,92,93,94,95,92,93,94,95,92,93,94,95,
32,33,34,35,32,33,34,35,32,33,34,35,32,33,34,35,
52,53,54,55,52,53,54,55,52,53,54,55,52,53,54,55,
72,73,74,75,72,73,74,75,72,73,74,75,72,73,74,75,
92,93,94,95,92,93,94,95,92,93,94,95,92,93,94,95
</chunk>
   <chunk x="128" y="0" width="16" height="16">
32,33,34,32,33,34,35,32,33,32,32,33,32,33,34,35,
52,53,54,52,53,54,55,52,53,52,52,53,52,53,54,55,
72,73,74,72,73,74,75,72,73,72,72,73,72,73,74,75,
92,93,94,92,93,94,95,92,93,92,92,93,92,93,94,95,
32,33,34,35,32,33,34,35,32,33,34,35,72,73,74,75,
52,53,54,55,52,53,54,55,52,53,54,55,92,93,94,95,
72,73,74,75,72,73,74,75,72,73,74,75,72,73,74,35,
92,93,94,95,92,93,94,95,92,93,94,95,92,93,94,55,
32,33,34,35,32,33,34,35,32,33,34,35,32,33,34,75,
52,53,54,55,52,53,54,55,52,53,54,55,52,53,54,95,
72,73,74,75,72,73,74,75,72,73,74,75,72,73,74,75,
92,93,94,95,92,93,94,95,92,93,94,95,92,93,94,95,
32,33,34,35,32,33,34,35,32,33,34,35,32,33,34,55,
52,53,54,55,52,53,54,55,52,53,54,55,52,53,54,75,
72,73,74,75,72,73,74,75,72,73,74,75,72,73,74,95,
92,93,94,95,92,93,94,95,92,93,94,95,92,93,94,95
</chunk>
   <chunk x="0" y="16" width="16" height="16">
52,53,54,55,32,33,34,35,32,33,34,35,32,33,34,35,
72,73,74,75,52,53,54,55,52,53,54,55,52,53,54,55,
92,93,94,95,72,73,74,75,72,73,74,75,72,73,74,75,
32,33,34,35,92,93,94,95,92,93,94,95,92,93,94,95,
52,53,54,55,32,33,34,35,32,33,34,35,32,33,34,35,
72,73,74,75,52,53,54,55,52,53,54,55,52,53,54,55,
92,93,94,95,72,73,74,75,72,73,74,75,72,73,74,75,
32,33,34,35,92,93,94,95,92,93,94,95,92,93,94,95,
52,53,54,55,32,33,34,35,32,33,34,35,32,33,34,35,
72,73,74,75,52,53,54,55,52,53,54,55,52,53,54,55,
92,93,94,95,72,73,74,75,72,73,74,75,72,73,74,75,
32,33,34,35,92,93,94,95,92,93,94,95,92,93,94,95,
52,53,54,55,32,33,34,35,32,33,34,35,32,33,34,35,
72,73,74,75,52,53,54,55,52,53,54,55,52,53,54,55,
92,93,94,95,72,73,74,75,72,73,74,75,72,73,74,75,
92,93,94,95,92,93,94,95,92,93,94,95,92,93,94,95
</chunk>
   <chunk x="16" y="16" width="16" height="16">
32,33,34,35,32,33,34,35,32,33,34,35,32,33,34,35,
52,53,54,55,52,53,54,55,52,53,54,55,52,53,54,55,
72,73,74,75,72,73,74,75,72,73,74,75,72,73,74,75,
92,93,94,95,92,93,94,95,92,93,94,95,92,93,94,95,
32,33,34,35,32,33,34,35,32,33,34,35,32,33,34,35,
52,53,54,55,52,53,54,55,52,53,54,55,52,53,54,55,
72,73,74,75,72,73,74,75,72,73,74,75,72,73,74,75,
92,93,94,95,92,93,94,95,92,93,94,95,92,93,94,95,
32,33,34,35,32,33,34,35,32,33,34,35,32,33,34,35,
52,53,54,55,52,53,54,55,52,53,54,55,52,53,54,55,
72,73,74,75,72,73,74,75,72,73,74,75,72,73,74,75,
92,93,94,95,92,93,94,95,92,93,94,95,92,93,94,95,
32,33,34,35,32,33,34,35,32,33,34,35,32,33,34,35,
52,53,54,55,52,53,54,55,52,53,54,55,52,53,54,55,
72,73,74,75,72,73,74,75,72,73,74,75,72,73,74,75,
92,93,94,95,92,93,94,95,92,93,94,95,92,93,94,95
</chunk>
   <chunk x="32" y="16" width="16" height="16">
32,33,34,35,32,33,34,35,32,33,34,35,32,33,34,35,
52,53,54,55,52,53,54,55,52,53,54,55,52,53,54,55,
72,73,74,75,72,73,74,75,72,73,74,75,72,73,74,75,
92,93,94,95,92,93,94,95,92,93,94,95,92,93,94,95,
32,33,34,35,32,33,34,35,32,33,34,35,32,33,34,35,
52,53,54,55,52,53,54,55,52,53,54,55,52,53,54,55,
72,73,74,75,72,73,74,75,72,73,74,75,72,73,74,75,
92,93,94,95,92,93,94,95,92,93,94,95,92,93,94,95,
32,33,34,35,32,33,34,35,32,33,34,35,32,33,34,35,
52,53,54,55,52,53,54,55,52,53,54,55,52,53,54,55,
72,73,74,75,72,73,74,75,72,73,74,75,72,73,74,75,
92,93,94,95,92,93,94,95,92,93,94,95,92,93,94,95,
32,33,34,35,32,33,34,35,32,33,34,35,32,33,34,35,
52,53,54,55,52,53,54,55,52,53,54,55,52,53,54,55,
72,73,74,75,72,73,74,75,72,73,74,75,72,73,74,75,
92,93,94,95,92,93,94,95,92,93,94,95,92,93,94,95
</chunk>
   <chunk x="48" y="16" width="16" height="16">
32,33,34,35,32,33,34,35,32,33,34,35,32,33,34,35,
52,53,54,55,52,53,54,55,52,53,54,55,52,53,54,55,
72,73,74,75,72,73,74,75,72,73,74,75,72,73,74,75,
92,93,94,95,92,93,94,95,92,93,94,95,92,93,94,95,
32,33,34,35,32,33,34,35,32,33,34,35,32,33,34,35,
52,53,54,55,52,53,54,55,52,53,54,55,52,53,54,55,
72,73,74,75,72,73,74,75,72,73,74,75,72,73,74,75,
92,93,94,95,92,93,94,95,92,93,94,95,92,93,94,95,
32,33,34,35,32,33,34,35,32,33,34,35,32,33,34,35,
52,53,54,55,52,53,54,55,52,53,54,55,52,53,54,55,
72,73,74,75,72,73,74,75,72,73,74,75,72,73,74,75,
92,93,94,95,92,93,94,95,92,93,94,95,92,93,94,95,
32,33,34,35,32,33,34,35,32,33,34,35,32,33,34,35,
52,53,54,55,52,53,54,55,52,53,54,55,52,53,54,55,
72,73,74,75,72,73,74,75,72,73,74,75,72,73,74,75,
92,93,94,95,92,93,94,95,92,93,94,95,92,93,94,95
</chunk>
   <chunk x="64" y="16" width="16" height="16">
32,33,34,35,32,33,34,35,32,33,34,35,32,33,34,35,
52,53,54,55,52,53,54,55,52,53,54,55,52,53,54,55,
72,73,74,75,72,73,74,75,72,73,74,75,72,73,74,75,
92,93,94,95,92,93,94,95,92,93,94,95,92,93,94,95,
32,33,34,35,32,33,34,35,32,33,34,35,32,33,34,35,
52,53,54,55,52,53,54,55,52,53,54,55,52,53,54,55,
72,73,74,75,72,73,74,75,72,73,74,75,72,73,74,75,
92,93,94,95,92,93,94,95,92,93,94,95,92,93,94,95,
32,33,34,35,32,33,34,35,32,33,34,35,32,33,34,35,
52,53,54,55,52,53,54,55,52,53,54,55,52,53,54,55,
72,73,74,75,72,73,74,75,72,73,74,75,72,73,74,75,
92,93,94,95,92,93,94,95,92,93,94,95,92,93,94,95,
32,33,34,35,32,33,34,35,32,33,34,35,32,33,34,35,
52,53,54,55,52,53,54,55,52,53,54,55,52,53,54,55,
72,73,74,75,72,73,74,75,72,73,74,75,72,73,74,75,
92,93,94,95,92,93,94,95,92,93,94,95,92,93,94,95
</chunk>
   <chunk x="80" y="16" width="16" height="16">
32,33,34,35,32,33,34,35,32,33,34,35,32,33,34,35,
52,53,54,55,52,53,54,55,52,53,54,55,52,53,54,55,
72,73,74,75,72,73,74,75,72,73,74,75,72,73,74,75,
92,93,94,95,92,93,94,95,92,93,94,95,92,93,94,95,
32,33,34,35,32,33,34,35,32,33,34,35,32,33,34,35,
52,53,54,55,52,53,54,55,52,53,54,55,52,53,54,55,
72,73,74,75,72,73,74,75,72,73,74,75,72,73,74,75,
92,93,94,95,92,93,94,95,92,93,94,95,92,93,94,95,
32,33,34,35,32,33,34,35,32,33,34,35,32,33,34,35,
52,53,54,55,52,53,54,55,52,53,54,55,52,53,54,55,
72,73,74,75,72,73,74,75,72,73,74,75,72,73,74,75,
92,93,94,95,92,93,94,95,92,93,94,95,92,93,94,95,
32,33,34,35,32,33,34,35,32,33,34,35,32,33,34,35,
52,53,54,55,52,53,54,55,52,53,54,55,52,53,54,55,
72,73,74,75,72,73,74,75,72,73,74,75,72,73,74,75,
92,93,94,95,92,93,94,95,92,93,94,95,92,93,94,95
</chunk>
   <chunk x="96" y="16" width="16" height="16">
32,33,34,35,32,33,34,35,32,33,34,35,32,33,34,35,
52,53,54,55,52,53,54,55,52,53,54,55,52,53,54,55,
72,73,74,75,72,73,74,75,72,73,74,75,72,73,74,75,
92,93,94,95,92,93,94,95,92,93,94,95,92,93,94,95,
32,33,34,35,32,33,34,35,32,33,34,35,32,33,34,35,
52,53,54,55,52,53,54,55,52,53,54,55,52,53,54,55,
72,73,74,75,72,73,74,75,72,73,74,75,72,73,74,75,
92,93,94,95,92,93,94,95,92,93,94,95,92,93,94,95,
32,33,34,35,32,33,34,35,32,33,34,35,32,33,34,35,
52,53,54,55,52,53,54,55,52,53,54,55,52,53,54,55,
72,73,74,75,72,73,74,75,72,73,74,75,72,73,74,75,
92,93,94,95,92,93,94,95,92,93,94,95,92,93,94,95,
32,33,34,35,32,33,34,35,32,33,34,35,32,33,34,35,
52,53,54,55,52,53,54,55,52,53,54,55,52,53,54,55,
72,73,74,75,72,73,74,75,72,73,74,75,72,73,74,75,
92,93,94,95,92,93,94,95,92,93,94,95,92,93,94,95
</chunk>
   <chunk x="112" y="16" width="16" height="16">
32,33,34,35,32,33,34,35,32,33,34,35,32,33,34,35,
52,53,54,55,52,53,54,55,52,53,54,55,52,53,54,55,
72,73,74,75,72,73,74,75,72,73,74,75,72,73,74,75,
92,93,94,95,92,93,94,95,92,93,94,95,92,93,94,95,
32,33,34,35,32,33,34,35,32,33,34,35,32,33,34,35,
52,53,54,55,52,53,54,55,52,53,54,55,52,53,54,55,
72,73,74,75,72,73,74,75,72,73,74,75,72,73,74,75,
92,93,94,95,92,93,94,95,92,93,94,95,92,93,94,95,
32,33,34,35,32,33,34,35,32,33,34,35,32,33,34,35,
52,53,54,55,52,53,54,55,52,53,54,55,52,53,54,55,
72,73,74,75,72,73,74,75,72,73,74,75,72,73,74,75,
92,93,94,95,92,93,94,95,92,93,94,95,92,93,94,95,
32,33,34,35,32,33,34,35,32,33,34,35,32,33,34,35,
52,53,54,55,52,53,54,55,52,53,54,55,52,53,54,55,
72,73,74,75,72,73,74,75,72,73,74,75,72,73,74,75,
92,93,94,95,92,93,94,95,92,93,94,95,92,93,94,95
</chunk>
   <chunk x="128" y="16" width="16" height="16">
32,33,34,35,32,33,34,35,32,33,34,35,32,33,34,95,
52,53,54,55,52,53,54,55,52,53,54,55,52,53,54,95,
72,73,74,75,72,73,74,75,72,73,74,75,72,73,74,75,
92,93,94,95,92,93,94,95,92,93,94,95,92,93,94,95,
32,33,34,35,32,33,34,35,32,33,34,35,32,33,34,95,
52,53,54,55,52,53,54,55,52,53,54,55,52,53,54,95,
72,73,74,75,72,73,74,75,72,73,74,75,72,73,74,95,
92,93,94,95,92,93,94,95,92,93,94,95,92,93,94,95,
32,33,34,35,32,33,34,35,32,33,34,35,32,33,34,95,
52,53,54,55,52,53,54,55,52,53,54,55,52,53,54,95,
72,73,74,75,72,73,74,75,72,73,74,75,72,73,74,95,
92,93,94,95,92,93,94,95,92,93,94,95,92,93,94,95,
32,33,34,35,32,33,34,35,32,33,34,35,32,33,34,95,
52,53,54,55,52,53,54,55,52,53,54,55,52,53,54,95,
72,73,74,75,72,73,74,75,72,73,74,75,72,73,74,95,
92,93,94,95,92,93,94,95,92,93,94,95,92,93,94,95
</chunk>
   <chunk x="0" y="32" width="16" height="16">
52,53,54,55,32,33,34,35,32,33,34,35,32,33,34,35,
72,73,74,75,52,53,54,55,52,53,54,55,52,53,54,55,
92,93,94,95,72,73,74,75,72,73,74,75,72,73,74,75,
92,93,94,95,92,93,94,95,92,93,94,95,92,93,94,95,
72,73,74,75,32,33,34,35,32,33,34,35,32,33,34,35,
92,93,94,95,52,53,54,55,52,53,54,55,52,53,54,55,
92,93,94,95,72,73,74,75,72,73,74,75,72,73,74,75,
52,53,54,55,92,93,94,95,92,93,94,95,92,93,94,95,
72,73,74,75,32,33,34,35,32,33,34,35,32,33,34,35,
92,93,94,95,35,53,54,55,52,53,54,55,52,53,54,55,
92,93,94,95,55,73,74,75,72,73,74,75,72,73,74,75,
92,93,94,95,75,93,94,95,92,93,94,95,92,93,94,95,
92,93,94,95,95,33,34,35,32,33,34,35,32,33,34,35,
92,93,94,95,92,93,94,95,92,93,94,95,92,93,94,95,
32,33,34,35,32,33,34,35,32,33,34,35,32,33,34,35,
52,53,54,55,52,53,54,55,52,53,54,55,52,53,54,55
</chunk>
   <chunk x="16" y="32" width="16" height="16">
32,33,34,35,32,33,34,35,32,33,34,35,32,33,34,35,
52,53,54,55,52,53,54,55,52,53,54,55,52,53,54,55,
72,73,74,75,72,73,74,75,72,73,74,75,72,73,74,75,
92,93,94,95,92,93,94,95,92,93,94,95,92,93,94,95,
32,33,34,35,32,33,34,35,32,33,34,35,32,33,34,35,
52,53,54,55,52,53,54,55,52,53,54,55,52,53,54,55,
72,73,74,75,72,73,74,75,72,73,74,75,72,73,74,75,
92,93,94,95,92,93,94,95,92,93,94,95,92,93,94,95,
32,33,34,35,32,33,34,35,32,33,34,35,32,33,34,35,
52,53,54,55,52,53,54,55,52,53,54,55,52,53,54,55,
72,73,74,75,72,73,74,75,72,73,74,75,72,73,74,75,
92,93,94,95,92,93,94,95,92,93,94,95,92,93,94,95,
32,33,34,35,32,33,34,35,32,33,34,35,32,33,34,35,
92,93,94,95,92,93,94,95,92,93,94,95,92,93,94,95,
32,33,34,35,32,33,34,35,32,33,34,35,32,33,34,35,
52,53,54,55,52,53,54,55,52,53,54,55,52,53,54,55
</chunk>
   <chunk x="32" y="32" width="16" height="16">
32,33,34,35,32,33,34,35,32,33,34,35,32,33,34,35,
52,53,54,55,52,53,54,55,52,53,54,55,52,53,54,55,
72,73,74,75,72,73,74,75,72,73,74,75,72,73,74,75,
92,93,94,95,92,93,94,95,92,93,94,95,92,93,94,95,
32,33,34,35,32,33,34,35,32,33,34,35,32,33,34,35,
52,53,54,55,52,53,54,55,52,53,54,55,52,53,54,55,
72,73,74,75,72,73,74,75,72,73,74,75,72,73,74,75,
92,93,94,95,92,93,94,95,92,93,94,95,92,93,94,95,
32,33,34,35,32,33,34,35,32,33,34,35,32,33,34,35,
52,53,54,55,52,53,54,55,52,53,54,55,52,53,54,55,
72,73,74,75,72,73,74,75,72,73,74,75,72,73,74,75,
92,93,94,95,92,93,94,95,92,93,94,95,92,93,94,95,
32,33,34,35,32,33,34,35,32,33,34,35,32,33,34,35,
92,93,94,95,92,93,94,95,92,93,94,95,92,93,94,95,
32,33,34,35,32,33,34,35,32,33,34,35,32,33,34,35,
52,53,54,55,52,53,54,55,52,53,54,55,52,53,54,55
</chunk>
   <chunk x="48" y="32" width="16" height="16">
32,33,34,35,32,33,34,35,32,33,34,35,32,33,34,35,
52,53,54,55,52,53,54,55,52,53,54,55,52,53,54,55,
72,73,74,75,72,73,74,75,72,73,74,75,72,73,74,75,
92,93,94,95,92,93,94,95,92,93,94,95,92,93,94,95,
32,33,34,35,32,33,34,35,32,33,34,35,32,33,34,35,
52,53,54,55,52,53,54,55,52,53,54,55,52,53,54,55,
72,73,74,75,72,73,74,75,72,73,74,75,72,73,74,75,
92,93,94,95,92,93,94,95,92,93,94,95,92,93,94,95,
32,33,34,35,32,33,34,35,32,33,34,35,32,33,34,35,
52,53,54,55,52,53,54,55,52,53,54,55,52,53,54,55,
72,73,74,75,72,73,74,75,72,73,74,75,72,73,74,75,
92,93,94,95,92,93,94,95,92,93,94,95,92,93,94,95,
32,33,34,35,32,33,34,35,32,33,34,35,32,33,34,35,
92,93,94,95,92,93,94,95,92,93,94,95,92,93,94,95,
32,33,34,35,32,33,34,35,32,33,34,35,32,33,34,35,
52,53,54,55,52,53,54,55,52,53,54,55,52,53,54,55
</chunk>
   <chunk x="64" y="32" width="16" height="16">
32,33,34,35,32,33,34,35,32,33,34,35,32,33,34,35,
52,53,54,55,52,53,54,55,52,53,54,55,52,53,54,55,
72,73,74,75,72,73,74,75,72,73,74,75,72,73,74,75,
92,93,94,95,92,93,94,95,92,93,94,95,92,93,94,95,
32,33,34,35,32,33,34,35,32,33,34,35,32,33,34,35,
52,53,54,55,52,53,54,55,52,53,54,55,52,53,54,55,
72,73,74,75,72,73,74,75,72,73,74,75,72,73,74,75,
92,93,94,95,92,93,94,95,92,93,94,95,92,93,94,95,
32,33,34,35,32,33,34,35,32,33,34,35,32,33,34,35,
52,53,54,55,52,53,54,55,52,53,54,55,52,53,54,55,
72,73,74,75,72,73,74,75,72,73,74,75,72,73,74,75,
92,93,94,95,92,93,94,95,92,93,94,95,92,93,94,95,
32,33,34,35,32,33,34,35,32,33,34,35,32,33,34,35,
92,93,94,95,92,93,94,95,92,93,94,95,92,93,94,95,
32,33,34,35,32,33,34,35,32,33,34,35,32,33,34,35,
52,53,54,55,52,53,54,55,52,53,54,55,52,53,54,55
</chunk>
   <chunk x="80" y="32" width="16" height="16">
32,33,34,35,32,33,34,35,32,33,34,35,32,33,34,35,
52,53,54,55,52,53,54,55,52,53,54,55,52,53,54,55,
72,73,74,75,72,73,74,75,72,73,74,75,72,73,74,75,
92,93,94,95,92,93,94,95,92,93,94,95,92,93,94,95,
32,33,34,35,32,33,34,35,32,33,34,35,32,33,34,35,
52,53,54,55,52,53,54,55,52,53,54,55,52,53,54,55,
72,73,74,75,72,73,74,75,72,73,74,75,72,73,74,75,
92,93,94,95,92,93,94,95,92,93,94,95,92,93,94,95,
32,33,34,35,32,33,34,35,32,33,34,35,32,33,34,35,
52,53,54,55,52,53,54,55,52,53,54,55,52,53,54,55,
72,73,74,75,72,73,74,75,72,73,74,75,72,73,74,75,
92,93,94,95,92,93,94,95,92,93,94,95,92,93,94,95,
32,33,34,35,32,33,34,35,32,33,34,35,32,33,34,35,
92,93,94,95,92,93,94,95,92,93,94,95,92,93,94,95,
32,33,34,35,32,33,34,35,32,33,34,35,32,33,34,35,
52,53,54,55,52,53,54,55,52,53,54,55,52,53,54,55
</chunk>
   <chunk x="96" y="32" width="16" height="16">
32,33,34,35,32,33,34,35,32,33,34,35,32,33,34,35,
52,53,54,55,52,53,54,55,52,53,54,55,52,53,54,55,
72,73,74,75,72,73,74,75,72,73,74,75,72,73,74,75,
92,93,94,95,92,93,94,95,92,93,94,95,92,93,94,95,
32,33,34,35,32,33,34,35,32,33,34,35,32,33,34,35,
52,53,54,55,52,53,54,55,52,53,54,55,52,53,54,55,
72,73,74,75,72,73,74,75,72,73,74,75,72,73,74,75,
92,93,94,95,92,93,94,95,92,93,94,95,92,93,94,95,
32,33,34,35,32,33,34,35,32,33,34,35,32,33,34,35,
52,53,54,55,52,53,54,55,52,53,54,55,52,53,54,55,
72,73,74,75,72,73,74,75,72,73,74,75,72,73,74,75,
92,93,94,95,92,93,94,95,92,93,94,95,92,93,94,95,
32,33,34,35,32,33,34,35,32,33,34,35,32,33,34,35,
92,93,94,95,92,93,94,95,92,93,94,95,92,93,94,95,
32,33,34,35,32,33,34,35,32,33,34,35,32,33,34,35,
52,53,54,55,52,53,54,55,52,53,54,55,52,53,54,55
</chunk>
   <chunk x="112" y="32" width="16" height="16">
32,33,34,35,32,33,34,35,32,33,34,35,32,33,34,35,
52,53,54,55,52,53,54,55,52,53,54,55,52,53,54,55,
72,73,74,75,72,73,74,75,72,73,74,75,72,73,74,75,
92,93,94,95,92,93,94,95,92,93,94,95,92,93,94,95,
32,33,34,35,32,33,34,35,32,33,34,35,32,33,34,35,
52,53,54,55,52,53,54,55,52,53,54,55,52,53,54,55,
72,73,74,75,72,73,74,75,72,73,74,75,72,73,74,75,
92,93,94,95,92,93,94,95,92,93,94,95,92,93,94,95,
32,33,34,35,32,33,34,35,32,33,34,35,32,33,34,35,
52,53,54,55,52,53,54,55,52,53,54,55,52,53,54,55,
72,73,74,75,72,73,74,75,72,73,74,75,72,73,74,75,
92,93,94,95,92,93,94,95,92,93,94,95,92,93,94,95,
32,33,34,35,32,33,34,35,32,33,34,35,32,33,34,35,
92,93,94,95,92,93,94,95,92,93,94,95,92,93,94,95,
32,33,34,35,32,33,34,35,32,33,34,35,32,33,34,35,
52,53,54,55,52,53,54,55,52,53,54,55,52,53,54,55
</chunk>
   <chunk x="128" y="32" width="16" height="16">
32,33,34,35,32,33,34,35,32,33,34,35,32,33,34,95,
52,53,54,55,52,53,54,55,52,53,54,55,52,53,54,95,
72,73,74,75,72,73,74,75,72,73,74,75,72,73,74,95,
92,93,94,95,92,93,94,95,92,93,94,95,92,93,94,55,
32,33,34,35,32,33,34,35,32,33,34,35,32,33,34,75,
52,53,54,55,52,53,54,55,52,53,54,55,52,53,54,95,
72,73,74,75,72,73,74,75,72,73,74,75,72,73,74,95,
92,93,94,95,92,93,94,95,92,93,94,95,92,93,94,55,
32,33,34,35,32,33,34,35,32,33,34,35,32,33,34,75,
52,53,54,55,52,53,54,55,52,53,54,55,52,53,54,95,
72,73,74,75,72,73,74,75,72,73,74,75,72,73,74,35,
92,93,94,95,92,93,94,95,92,93,94,95,92,93,94,55,
32,33,34,35,32,33,34,35,32,33,34,35,32,33,34,75,
92,93,94,95,92,93,94,95,92,93,94,95,92,93,94,95,
32,33,34,35,32,33,34,35,32,33,34,35,32,33,34,35,
52,53,54,55,52,53,54,55,52,53,54,55,52,53,54,55
</chunk>
   <chunk x="0" y="48" width="16" height="16">
72,73,74,75,72,73,74,75,72,73,74,75,72,73,74,75,
92,93,94,95,92,93,94,95,92,93,94,95,92,93,94,95,
32,33,34,35,32,33,34,35,32,33,34,35,32,33,34,35,
52,53,54,55,52,53,54,55,52,53,54,55,52,53,54,55,
72,73,74,75,72,73,74,75,72,73,74,75,72,73,74,75,
92,93,94,95,92,93,94,95,92,93,94,95,92,93,94,95,
32,33,34,35,32,33,34,35,32,33,34,35,32,33,34,35,
52,53,54,55,52,53,54,55,52,53,54,55,52,53,54,55,
72,73,74,75,72,73,74,75,72,73,74,75,72,73,74,75,
92,93,94,95,92,93,94,95,92,93,94,95,92,93,94,95,
32,33,34,35,32,33,34,35,32,33,34,35,32,33,34,35,
52,53,54,55,52,53,54,55,52,53,54,55,52,53,54,55,
72,73,74,75,72,73,74,75,72,73,74,75,72,73,74,75,
92,93,94,95,92,93,94,95,92,93,94,95,92,93,94,95,
32,33,34,35,32,33,34,35,32,33,34,35,32,33,34,35,
52,53,54,55,52,53,54,55,52,53,54,55,52,53,54,55
</chunk>
   <chunk x="16" y="48" width="16" height="16">
72,73,74,75,72,73,74,75,72,73,74,75,72,73,74,75,
92,93,94,95,92,93,94,95,92,93,94,95,92,93,94,95,
32,33,34,35,32,33,34,35,32,33,34,35,32,33,34,35,
52,53,54,55,52,53,54,55,52,53,54,55,52,53,54,55,
72,73,74,75,72,73,74,75,72,73,74,75,72,73,74,75,
92,93,94,95,92,93,94,95,92,93,94,95,92,93,94,95,
32,33,34,35,32,33,34,35,32,33,34,35,32,33,34,35,
52,53,54,55,52,53,54,55,52,53,54,55,52,53,54,55,
72,73,74,75,72,73,74,75,72,73,74,75,72,73,74,75,
92,93,94,95,92,93,94,95,92,93,94,95,92,93,94,95,
32,33,34,35,32,33,34,35,32,33,34,35,32,33,34,35,
52,53,54,55,52,53,54,55,52,53,54,55,52,53,54,55,
72,73,74,75,72,73,74,75,72,73,74,75,72,73,74,75,
92,93,94,95,92,93,94,95,92,93,94,95,92,93,94,95,
32,33,34,35,32,33,34,35,32,33,34,35,32,33,34,35,
52,53,54,55,52,53,54,55,52,53,54,55,52,53,54,55
</chunk>
   <chunk x="32" y="48" width="16" height="16">
72,73,74,75,72,73,74,75,72,73,74,75,72,73,74,75,
92,93,94,95,92,93,94,95,92,93,94,95,92,93,94,95,
32,33,34,35,32,33,34,35,32,33,34,35,32,33,34,35,
52,53,54,55,52,53,54,55,52,53,54,55,52,53,54,55,
72,73,74,75,72,73,74,75,72,73,74,75,72,73,74,75,
92,93,94,95,92,93,94,95,92,93,94,95,92,93,94,95,
32,33,34,35,32,33,34,35,32,33,34,35,32,33,34,35,
52,53,54,55,52,53,54,55,52,53,54,55,52,53,54,55,
72,73,74,75,72,73,74,75,72,73,74,75,72,73,74,75,
92,93,94,95,92,93,94,95,92,93,94,95,92,93,94,95,
32,33,34,35,32,33,34,35,32,33,34,35,32,33,34,35,
52,53,54,55,52,53,54,55,52,53,54,55,52,53,54,55,
72,73,74,75,72,73,74,75,72,73,74,75,72,73,74,75,
92,93,94,95,92,93,94,95,92,93,94,95,92,93,94,95,
32,33,34,35,32,33,34,35,32,33,34,35,32,33,34,35,
52,53,54,55,52,53,54,55,52,53,54,55,52,53,54,55
</chunk>
   <chunk x="48" y="48" width="16" height="16">
72,73,74,75,72,73,74,75,72,73,74,75,72,73,74,75,
92,93,94,95,92,93,94,95,92,93,94,95,92,93,94,95,
32,33,34,35,32,33,34,35,32,33,34,35,32,33,34,35,
52,53,54,55,52,53,54,55,52,53,54,55,52,53,54,55,
72,73,74,75,72,73,74,75,72,73,74,75,72,73,74,75,
92,93,94,95,92,93,94,95,92,93,94,95,92,93,94,95,
32,33,34,35,32,33,34,35,32,33,34,35,32,33,34,35,
52,53,54,55,52,53,54,55,52,53,54,55,52,53,54,55,
72,73,74,75,72,73,74,75,72,73,74,75,72,73,74,75,
92,93,94,95,92,93,94,95,92,93,94,95,92,93,94,95,
32,33,34,35,32,33,34,35,32,33,34,35,32,33,34,35,
52,53,54,55,52,53,54,55,52,53,54,55,52,53,54,55,
72,73,74,75,72,73,74,75,72,73,74,75,72,73,74,75,
92,93,94,95,92,93,94,95,92,93,94,95,92,93,94,95,
32,33,34,35,32,33,34,35,32,33,34,35,32,33,34,35,
52,53,54,55,52,53,54,55,52,53,54,55,52,53,54,55
</chunk>
   <chunk x="64" y="48" width="16" height="16">
72,73,74,75,72,73,74,75,72,73,74,75,72,73,74,75,
92,93,94,95,92,93,94,95,92,93,94,95,92,93,94,95,
32,33,34,35,32,33,34,35,32,33,34,35,32,33,34,35,
52,53,54,55,52,53,54,55,52,53,54,55,52,53,54,55,
72,73,74,75,72,73,74,75,72,73,74,75,72,73,74,75,
92,93,94,95,92,93,94,95,92,93,94,95,92,93,94,95,
32,33,34,35,32,33,34,35,32,33,34,35,32,33,34,35,
52,53,54,55,52,53,54,55,52,53,54,55,52,53,54,55,
72,73,74,75,72,73,74,75,72,73,74,75,72,73,74,75,
92,93,94,95,92,93,94,95,92,93,94,95,92,93,94,95,
32,33,34,35,32,33,34,35,32,33,34,35,32,33,34,35,
52,53,54,55,52,53,54,55,52,53,54,55,52,53,54,55,
72,73,74,75,72,73,74,75,72,73,74,75,72,73,74,75,
92,93,94,95,92,93,94,95,92,93,94,95,92,93,94,95,
32,33,34,35,32,33,34,35,32,33,34,35,32,33,34,35,
52,53,54,55,52,53,54,55,52,53,54,55,52,53,54,55
</chunk>
   <chunk x="80" y="48" width="16" height="16">
72,73,74,75,72,73,74,75,72,73,74,75,72,73,74,75,
92,93,94,95,92,93,94,95,92,93,94,95,92,93,94,95,
32,33,34,35,32,33,34,35,32,33,34,35,32,33,34,35,
52,53,54,55,52,53,54,55,52,53,54,55,52,53,54,55,
72,73,74,75,72,73,74,75,72,73,74,75,72,73,74,75,
92,93,94,95,92,93,94,95,92,93,94,95,92,93,94,95,
32,33,34,35,32,33,34,35,32,33,34,35,32,33,34,35,
52,53,54,55,52,53,54,55,52,53,54,55,52,53,54,55,
72,73,74,75,72,73,74,75,72,73,74,75,72,73,74,75,
92,93,94,95,92,93,94,95,92,93,94,95,92,93,94,95,
32,33,34,35,32,33,34,35,32,33,34,35,32,33,34,35,
52,53,54,55,52,53,54,55,52,53,54,55,52,53,54,55,
72,73,74,75,72,73,74,75,72,73,74,75,72,73,74,75,
92,93,94,95,92,93,94,95,92,93,94,95,92,93,94,95,
32,33,34,35,32,33,34,35,32,33,34,35,32,33,34,35,
52,53,54,55,52,53,54,55,52,53,54,55,52,53,54,55
</chunk>
   <chunk x="96" y="48" width="16" height="16">
72,73,74,75,72,73,74,75,72,73,74,75,72,73,74,75,
92,93,94,95,92,93,94,95,92,93,94,95,92,93,94,95,
32,33,34,35,32,33,34,35,32,33,34,35,32,33,34,35,
52,53,54,55,52,53,54,55,52,53,54,55,52,53,54,55,
72,73,74,75,72,73,74,75,72,73,74,75,72,73,74,75,
92,93,94,95,92,93,94,95,92,93,94,95,92,93,94,95,
32,33,34,35,32,33,34,35,32,33,34,35,32,33,34,35,
52,53,54,55,52,53,54,55,52,53,54,55,52,53,54,55,
72,73,74,75,72,73,74,75,72,73,74,75,72,73,74,75,
92,93,94,95,92,93,94,95,92,93,94,95,92,93,94,95,
32,33,34,35,32,33,34,35,32,33,34,35,32,33,34,35,
52,53,54,55,52,53,54,55,52,53,54,55,52,53,54,55,
72,73,74,75,72,73,74,75,72,73,74,75,72,73,74,75,
92,93,94,95,92,93,94,95,92,93,94,95,92,93,94,95,
32,33,34,35,32,33,34,35,32,33,34,35,32,33,34,35,
52,53,54,55,52,53,54,55,52,53,54,55,52,53,54,55
</chunk>
   <chunk x="112" y="48" width="16" height="16">
72,73,74,75,72,73,74,75,72,73,74,75,72,73,74,75,
92,93,94,95,92,93,94,95,92,93,94,95,92,93,94,95,
32,33,34,35,32,33,34,35,32,33,34,35,32,33,34,35,
52,53,54,55,52,53,54,55,52,53,54,55,52,53,54,55,
72,73,74,75,72,73,74,75,72,73,74,75,72,73,74,75,
92,93,94,95,92,93,94,95,92,93,94,95,92,93,94,95,
32,33,34,35,32,33,34,35,32,33,34,35,32,33,34,35,
52,53,54,55,52,53,54,55,52,53,54,55,52,53,54,55,
72,73,74,75,72,73,74,75,72,73,74,75,72,73,74,75,
92,93,94,95,92,93,94,95,92,93,94,95,92,93,94,95,
32,33,34,35,32,33,34,35,32,33,34,35,32,33,34,35,
52,53,54,55,52,53,54,55,52,53,54,55,52,53,54,55,
72,73,74,75,72,73,74,75,72,73,74,75,72,73,74,75,
92,93,94,95,92,93,94,95,92,93,94,95,92,93,94,95,
32,33,34,35,32,33,34,35,32,33,34,35,32,33,34,35,
52,53,54,55,52,53,54,55,52,53,54,55,52,53,54,55
</chunk>
   <chunk x="128" y="48" width="16" height="16">
72,73,74,75,72,73,74,75,72,73,74,75,72,73,74,75,
92,93,94,95,92,93,94,95,92,93,94,95,92,93,94,95,
32,33,34,35,32,33,34,35,32,33,34,35,32,33,34,35,
52,53,54,55,52,53,54,55,52,53,54,55,52,53,54,55,
72,73,74,75,72,73,74,75,72,73,74,75,72,73,74,75,
32,33,34,35,92,93,94,95,92,93,94,95,92,93,94,95,
52,53,54,55,32,33,34,35,32,33,34,35,32,33,34,35,
72,73,74,75,52,53,54,55,52,53,54,55,52,53,54,55,
92,93,94,95,72,73,74,75,72,73,74,75,72,73,74,75,
92,93,94,95,92,93,94,95,92,93,94,95,92,93,94,95,
32,33,34,35,32,33,34,35,32,33,34,35,32,33,34,35,
52,53,54,55,52,53,54,55,52,53,54,55,52,53,54,55,
72,73,74,75,72,73,74,75,72,73,74,75,72,73,74,75,
92,93,94,95,92,93,94,95,92,93,94,95,92,93,94,95,
32,33,34,35,32,33,34,35,32,33,34,35,32,33,34,35,
52,53,54,55,52,53,54,55,52,53,54,55,52,53,54,55
</chunk>
   <chunk x="0" y="64" width="16" height="16">
72,73,74,75,72,73,74,75,72,73,74,75,72,73,74,75,
92,93,94,95,92,93,94,95,92,93,94,95,92,93,94,95,
32,33,34,35,32,33,34,35,32,33,34,35,32,33,34,35,
32,33,34,35,52,53,54,55,52,53,54,55,52,53,54,55,
52,53,54,55,72,73,74,75,72,73,74,75,72,73,74,75,
72,73,74,75,92,93,94,95,92,93,94,95,92,93,94,95,
92,93,94,95,32,33,34,35,32,33,34,35,32,33,34,35,
52,53,54,55,52,53,54,55,52,53,54,55,52,53,54,55,
72,73,74,75,72,73,74,75,72,73,74,75,72,73,74,75,
92,93,94,95,92,93,94,95,92,93,94,95,92,93,94,95,
32,33,34,35,32,33,34,35,32,33,34,35,32,33,34,35,
52,53,54,55,52,53,54,55,52,53,54,55,52,53,54,55,
72,73,74,75,72,73,74,75,72,73,74,75,72,73,74,75,
92,93,94,95,92,93,94,95,92,93,94,95,92,93,94,95,
32,33,34,35,32,33,34,35,32,33,34,35,32,33,34,35,
52,53,54,55,52,53,54,55,52,53,54,55,52,53,54,55
</chunk>
   <chunk x="16" y="64" width="16" height="16">
72,73,74,75,72,73,74,75,72,73,74,75,72,73,74,75,
92,93,94,95,92,93,94,95,92,93,94,95,92,93,94,95,
32,33,34,35,32,33,34,35,32,33,34,35,32,33,34,35,
52,53,54,55,52,53,54,55,52,53,54,55,52,53,54,55,
72,73,74,75,72,73,74,75,72,73,74,75,72,73,74,75,
92,93,94,95,92,93,94,95,92,93,94,95,92,93,94,95,
32,33,34,35,32,33,34,35,32,33,34,35,32,33,34,35,
52,53,54,55,52,53,54,55,52,53,54,55,52,53,54,55,
72,73,74,75,72,73,74,75,72,73,74,75,72,73,74,75,
92,93,94,95,92,93,94,95,92,93,94,95,92,93,94,95,
32,33,34,35,32,33,34,35,32,33,34,35,32,33,34,35,
52,53,54,55,52,53,54,55,52,53,54,55,52,53,54,55,
72,73,74,75,72,73,74,75,72,73,74,75,72,73,74,75,
92,93,94,95,92,93,94,95,92,93,94,95,92,93,94,95,
32,33,34,35,32,33,34,35,32,33,34,35,32,33,34,35,
52,53,54,55,52,53,54,55,52,53,54,55,52,53,54,55
</chunk>
   <chunk x="32" y="64" width="16" height="16">
72,73,74,75,72,73,74,75,72,73,74,75,72,73,74,75,
92,93,94,95,92,93,94,95,92,93,94,95,92,93,94,95,
32,33,34,35,32,33,34,35,32,33,34,35,32,33,34,35,
52,53,54,55,52,53,54,55,52,53,54,55,52,53,54,55,
72,73,74,75,72,73,74,75,72,73,74,75,72,73,74,75,
92,93,94,95,92,93,94,95,92,93,94,95,92,93,94,95,
32,33,34,35,32,33,34,35,32,33,34,35,32,33,34,35,
52,53,54,55,52,53,54,55,52,53,54,55,52,53,54,55,
72,73,74,75,72,73,74,75,72,73,74,75,72,73,74,75,
92,93,94,95,92,93,94,95,92,93,94,95,92,93,94,95,
32,33,34,35,32,33,34,35,32,33,34,35,32,33,34,35,
52,53,54,55,52,53,54,55,52,53,54,55,52,53,54,55,
72,73,74,75,72,73,74,75,72,73,74,75,72,73,74,75,
92,93,94,95,92,93,94,95,92,93,94,95,92,93,94,95,
32,33,34,35,32,33,34,35,32,33,34,35,32,33,34,35,
52,53,54,55,52,53,54,55,52,53,54,55,52,53,54,55
</chunk>
   <chunk x="48" y="64" width="16" height="16">
72,73,74,75,72,73,74,75,72,73,74,75,72,73,74,75,
92,93,94,95,92,93,94,95,92,93,94,95,92,93,94,95,
32,33,34,35,32,33,34,35,32,33,34,35,32,33,34,35,
52,53,54,55,52,53,54,55,52,53,54,55,52,53,54,55,
72,73,74,75,72,73,74,75,72,73,74,75,72,73,74,75,
92,93,94,95,92,93,94,95,92,93,94,95,92,93,94,95,
32,33,34,35,32,33,34,35,32,33,34,35,32,33,34,35,
52,53,54,55,52,53,54,55,52,53,54,55,52,53,54,55,
72,73,74,75,72,73,74,75,72,73,74,75,72,73,74,75,
92,93,94,95,92,93,94,95,92,93,94,95,92,93,94,95,
32,33,34,35,32,33,34,35,32,33,34,35,32,33,34,35,
52,53,54,55,52,53,54,55,52,53,54,55,52,53,54,55,
72,73,74,75,72,73,74,75,72,73,74,75,72,73,74,75,
92,93,94,95,92,93,94,95,92,93,94,95,92,93,94,95,
32,33,34,35,32,33,34,35,32,33,34,35,32,33,34,35,
52,53,54,55,52,53,54,55,52,53,54,55,52,53,54,55
</chunk>
   <chunk x="64" y="64" width="16" height="16">
72,73,74,75,72,73,74,75,72,73,74,75,72,73,74,75,
92,93,94,95,92,93,94,95,92,93,94,95,92,93,94,95,
32,33,34,35,32,33,34,35,32,33,34,35,32,33,34,35,
52,53,54,55,52,53,54,55,52,53,54,55,52,53,54,55,
72,73,74,75,72,73,74,75,72,73,74,75,72,73,74,75,
92,93,94,95,92,93,94,95,92,93,94,95,92,93,94,95,
32,33,34,35,32,33,34,35,32,33,34,35,32,33,34,35,
52,53,54,55,52,53,54,55,52,53,54,55,52,53,54,55,
72,73,74,75,72,73,74,75,72,73,74,75,72,73,74,75,
92,93,94,95,92,93,94,95,92,93,94,95,92,93,94,95,
32,33,34,35,32,33,34,35,32,33,34,35,32,33,34,35,
52,53,54,55,52,53,54,55,52,53,54,55,52,53,54,55,
72,73,74,75,72,73,74,75,72,73,74,75,72,73,74,75,
92,93,94,95,92,93,94,95,92,93,94,95,92,93,94,95,
32,33,34,35,32,33,34,35,32,33,34,35,32,33,34,35,
52,53,54,55,52,53,54,55,52,53,54,55,52,53,54,55
</chunk>
   <chunk x="80" y="64" width="16" height="16">
72,73,74,75,72,73,74,75,72,73,74,75,72,73,74,75,
92,93,94,95,92,93,94,95,92,93,94,95,92,93,94,95,
32,33,34,35,32,33,34,35,32,33,34,35,32,33,34,35,
52,53,54,55,52,53,54,55,52,53,54,55,52,53,54,55,
72,73,74,75,72,73,74,75,72,73,74,75,72,73,74,75,
92,93,94,95,92,93,94,95,92,93,94,95,92,93,94,95,
32,33,34,35,32,33,34,35,32,33,34,35,32,33,34,35,
52,53,54,55,52,53,54,55,52,53,54,55,52,53,54,55,
72,73,74,75,72,73,74,75,72,73,74,75,72,73,74,75,
92,93,94,95,92,93,94,95,92,93,94,95,92,93,94,95,
32,33,34,35,32,33,34,35,32,33,34,35,32,33,34,35,
52,53,54,55,52,53,54,55,52,53,54,55,52,53,54,55,
72,73,74,75,72,73,74,75,72,73,74,75,72,73,74,75,
92,93,94,95,92,93,94,95,92,93,94,95,92,93,94,95,
32,33,34,35,32,33,34,35,32,33,34,35,32,33,34,35,
52,53,54,55,52,53,54,55,52,53,54,55,52,53,54,55
</chunk>
   <chunk x="96" y="64" width="16" height="16">
72,73,74,75,72,73,74,75,72,73,74,75,72,73,74,75,
92,93,94,95,92,93,94,95,92,93,94,95,92,93,94,95,
32,33,34,35,32,33,34,35,32,33,34,35,32,33,34,35,
52,53,54,55,52,53,54,55,52,53,54,55,52,53,54,55,
72,73,74,75,72,73,74,75,72,73,74,75,72,73,74,75,
92,93,94,95,92,93,94,95,92,93,94,95,92,93,94,95,
32,33,34,35,32,33,34,35,32,33,34,35,32,33,34,35,
52,53,54,55,52,53,54,55,52,53,54,55,52,53,54,55,
72,73,74,75,72,73,74,75,72,73,74,75,72,73,74,75,
92,93,94,95,92,93,94,95,92,93,94,95,92,93,94,95,
32,33,34,35,32,33,34,35,32,33,34,35,32,33,34,35,
52,53,54,55,52,53,54,55,52,53,54,55,52,53,54,55,
72,73,74,75,72,73,74,75,72,73,74,75,72,73,74,75,
92,93,94,95,92,93,94,95,92,93,94,95,92,93,94,95,
32,33,34,35,32,33,34,35,32,33,34,35,32,33,34,35,
52,53,54,55,52,53,54,55,52,53,54,55,52,53,54,55
</chunk>
   <chunk x="112" y="64" width="16" height="16">
72,73,74,75,72,73,74,75,72,73,74,75,72,73,74,75,
92,93,94,95,92,93,94,95,92,93,94,95,92,93,94,95,
32,33,34,35,32,33,34,35,32,33,34,35,32,33,34,35,
52,53,54,55,52,53,54,55,52,53,54,55,52,53,54,55,
72,73,74,75,72,73,74,75,72,73,74,75,72,73,74,75,
92,93,94,95,92,93,94,95,92,93,94,95,92,93,94,95,
32,33,34,35,32,33,34,35,32,33,34,35,32,33,34,35,
52,53,54,55,52,53,54,55,52,53,54,55,52,53,54,55,
72,73,74,75,72,73,74,75,72,73,74,75,72,73,74,75,
92,93,94,95,92,93,94,95,92,93,94,95,92,93,94,95,
32,33,34,35,32,33,34,35,32,33,34,35,32,33,34,35,
52,53,54,55,52,53,54,55,52,53,54,55,52,53,54,55,
72,73,74,75,72,73,74,75,72,73,74,75,72,73,74,75,
92,93,94,95,92,93,94,95,92,93,94,95,92,93,94,95,
32,33,34,35,32,33,34,35,32,33,34,35,32,33,34,35,
52,53,54,55,52,53,54,55,52,53,54,55,52,53,54,55
</chunk>
   <chunk x="128" y="64" width="16" height="16">
72,73,74,75,72,73,74,75,72,73,74,75,72,73,74,75,
92,93,94,95,92,93,94,95,92,93,94,95,92,93,94,95,
32,33,34,35,32,33,34,35,32,33,34,35,32,33,34,35,
52,53,54,55,52,53,54,55,52,53,54,55,52,53,54,55,
72,73,74,75,72,73,74,75,72,73,74,75,72,73,74,75,
92,93,94,95,92,93,94,95,92,93,94,95,92,93,94,95,
32,33,34,35,32,33,34,35,32,33,34,35,32,33,34,35,
52,53,54,55,52,53,54,55,52,53,54,55,52,53,54,55,
72,73,74,75,72,73,74,75,72,73,74,75,72,73,74,75,
92,93,94,95,92,93,94,95,92,93,94,95,92,93,94,95,
32,33,34,35,32,33,34,35,32,33,34,35,32,33,34,35,
52,53,54,55,52,53,54,55,52,53,54,55,52,53,54,55,
72,73,74,75,72,73,74,75,72,73,74,75,72,73,74,75,
92,93,94,95,92,93,94,95,92,93,94,95,92,93,94,95,
32,33,34,35,32,33,34,35,32,33,34,35,32,33,34,35,
52,53,54,55,52,53,54,55,52,53,54,55,52,53,54,55
</chunk>
   <chunk x="0" y="80" width="16" height="16">
72,73,74,75,72,73,74,75,72,73,74,75,72,73,74,75,
92,93,94,95,92,93,94,95,92,93,94,95,92,93,94,95,
32,33,34,35,32,33,34,35,32,33,34,35,32,33,34,35,
52,53,54,55,52,53,54,55,52,53,54,55,52,53,54,55,
72,73,74,75,72,73,74,75,72,73,74,75,72,73,74,75,
92,93,94,95,92,93,94,95,92,93,94,95,92,93,94,95,
32,33,34,35,32,33,34,35,32,33,34,35,32,33,34,35,
52,53,54,55,52,53,54,55,52,53,54,55,52,53,54,55,
72,73,74,75,72,73,74,75,72,73,74,75,72,73,74,75,
92,93,94,95,92,93,94,95,92,93,94,95,92,93,94,95,
32,33,34,35,32,33,34,35,32,33,34,35,32,33,34,35,
52,53,54,55,52,53,54,55,52,53,54,55,52,53,54,55,
72,73,74,75,72,73,74,75,72,73,74,75,72,73,74,75,
92,93,94,95,92,93,94,95,92,93,94,95,92,93,94,95,
32,33,34,35,32,33,34,35,32,33,34,35,32,33,34,35,
52,53,54,55,52,53,54,55,52,53,54,55,52,53,54,55
</chunk>
   <chunk x="16" y="80" width="16" height="16">
72,73,74,75,72,73,74,75,72,73,74,75,72,73,74,75,
32,33,34,35,92,93,94,95,92,93,94,95,92,93,94,95,
52,53,54,55,32,33,34,35,32,33,34,35,32,33,34,35,
72,73,74,75,52,53,54,55,52,53,54,55,52,53,54,55,
92,93,94,95,72,73,74,75,72,73,74,75,72,73,74,75,
32,33,34,35,92,93,94,95,92,93,94,95,92,93,94,95,
52,53,54,55,32,33,34,35,32,33,34,35,32,33,34,35,
72,73,74,75,52,53,54,55,52,53,54,55,52,53,54,55,
92,93,94,95,72,73,74,75,72,73,74,75,72,73,74,75,
72,73,74,75,92,93,94,95,92,93,94,95,92,93,94,95,
92,93,94,95,32,33,34,35,32,33,34,35,32,33,34,35,
52,53,54,55,52,53,54,55,52,53,54,55,52,53,54,55,
72,73,74,75,72,73,74,75,72,73,74,75,72,73,74,75,
92,93,94,95,92,93,94,95,92,93,94,95,92,93,94,95,
32,33,34,35,32,33,34,35,32,33,34,35,32,33,34,35,
52,53,54,55,52,53,54,55,52,53,54,55,52,53,54,55
</chunk>
   <chunk x="32" y="80" width="16" height="16">
72,73,74,75,72,73,74,75,72,73,74,75,72,73,74,75,
92,93,94,95,92,93,94,95,92,93,94,95,92,93,94,95,
32,33,34,35,32,33,34,35,32,33,34,35,32,33,34,35,
52,53,54,55,52,53,54,55,52,53,54,55,52,53,54,55,
72,73,74,75,72,73,74,75,72,73,74,75,72,73,74,75,
92,93,94,95,92,93,94,95,92,93,94,95,92,93,94,95,
32,33,34,35,32,33,34,35,32,33,34,35,32,33,34,35,
52,53,54,55,52,53,54,55,52,53,54,55,52,53,54,55,
72,73,74,75,72,73,74,75,72,73,74,75,72,73,74,75,
92,93,94,95,92,93,94,95,92,93,94,95,92,93,94,95,
32,33,34,35,32,33,34,35,32,33,34,35,32,33,34,35,
52,53,54,55,52,53,54,55,52,53,54,55,52,53,54,55,
72,73,74,75,72,73,74,75,72,73,74,75,72,73,74,75,
92,93,94,95,92,93,94,95,92,93,94,95,92,93,94,95,
32,33,34,35,32,33,34,35,32,33,34,35,32,33,34,35,
52,53,54,55,52,53,54,55,52,53,54,55,52,53,54,55
</chunk>
   <chunk x="48" y="80" width="16" height="16">
72,73,74,75,72,73,74,75,72,73,74,75,72,73,74,75,
92,93,94,95,92,93,94,95,92,93,94,95,92,93,94,95,
32,33,34,35,32,33,34,35,32,33,34,35,32,33,34,35,
52,53,54,55,52,53,54,55,52,53,54,55,52,53,54,55,
72,73,74,75,72,73,74,75,72,73,74,75,72,73,74,75,
92,93,94,95,92,93,94,95,92,93,94,95,92,93,94,95,
32,33,34,35,32,33,34,35,32,33,34,35,32,33,34,35,
52,53,54,55,52,53,54,55,52,53,54,55,52,53,54,55,
72,73,74,75,72,73,74,75,72,73,74,75,72,73,74,75,
92,93,94,95,92,93,94,95,92,93,94,95,92,93,94,95,
32,33,34,35,32,33,34,35,32,33,34,35,32,33,34,35,
52,53,54,55,52,53,54,55,52,53,54,55,52,53,54,55,
72,73,74,75,72,73,74,75,72,73,74,75,72,73,74,75,
92,93,94,95,92,93,94,95,92,93,94,95,92,93,94,95,
32,33,34,35,32,33,34,35,32,33,34,35,32,33,34,35,
52,53,54,55,52,53,54,55,52,53,54,55,52,53,54,55
</chunk>
   <chunk x="64" y="80" width="16" height="16">
72,73,74,75,72,73,74,75,72,73,74,75,72,73,74,75,
92,93,94,95,92,93,94,95,92,93,94,95,92,93,94,95,
32,33,34,35,32,33,34,35,32,33,34,35,32,33,34,35,
52,53,54,55,52,53,54,55,52,53,54,55,52,53,54,55,
72,73,74,75,72,73,74,75,72,73,74,75,72,73,74,75,
92,93,94,95,92,93,94,95,92,93,94,95,92,93,94,95,
32,33,34,35,32,33,34,35,32,33,34,35,32,33,34,35,
52,53,54,55,52,53,54,55,52,53,54,55,52,53,54,55,
72,73,74,75,72,73,74,75,72,73,74,75,72,73,74,75,
92,93,94,95,92,93,94,95,92,93,94,95,92,93,94,95,
32,33,34,35,32,33,34,35,32,33,34,35,32,33,34,35,
52,53,54,55,52,53,54,55,52,53,54,55,52,53,54,55,
72,73,74,75,72,73,74,75,72,73,74,75,72,73,74,75,
92,93,94,95,92,93,94,95,92,93,94,95,92,93,94,95,
32,33,34,35,32,33,34,35,32,33,34,35,32,33,34,35,
52,53,54,55,52,53,54,55,52,53,54,55,52,53,54,55
</chunk>
   <chunk x="80" y="80" width="16" height="16">
72,73,74,75,72,73,74,75,72,73,74,75,72,73,74,75,
92,93,94,95,92,93,94,95,92,93,94,95,92,93,94,95,
32,33,34,35,32,33,34,35,32,33,34,35,32,33,34,35,
52,53,54,55,52,53,54,55,52,53,54,55,52,53,54,55,
72,73,74,75,72,73,74,75,72,73,74,75,72,73,74,75,
92,93,94,95,92,93,94,95,92,93,94,95,92,93,94,95,
32,33,34,35,32,33,34,35,32,33,34,35,32,33,34,35,
52,53,54,55,52,53,54,55,52,53,54,55,52,53,54,55,
72,73,74,75,72,73,74,75,72,73,74,75,72,73,74,75,
92,93,94,95,92,93,94,95,92,93,94,95,92,93,94,95,
32,33,34,35,32,33,34,35,32,33,34,35,32,33,34,35,
52,53,54,55,52,53,54,55,52,53,54,55,52,53,54,55,
72,73,74,75,72,73,74,75,72,73,74,75,72,73,74,75,
92,93,94,95,92,93,94,95,92,93,94,95,92,93,94,95,
32,33,34,35,32,33,34,35,32,33,34,35,32,33,34,35,
52,53,54,55,52,53,54,55,52,53,54,55,52,53,54,55
</chunk>
   <chunk x="96" y="80" width="16" height="16">
72,73,74,75,72,73,74,75,72,73,74,75,72,73,74,75,
92,93,94,95,92,93,94,95,92,93,94,95,92,93,94,95,
32,33,34,35,32,33,34,35,32,33,34,35,32,33,34,35,
52,53,54,55,52,53,54,55,52,53,54,55,52,53,54,55,
72,73,74,75,72,73,74,75,72,73,74,75,72,73,74,75,
92,93,94,95,92,93,94,95,92,93,94,95,92,93,94,95,
32,33,34,35,32,33,34,35,32,33,34,35,32,33,34,35,
52,53,54,55,52,53,54,55,52,53,54,55,52,53,54,55,
72,73,74,75,72,73,74,75,72,73,74,75,72,73,74,75,
92,93,94,95,92,93,94,95,92,93,94,95,92,93,94,95,
32,33,34,35,32,33,34,35,32,33,34,35,32,33,34,35,
52,53,54,55,52,53,54,55,52,53,54,55,52,53,54,55,
72,73,74,75,72,73,74,75,72,73,74,75,72,73,74,75,
92,93,94,95,92,93,94,95,92,93,94,95,92,93,94,95,
32,33,34,35,32,33,34,35,32,33,34,35,32,33,34,35,
52,53,54,55,52,53,54,55,52,53,54,55,52,53,54,55
</chunk>
   <chunk x="112" y="80" width="16" height="16">
72,73,74,75,72,73,74,75,72,73,74,75,72,73,74,75,
92,93,94,95,92,93,94,95,92,93,94,95,92,93,94,95,
32,33,34,35,32,33,34,35,32,33,34,35,32,33,34,35,
52,53,54,55,52,53,54,55,52,53,54,55,52,53,54,55,
72,73,74,75,72,73,74,75,72,73,74,75,72,73,74,75,
92,93,94,95,92,93,94,95,92,93,94,95,92,93,94,95,
32,33,34,35,32,33,34,35,32,33,34,35,32,33,34,35,
52,53,54,55,52,53,54,55,52,53,54,55,52,53,54,55,
72,73,74,75,72,73,74,75,72,73,74,75,72,73,74,75,
92,93,94,95,92,93,94,95,92,93,94,95,92,93,94,95,
32,33,34,35,32,33,34,35,32,33,34,35,32,33,34,35,
52,53,54,55,52,53,54,55,52,53,54,55,52,53,54,55,
72,73,74,75,72,73,74,75,72,73,74,75,72,73,74,75,
92,93,94,95,92,93,94,95,92,93,94,95,92,93,94,95,
32,33,34,35,32,33,34,35,32,33,34,35,32,33,34,35,
52,53,54,55,52,53,54,55,52,53,54,55,52,53,54,55
</chunk>
   <chunk x="128" y="80" width="16" height="16">
72,73,74,75,72,73,74,75,72,73,74,75,72,73,74,75,
92,93,94,95,92,93,94,95,92,93,94,95,92,93,94,95,
32,33,34,35,32,33,34,35,32,33,34,35,32,33,34,35,
52,53,54,55,52,53,54,55,52,53,54,55,52,53,54,55,
72,73,74,75,72,73,74,75,72,73,74,75,72,73,74,75,
92,93,94,95,92,93,94,95,92,93,94,95,92,93,94,95,
32,33,34,35,32,33,34,35,32,33,34,35,32,33,34,35,
52,53,54,55,52,53,54,55,52,53,54,55,52,53,54,55,
72,73,74,75,72,73,74,75,72,73,74,75,72,73,74,75,
92,93,94,95,92,93,94,95,92,93,94,95,92,93,94,95,
32,33,34,35,32,33,34,35,32,33,34,35,32,33,34,35,
52,53,54,55,52,53,54,55,52,53,54,55,52,53,54,55,
72,73,74,75,72,73,74,75,72,73,74,75,72,73,74,75,
92,93,94,95,92,93,94,95,92,93,94,95,92,93,94,95,
32,33,34,35,32,33,34,35,32,33,34,35,32,33,34,35,
52,53,54,55,52,53,54,55,52,53,54,55,52,53,54,55
</chunk>
   <chunk x="0" y="96" width="16" height="16">
72,73,74,75,72,73,74,75,72,73,74,75,72,73,74,75,
92,93,94,95,92,93,94,95,92,93,94,95,92,93,94,95,
32,33,34,35,32,33,34,35,32,33,34,35,32,33,34,35,
52,53,54,55,52,53,54,55,52,53,54,55,52,53,54,55,
72,73,74,75,72,73,74,75,72,73,74,75,72,73,74,75,
92,93,94,95,92,93,94,95,92,93,94,95,92,93,94,95,
32,33,34,35,32,33,34,35,32,33,34,35,32,33,34,35,
52,53,54,55,52,53,54,55,52,53,54,55,52,53,54,55,
72,73,74,75,72,73,74,75,72,73,74,75,72,73,74,75,
92,93,94,95,92,93,94,95,92,93,94,95,92,93,94,95,
32,33,34,35,32,33,34,35,32,33,34,35,32,33,34,35,
52,53,54,55,52,53,54,55,52,53,54,55,52,53,54,55,
72,73,74,75,72,73,74,75,72,73,74,75,72,73,74,75,
92,93,94,95,92,93,94,95,92,93,94,95,92,93,94,95,
32,33,34,35,32,33,34,35,32,33,34,35,32,33,34,35,
52,53,54,55,52,53,54,55,52,53,54,55,52,53,54,55
</chunk>
   <chunk x="16" y="96" width="16" height="16">
72,73,74,75,72,73,74,75,72,73,74,75,72,73,74,75,
92,93,94,95,92,93,94,95,92,93,94,95,92,93,94,95,
32,33,34,35,32,33,34,35,32,33,34,35,32,33,34,35,
52,53,54,55,52,53,54,55,52,53,54,55,52,53,54,55,
72,73,74,75,72,73,74,75,72,73,74,75,72,73,74,75,
92,93,94,95,92,93,94,95,92,93,94,95,92,93,94,95,
32,33,34,35,32,33,34,35,32,33,34,35,32,33,34,35,
52,53,54,55,52,53,54,55,52,53,54,55,52,53,54,55,
72,73,74,75,72,73,74,75,72,73,74,75,72,73,74,75,
92,93,94,95,92,93,94,95,92,93,94,95,92,93,94,95,
32,33,34,35,32,33,34,35,32,33,34,35,32,33,34,35,
52,53,54,55,52,53,54,55,52,53,54,55,52,53,54,55,
72,73,74,75,72,73,74,75,72,73,74,75,72,73,74,75,
92,93,94,95,92,93,94,95,92,93,94,95,92,93,94,95,
32,33,34,35,32,33,34,35,32,33,34,35,32,33,34,35,
52,53,54,55,52,53,54,55,52,53,54,55,52,53,54,55
</chunk>
   <chunk x="32" y="96" width="16" height="16">
72,73,74,75,72,73,74,75,72,73,74,75,72,73,74,75,
92,93,94,95,92,93,94,95,92,93,94,95,92,93,94,95,
32,33,34,35,32,33,34,35,32,33,34,35,32,33,34,35,
52,53,54,55,52,53,54,55,52,53,54,55,52,53,54,55,
72,73,74,75,72,73,74,75,72,73,74,75,72,73,74,75,
92,93,94,95,92,93,94,95,92,93,94,95,92,93,94,95,
32,33,34,35,32,33,34,35,32,33,34,35,32,33,34,35,
52,53,54,55,52,53,54,55,52,53,54,55,52,53,54,55,
72,73,74,75,72,73,74,75,72,73,74,75,72,73,74,75,
92,93,94,95,92,93,94,95,92,93,94,95,92,93,94,95,
32,33,34,35,32,33,34,35,32,33,34,35,32,33,34,35,
52,53,54,55,52,53,54,55,52,53,54,55,52,53,54,55,
72,73,74,75,72,73,74,75,72,73,74,75,72,73,74,75,
92,93,94,95,92,93,94,95,92,93,94,95,92,93,94,95,
32,33,34,35,32,33,34,35,32,33,34,35,32,33,34,35,
52,53,54,55,52,53,54,55,52,53,54,55,52,53,54,55
</chunk>
   <chunk x="48" y="96" width="16" height="16">
72,73,74,75,72,73,74,75,72,73,74,75,72,73,74,75,
92,93,94,95,92,93,94,95,92,93,94,95,92,93,94,95,
32,33,34,35,32,33,34,35,32,33,34,35,32,33,34,35,
52,53,54,55,52,53,54,55,52,53,54,55,52,53,54,55,
72,73,74,75,72,73,74,75,72,73,74,75,72,73,74,75,
92,93,94,95,92,93,94,95,92,93,94,95,92,93,94,95,
32,33,34,35,32,33,34,35,32,33,34,35,32,33,34,35,
52,53,54,55,52,53,54,55,52,53,54,55,52,53,54,55,
72,73,74,75,72,73,74,75,72,73,74,75,72,73,74,75,
92,93,94,95,92,93,94,95,92,93,94,95,92,93,94,95,
32,33,34,35,32,33,34,35,32,33,34,35,32,33,34,35,
52,53,54,55,52,53,54,55,52,53,54,55,52,53,54,55,
72,73,74,75,72,73,74,75,72,73,74,75,72,73,74,75,
92,93,94,95,92,93,94,95,92,93,94,95,92,93,94,95,
32,33,34,35,32,33,34,35,32,33,34,35,32,33,34,35,
52,53,54,55,52,53,54,55,52,53,54,55,52,53,54,55
</chunk>
   <chunk x="64" y="96" width="16" height="16">
72,73,74,75,72,73,74,75,72,73,74,75,72,73,74,75,
92,93,94,95,92,0,0,0,0,0,0,0,0,0,0,95,
32,33,34,0,0,0,0,0,0,0,0,0,0,0,0,0,
52,0,0,0,0,0,0,0,0,0,0,0,0,0,0,0,
0,0,0,0,0,0,0,0,0,0,0,0,0,0,0,0,
0,0,0,0,0,0,0,0,0,0,0,0,0,0,0,0,
0,0,0,0,0,0,0,0,0,0,0,0,0,0,0,0,
0,0,0,0,0,0,0,0,0,0,0,0,0,0,0,0,
72,0,0,0,0,0,0,0,0,0,0,0,0,0,0,0,
92,0,0,0,0,0,0,0,0,0,0,0,0,0,0,0,
32,33,34,0,0,0,0,0,0,0,0,0,0,0,0,0,
52,53,54,55,0,0,0,0,0,0,0,0,0,0,0,0,
72,73,74,75,72,0,0,0,0,0,0,0,0,0,74,75,
92,93,94,95,92,93,94,95,92,93,94,95,92,93,94,95,
32,33,34,35,32,33,34,35,32,33,34,35,32,33,34,35,
52,53,54,55,52,53,54,55,52,53,54,55,52,53,54,55
</chunk>
   <chunk x="80" y="96" width="16" height="16">
72,73,74,75,72,73,74,75,72,73,74,75,72,73,74,75,
92,93,94,95,92,93,94,95,92,93,94,95,92,93,94,95,
32,33,34,35,32,33,34,35,32,33,34,35,32,33,34,35,
52,53,54,55,52,53,54,55,52,53,54,55,52,53,54,55,
0,0,74,75,72,73,74,75,72,73,74,75,72,73,74,75,
0,0,0,95,92,93,94,95,92,93,94,95,92,93,94,95,
0,0,0,0,32,33,34,35,32,33,34,35,32,33,34,35,
0,0,0,0,0,53,54,55,52,53,54,55,52,53,54,55,
0,0,0,0,0,73,74,75,72,73,74,75,72,73,74,75,
0,0,0,0,92,93,94,95,92,93,94,95,92,93,94,95,
0,0,0,35,32,33,34,35,32,33,34,35,32,33,34,35,
52,53,54,55,52,53,54,55,52,53,54,55,52,53,54,55,
72,73,74,75,72,73,74,75,72,73,74,75,72,73,74,75,
92,93,94,95,92,93,94,95,92,93,94,95,92,93,94,95,
32,33,34,35,32,33,34,35,32,33,34,35,32,33,34,35,
52,53,54,55,52,53,54,55,52,53,54,55,52,53,54,55
</chunk>
   <chunk x="96" y="96" width="16" height="16">
72,73,74,75,72,73,74,75,72,73,74,75,72,73,74,75,
92,93,94,95,92,93,94,95,92,93,94,95,92,93,94,95,
32,33,34,35,32,33,34,35,32,33,34,35,32,33,34,35,
52,53,54,55,52,53,54,55,52,53,54,55,52,53,54,55,
72,73,74,75,72,73,74,75,72,73,74,75,72,73,74,75,
92,93,94,95,92,93,94,95,92,93,94,95,92,93,94,95,
32,33,34,35,32,33,34,35,32,33,34,35,32,33,34,35,
52,53,54,55,52,53,54,55,52,53,54,55,52,53,54,55,
72,73,74,75,72,73,74,75,72,73,74,75,72,73,74,75,
92,93,94,95,92,93,94,95,92,93,94,95,92,93,94,95,
32,33,34,35,32,33,34,35,32,33,34,35,32,33,34,35,
52,53,54,55,52,53,54,55,52,53,54,55,52,53,54,55,
72,73,74,75,72,73,74,75,72,73,74,75,72,73,74,75,
92,93,94,95,92,93,94,95,92,93,94,95,92,93,94,95,
32,33,34,35,32,33,34,35,32,33,34,35,32,33,34,35,
52,53,54,55,52,53,54,55,52,53,54,55,52,53,54,55
</chunk>
   <chunk x="112" y="96" width="16" height="16">
72,73,74,75,72,73,74,75,72,73,74,75,72,73,74,75,
92,93,94,95,92,93,94,95,92,93,94,95,92,93,94,95,
32,33,34,35,32,33,34,35,32,33,34,35,32,33,34,35,
52,53,54,55,52,53,54,55,52,53,54,55,52,53,54,55,
72,73,74,75,72,73,74,75,72,73,74,75,72,73,74,75,
92,93,94,95,92,93,94,95,92,93,94,95,92,93,94,95,
32,33,34,35,32,33,34,35,32,33,34,35,32,33,34,35,
52,53,54,55,52,53,54,55,52,53,54,55,52,53,54,55,
72,73,74,75,72,73,74,75,72,73,74,75,72,73,74,75,
92,93,94,95,92,93,94,95,92,93,94,95,92,93,94,95,
32,33,34,35,32,33,34,35,32,33,34,35,32,33,34,35,
52,53,54,55,52,53,54,55,52,53,54,55,52,53,54,55,
72,73,74,75,72,73,74,75,72,73,74,75,72,73,74,75,
92,93,94,95,92,93,94,95,92,93,94,95,92,93,94,95,
32,33,34,35,32,33,34,35,32,33,34,35,32,33,34,35,
52,53,54,55,52,53,54,55,52,53,54,55,52,53,54,55
</chunk>
   <chunk x="128" y="96" width="16" height="16">
72,73,74,75,72,73,74,75,72,73,74,75,72,73,74,75,
92,93,94,95,92,93,94,95,92,93,94,95,92,93,94,95,
32,33,34,35,32,33,34,35,32,33,34,35,32,33,34,35,
52,53,54,55,52,53,54,55,52,53,54,55,52,53,54,55,
72,73,74,75,72,73,74,75,72,73,74,75,72,73,74,75,
92,93,94,95,92,93,94,95,92,93,94,95,92,93,94,95,
32,33,34,35,32,33,34,35,32,33,34,35,32,33,34,35,
52,53,54,55,52,53,54,55,52,53,54,55,52,53,54,55,
72,73,74,75,72,73,74,75,72,73,74,75,72,73,74,75,
92,93,94,95,92,93,94,95,92,93,94,95,92,93,94,95,
32,33,34,35,32,33,34,35,32,33,34,35,32,33,34,35,
52,53,54,55,52,53,54,55,52,53,54,55,52,53,54,55,
72,73,74,75,72,73,74,75,72,73,74,75,72,73,74,75,
92,93,94,95,92,93,94,95,92,93,94,95,92,93,94,95,
32,33,34,35,32,33,34,35,32,33,34,35,32,33,34,35,
52,53,54,55,52,53,54,55,52,53,54,55,52,53,54,55
</chunk>
   <chunk x="0" y="112" width="16" height="16">
72,73,74,75,72,73,74,75,72,73,74,75,72,73,74,75,
92,93,94,95,92,93,94,95,92,93,94,95,92,93,94,95,
32,33,34,35,32,33,34,35,32,33,34,35,32,33,34,35,
52,53,54,55,52,53,54,55,52,53,54,55,52,53,54,55,
72,73,74,75,72,73,74,75,72,73,74,75,72,73,74,75,
92,93,94,95,92,93,94,95,92,93,94,95,92,93,94,95,
32,33,34,35,32,33,34,35,32,33,34,35,32,33,34,35,
52,53,54,55,52,53,54,55,52,53,54,55,52,53,54,55,
72,73,74,75,72,73,74,75,72,73,74,75,72,73,74,75,
92,93,94,95,92,93,94,95,92,93,94,95,92,93,94,95,
32,33,34,35,32,33,34,35,32,33,34,35,32,33,34,35,
52,53,54,55,52,53,54,55,52,53,54,55,52,53,54,55,
72,73,74,75,72,73,74,75,72,73,74,75,72,32,33,34,
92,93,94,95,92,93,94,95,92,93,94,95,92,52,53,54,
32,33,34,35,32,33,34,35,32,33,34,35,32,72,73,74,
52,53,54,55,52,53,54,55,52,53,54,55,52,92,93,94
</chunk>
   <chunk x="16" y="112" width="16" height="16">
72,73,74,75,72,73,74,75,72,73,74,75,72,73,74,75,
92,93,94,95,92,93,94,95,92,93,94,95,92,93,94,95,
32,33,34,35,32,33,34,35,32,33,34,35,32,33,34,35,
52,53,54,55,52,53,54,55,52,53,54,55,52,53,54,55,
72,73,74,75,72,73,74,75,72,73,74,75,72,73,74,75,
92,93,94,95,92,93,94,95,92,93,94,95,92,93,94,95,
32,33,34,35,32,33,34,35,32,33,34,35,32,33,34,35,
52,53,54,55,52,53,54,55,52,53,54,55,52,53,54,55,
72,73,74,75,72,73,74,75,72,73,74,75,72,73,74,75,
92,93,94,95,92,93,94,95,92,93,94,95,92,93,94,95,
32,33,34,35,32,33,34,35,32,33,34,35,32,33,34,35,
52,53,54,55,52,53,54,55,52,53,54,55,52,53,54,55,
35,73,74,75,72,73,74,75,72,73,74,75,72,73,74,75,
55,93,94,95,92,93,94,95,92,93,94,95,92,93,94,95,
75,33,34,35,32,33,34,35,32,33,34,35,32,33,34,35,
95,53,54,55,52,53,54,55,52,53,54,55,52,53,54,55
</chunk>
   <chunk x="32" y="112" width="16" height="16">
72,73,74,75,72,73,74,75,72,73,74,75,72,73,74,75,
92,93,94,95,92,93,94,95,92,93,94,95,92,93,94,95,
32,33,34,35,32,33,34,35,32,33,34,35,32,33,34,35,
52,53,54,55,52,53,54,55,52,53,54,55,52,53,54,55,
72,73,74,75,72,73,74,75,72,73,74,75,72,73,74,75,
92,93,94,95,92,93,94,95,92,93,94,95,92,93,94,95,
32,33,34,35,32,33,34,35,32,33,34,35,32,33,34,35,
52,53,54,55,52,53,54,55,52,53,54,55,52,53,54,55,
72,73,74,75,72,73,74,75,72,73,74,75,72,73,74,75,
92,93,94,95,92,93,94,95,92,93,94,95,92,93,94,95,
32,33,34,35,32,33,34,35,32,33,34,35,32,33,34,35,
52,53,54,55,52,53,54,55,52,53,54,55,52,53,54,55,
72,73,74,75,72,73,74,75,72,73,74,75,72,73,74,75,
92,93,94,95,92,93,94,95,92,93,94,95,92,93,94,95,
32,33,34,35,32,33,34,35,32,33,34,35,32,33,34,35,
52,53,54,55,52,53,54,55,52,53,54,55,52,53,54,55
</chunk>
   <chunk x="48" y="112" width="16" height="16">
72,73,74,75,72,73,74,75,72,73,74,75,72,73,74,75,
92,93,94,95,92,93,94,95,92,93,94,95,92,93,94,95,
32,33,34,35,32,33,34,35,32,33,34,35,32,33,34,35,
52,53,54,55,52,53,54,55,52,53,54,55,52,53,54,55,
72,73,74,75,72,73,74,75,72,73,74,75,72,73,74,75,
92,93,94,95,92,93,94,95,92,93,94,95,92,93,94,95,
32,33,34,35,32,33,34,35,32,33,34,35,32,33,34,35,
52,53,54,55,52,53,54,55,52,53,54,55,52,53,54,55,
72,73,74,75,72,73,74,75,72,73,74,75,72,73,74,75,
92,93,94,95,92,93,94,95,92,93,94,95,92,93,94,95,
32,33,34,35,32,33,34,35,32,33,34,35,32,33,34,35,
52,53,54,55,52,53,54,55,52,53,54,55,52,53,54,55,
72,73,74,75,72,73,74,75,72,73,74,75,72,73,74,75,
92,93,94,95,92,93,94,95,92,93,94,95,92,93,94,95,
32,33,34,35,32,33,34,35,32,33,34,35,32,33,34,35,
52,53,54,55,52,53,54,55,52,53,54,55,52,53,54,55
</chunk>
   <chunk x="64" y="112" width="16" height="16">
72,73,74,75,72,73,74,75,72,73,74,75,72,73,74,75,
92,93,94,95,92,93,94,95,92,93,94,95,92,93,94,95,
32,33,34,35,32,33,34,35,32,33,34,35,32,33,34,35,
52,53,54,55,52,53,54,55,52,53,54,55,52,53,54,55,
72,73,74,75,72,73,74,75,72,73,74,75,72,73,74,75,
92,93,94,95,92,93,94,95,92,93,94,95,92,93,94,95,
32,33,34,35,32,33,34,35,32,33,34,35,32,33,34,35,
52,53,54,55,52,53,54,55,52,53,54,55,52,53,54,55,
72,73,74,75,72,73,74,75,72,73,74,75,72,73,74,75,
92,93,94,95,92,93,94,95,92,93,94,95,92,93,94,95,
32,33,34,35,32,33,34,35,32,33,34,35,32,33,34,35,
52,53,54,55,52,53,54,55,52,53,54,55,52,53,54,55,
72,73,74,75,72,73,74,75,72,73,74,75,72,73,74,75,
92,93,94,95,92,93,94,95,92,93,94,95,92,93,94,95,
32,33,34,35,32,33,34,35,32,33,34,35,32,33,34,35,
52,53,54,55,52,53,54,55,52,53,54,55,52,53,54,55
</chunk>
   <chunk x="80" y="112" width="16" height="16">
72,73,74,75,72,73,74,75,72,73,74,75,72,73,74,75,
92,93,94,95,92,93,94,95,92,93,94,95,92,93,94,95,
32,33,34,35,32,33,34,35,32,33,34,35,32,33,34,35,
52,53,54,55,52,53,54,55,52,53,54,55,52,53,54,55,
72,73,74,75,72,73,74,75,72,73,74,75,72,73,74,75,
92,93,94,95,92,93,94,95,92,93,94,95,92,93,94,95,
32,33,34,35,32,33,34,35,32,33,34,35,32,33,34,35,
52,53,54,55,52,53,54,55,52,53,54,55,52,53,54,55,
72,73,74,75,72,73,74,75,72,73,74,75,72,73,74,75,
92,93,94,95,92,93,94,95,92,93,94,95,92,93,94,95,
32,33,34,35,32,33,34,35,32,33,34,35,32,33,34,35,
52,53,54,55,52,53,54,55,52,53,54,55,52,53,54,55,
72,73,74,75,72,73,74,75,72,73,74,75,72,73,74,75,
92,93,94,95,92,93,94,95,92,93,94,95,92,93,94,95,
32,33,34,35,32,33,34,35,32,33,34,35,32,33,34,35,
52,53,54,55,52,53,54,55,52,53,54,55,52,53,54,55
</chunk>
   <chunk x="96" y="112" width="16" height="16">
72,73,74,75,72,73,74,75,72,73,74,75,72,73,74,75,
92,93,94,95,92,93,94,95,92,93,94,95,92,93,94,95,
32,33,34,35,32,33,34,35,32,33,34,35,32,33,34,35,
52,53,54,55,52,53,54,55,52,53,54,55,52,53,54,55,
72,73,74,75,72,73,74,75,72,73,74,75,72,73,74,75,
92,93,94,95,92,93,94,95,92,93,94,95,92,93,94,95,
32,33,34,35,32,33,34,35,32,33,34,35,32,33,34,35,
52,53,54,55,52,53,54,55,52,53,54,55,52,53,54,55,
72,73,74,75,72,73,74,75,72,73,74,75,72,73,74,75,
92,93,94,95,92,93,94,95,92,93,94,95,92,93,94,95,
32,33,34,35,32,33,34,35,32,33,34,35,32,33,34,35,
52,53,54,55,52,53,54,55,52,53,54,55,52,53,54,55,
72,73,74,75,72,73,74,75,72,73,74,75,72,73,74,75,
92,93,94,95,92,93,94,95,92,93,94,95,92,93,94,95,
32,33,34,35,32,33,34,35,32,33,34,35,32,33,34,35,
52,53,54,55,52,53,54,55,52,53,54,55,52,53,54,55
</chunk>
   <chunk x="112" y="112" width="16" height="16">
72,73,74,75,72,73,74,75,72,73,74,75,72,73,74,75,
92,93,94,95,92,93,94,95,92,93,94,95,92,93,94,95,
32,33,34,35,32,33,34,35,32,33,34,35,32,33,34,35,
52,53,54,55,52,53,54,55,52,53,54,55,52,53,54,55,
72,73,74,75,72,73,74,75,72,73,74,75,72,73,74,75,
92,93,94,95,92,93,94,95,92,93,94,95,92,93,94,95,
32,33,34,35,32,33,34,35,32,33,34,35,32,33,34,35,
52,53,54,55,52,53,54,55,52,53,54,55,52,53,54,55,
72,73,74,75,72,73,74,75,72,73,74,75,72,73,74,75,
92,93,94,95,92,93,94,95,92,93,94,95,92,93,94,95,
32,33,34,35,32,33,34,35,32,33,34,35,32,33,34,35,
52,53,54,55,52,53,54,55,52,53,54,55,52,53,54,55,
72,73,74,75,72,73,74,75,72,73,74,75,72,73,74,75,
92,93,94,95,92,93,94,95,92,93,94,95,92,93,94,95,
32,33,34,35,32,33,34,35,32,33,34,35,32,33,34,35,
52,53,54,55,52,53,54,55,52,53,54,55,52,53,54,55
</chunk>
   <chunk x="128" y="112" width="16" height="16">
72,73,74,75,72,73,74,75,72,73,74,75,72,73,74,75,
92,93,94,95,92,93,94,95,92,93,94,95,92,93,94,95,
32,33,34,35,32,33,34,35,32,33,34,35,32,33,34,35,
52,53,54,55,52,53,54,55,52,53,54,55,52,53,54,55,
72,73,74,75,72,73,74,75,72,73,74,75,72,73,74,75,
92,93,94,95,92,93,94,95,92,93,94,95,92,93,94,95,
32,33,34,35,32,33,34,35,32,33,34,35,32,33,34,35,
52,53,54,55,52,53,54,55,52,53,54,55,52,53,54,55,
72,73,74,75,72,73,74,75,72,73,74,75,72,73,74,75,
92,93,94,95,92,93,94,95,92,93,94,95,92,93,94,95,
32,33,34,35,32,33,34,35,32,33,34,35,32,33,34,35,
52,53,54,55,52,53,54,55,52,53,54,55,52,53,54,55,
72,73,74,75,72,73,74,75,72,73,74,75,72,73,74,75,
92,93,94,95,92,93,94,95,92,93,94,95,92,93,94,95,
32,33,34,35,32,33,34,35,32,33,34,35,32,33,34,35,
52,53,54,55,52,53,54,55,52,53,54,55,52,53,54,55
</chunk>
   <chunk x="0" y="128" width="16" height="16">
72,73,74,75,72,73,74,75,72,73,74,75,72,73,74,75,
92,93,94,95,92,93,94,95,92,93,94,95,92,93,94,95,
32,33,34,35,32,33,34,35,32,33,34,35,32,33,34,35,
52,53,54,55,52,53,54,55,52,53,54,55,52,53,54,55,
72,73,74,75,72,73,74,75,72,73,74,75,72,73,74,75,
92,93,94,95,92,93,94,95,92,93,94,95,92,93,94,95,
32,33,34,35,32,33,34,35,32,33,34,35,32,33,34,35,
52,53,54,55,52,53,54,55,52,53,54,55,52,53,54,55,
72,73,74,75,72,73,74,75,72,73,74,75,72,73,74,75,
92,93,94,95,92,93,94,95,92,93,94,95,92,93,94,95,
32,33,34,35,32,33,34,35,32,33,34,35,32,33,34,35,
52,53,54,55,52,53,54,55,52,53,54,55,52,53,54,55,
72,73,74,75,72,73,74,75,72,73,74,75,72,73,74,75,
92,93,94,95,92,93,94,95,92,93,94,95,92,93,94,95,
32,33,34,35,32,33,34,35,32,33,34,35,32,33,34,35,
52,53,54,55,52,53,54,55,52,53,54,55,52,53,54,55
</chunk>
   <chunk x="16" y="128" width="16" height="16">
72,73,74,75,72,73,74,75,72,73,74,75,72,73,74,75,
92,93,94,95,92,93,94,95,92,93,94,95,92,93,94,95,
32,33,34,35,32,33,34,35,32,33,34,35,32,33,34,35,
52,53,54,55,52,53,54,55,52,53,54,55,52,53,54,55,
72,73,74,75,72,73,74,75,72,73,74,75,72,73,74,75,
92,93,94,95,92,93,94,95,92,93,94,95,92,93,94,95,
32,33,34,35,32,33,34,35,32,33,34,35,32,33,34,35,
52,53,54,55,52,53,54,55,52,53,54,55,52,53,54,55,
72,73,74,75,72,73,74,75,72,73,74,75,72,73,74,75,
92,93,94,95,92,93,94,95,92,93,94,95,92,93,94,95,
32,33,34,35,32,33,34,35,32,33,34,35,32,33,34,35,
52,53,54,55,52,53,54,55,52,53,54,55,52,53,54,55,
72,73,74,75,72,73,74,75,72,73,74,75,72,73,74,75,
92,93,94,95,92,93,94,95,92,93,94,95,92,93,94,95,
32,33,34,35,32,33,34,35,32,33,34,35,32,33,34,35,
52,53,54,55,52,53,54,55,52,53,54,55,52,53,54,55
</chunk>
   <chunk x="32" y="128" width="16" height="16">
72,73,74,75,72,73,74,75,72,73,74,75,72,73,74,75,
92,93,94,95,92,93,94,95,92,93,94,95,92,93,94,95,
32,33,34,35,32,33,34,35,32,33,34,35,32,33,34,35,
52,53,54,55,52,53,54,55,52,53,54,55,52,53,54,55,
72,73,74,75,72,73,74,75,72,73,74,75,72,73,74,75,
92,93,94,95,92,93,94,95,92,93,94,95,92,93,94,95,
32,33,34,35,32,33,34,35,32,33,34,35,32,33,34,35,
52,53,54,55,52,53,54,55,52,53,54,55,52,53,54,55,
72,73,74,75,72,73,74,75,72,73,74,75,72,73,74,75,
92,93,94,95,92,93,94,95,92,93,94,95,92,93,94,95,
32,33,34,35,32,33,34,35,32,33,34,35,32,33,34,35,
52,53,54,55,52,53,54,55,52,53,54,55,52,53,54,55,
72,73,74,75,72,73,74,75,72,73,74,75,72,73,74,75,
92,93,94,95,92,93,94,95,92,93,94,95,92,93,94,95,
32,33,34,35,32,33,34,35,32,33,34,35,32,33,34,35,
52,53,54,55,52,53,54,55,52,53,54,55,52,53,54,55
</chunk>
   <chunk x="48" y="128" width="16" height="16">
72,73,74,75,72,73,74,75,72,73,74,75,72,73,74,75,
92,93,94,95,92,93,94,95,92,93,94,95,92,93,94,95,
32,33,34,35,32,33,34,35,32,33,34,35,32,33,34,35,
52,53,54,55,52,53,54,55,52,53,54,55,52,53,54,55,
72,73,74,75,72,73,74,75,72,73,74,75,72,73,74,75,
92,93,94,95,92,93,94,95,92,93,94,95,92,93,94,95,
32,33,34,35,32,33,34,35,32,33,34,35,32,33,34,35,
52,53,54,55,52,53,54,55,52,53,54,55,52,53,54,55,
72,73,74,75,72,73,74,75,72,73,74,75,72,73,74,75,
92,93,94,95,92,93,94,95,92,93,94,95,92,93,94,95,
32,33,34,35,32,33,34,35,32,33,34,35,32,33,34,35,
52,53,54,55,52,53,54,55,52,53,54,55,52,53,54,55,
72,73,74,75,72,73,74,75,72,73,74,75,72,73,74,75,
92,93,94,95,92,93,94,95,92,93,94,95,92,93,94,95,
32,33,34,35,32,33,34,35,32,33,34,35,32,33,34,35,
52,53,54,55,52,53,54,55,52,53,54,55,52,53,54,55
</chunk>
   <chunk x="64" y="128" width="16" height="16">
72,73,74,75,72,73,74,75,72,73,74,75,72,73,74,75,
92,93,94,95,92,93,94,95,92,93,94,95,92,93,94,95,
32,33,34,35,32,33,34,35,32,33,34,35,32,33,34,35,
52,53,54,55,52,53,54,55,52,53,54,55,52,53,54,55,
72,73,74,75,72,73,74,75,72,73,74,75,72,73,74,75,
92,93,94,95,92,93,94,95,92,93,94,95,92,93,94,95,
32,33,34,35,32,33,34,35,32,33,34,35,32,33,34,35,
52,53,54,55,52,53,54,55,52,53,54,55,52,53,54,55,
72,73,74,75,72,73,74,75,72,73,74,75,72,73,74,75,
92,93,94,95,92,93,94,95,92,93,94,95,92,93,94,95,
32,33,34,35,32,33,34,35,32,33,34,35,32,33,34,35,
52,53,54,55,52,53,54,55,52,53,54,55,52,53,54,55,
72,73,74,75,72,73,74,75,72,73,74,75,72,73,74,75,
92,93,94,95,92,93,94,95,92,93,94,95,92,93,94,95,
32,33,34,35,32,33,34,35,32,33,34,35,32,33,34,35,
52,53,54,55,52,53,54,55,52,53,54,55,52,53,54,55
</chunk>
   <chunk x="80" y="128" width="16" height="16">
72,73,74,75,72,73,74,75,72,73,74,75,72,73,74,75,
92,93,94,95,92,93,94,95,92,93,94,95,92,93,94,95,
32,33,34,35,32,33,34,35,32,33,34,35,32,33,34,35,
52,53,54,55,52,53,54,55,52,53,54,55,52,53,54,55,
72,73,74,75,72,73,74,75,72,73,74,75,72,73,74,75,
92,93,94,95,92,93,94,95,92,93,94,95,92,93,94,95,
32,33,34,35,32,33,34,35,32,33,34,35,32,33,34,35,
52,53,54,55,52,53,54,55,52,53,54,55,52,53,54,55,
72,73,74,75,72,73,74,75,72,73,74,75,72,73,74,75,
92,93,94,95,92,93,94,95,92,93,94,95,92,93,94,95,
32,33,34,35,32,33,34,35,32,33,34,35,32,33,34,35,
52,53,54,55,52,53,54,55,52,53,54,55,52,53,54,55,
72,73,74,75,72,73,74,75,72,73,74,75,72,73,74,75,
92,93,94,95,92,93,94,95,92,93,94,95,92,93,94,95,
32,33,34,35,32,33,34,35,32,33,34,35,32,33,34,35,
52,53,54,55,52,53,54,55,52,53,54,55,52,53,54,55
</chunk>
   <chunk x="96" y="128" width="16" height="16">
72,73,74,75,72,73,74,75,72,73,74,75,72,73,74,75,
92,93,94,95,92,93,94,95,92,93,94,95,92,93,94,95,
32,33,34,35,32,33,34,35,32,32,33,34,35,32,33,34,
52,53,54,55,52,53,54,55,52,52,53,54,55,52,53,54,
72,73,74,75,72,73,74,75,72,72,73,74,75,72,73,74,
92,93,94,95,92,93,94,95,92,92,93,94,95,92,93,94,
32,33,34,35,32,33,34,35,32,33,34,35,32,33,34,35,
52,53,54,55,52,53,54,55,52,53,54,55,52,53,54,55,
72,73,74,75,72,73,74,75,72,73,74,75,72,73,74,75,
92,93,94,95,92,93,94,95,92,93,94,95,92,93,94,95,
32,33,34,35,32,33,34,35,32,33,34,35,32,33,34,35,
52,53,54,55,52,53,54,55,52,53,54,55,52,53,54,55,
72,73,74,75,72,73,74,75,72,73,74,75,72,73,74,75,
92,93,94,95,92,93,94,95,92,93,94,95,92,93,94,95,
32,33,34,35,32,33,34,35,32,33,34,35,32,33,34,35,
52,53,54,55,52,53,54,55,52,53,54,55,52,53,54,55
</chunk>
   <chunk x="112" y="128" width="16" height="16">
72,73,74,75,72,73,74,75,72,73,74,75,72,73,74,75,
92,93,94,95,92,93,94,95,92,93,94,95,92,93,94,95,
35,32,33,34,35,33,34,35,32,33,34,35,32,33,34,35,
55,52,53,54,55,53,54,55,52,53,54,55,52,53,54,55,
75,72,73,74,75,73,74,75,72,73,74,75,72,73,74,75,
95,92,93,94,95,93,94,95,92,93,94,95,92,93,94,95,
32,33,34,35,32,33,34,35,32,33,34,35,32,33,34,35,
52,53,54,55,52,53,54,55,52,53,54,55,52,53,54,55,
72,73,74,75,72,73,74,75,72,73,74,75,72,73,74,75,
92,93,94,95,92,93,94,95,92,93,94,95,92,93,94,95,
32,33,34,35,32,33,34,35,32,33,34,35,32,33,34,35,
52,53,54,55,52,53,54,55,52,53,54,55,52,53,54,55,
72,73,74,75,72,73,74,75,72,73,74,75,72,73,74,75,
92,93,94,95,92,93,94,95,92,93,94,95,92,93,94,95,
32,33,34,35,32,33,34,35,32,33,34,35,32,33,34,35,
52,53,54,55,52,53,54,55,52,53,54,55,52,53,54,55
</chunk>
   <chunk x="128" y="128" width="16" height="16">
72,73,74,75,72,73,74,75,72,73,74,75,72,73,74,75,
92,93,94,95,92,93,94,95,92,93,94,95,92,93,94,95,
32,33,34,35,32,33,34,35,32,33,34,35,32,33,34,35,
52,53,54,55,52,53,54,55,52,53,54,55,52,53,54,55,
72,73,74,75,72,73,74,75,72,73,74,75,72,73,74,75,
92,93,94,95,92,93,94,95,92,93,94,95,92,93,94,95,
32,33,34,35,32,33,34,35,32,33,34,35,32,33,34,35,
52,53,54,55,52,53,54,55,52,53,54,55,52,53,54,55,
72,73,74,75,72,73,74,75,72,73,74,75,72,73,74,75,
92,93,94,95,92,93,94,95,92,93,94,95,92,93,94,95,
32,33,34,35,32,33,34,35,32,33,34,35,32,33,34,35,
52,53,54,55,52,53,54,55,52,53,54,55,52,53,54,55,
72,73,74,75,72,73,74,75,72,73,74,75,72,73,74,75,
92,93,94,95,92,93,94,95,92,93,94,95,92,93,94,95,
32,33,34,35,32,33,34,35,32,33,34,35,32,33,34,35,
52,53,54,55,52,53,54,55,52,53,54,55,52,53,54,55
</chunk>
   <chunk x="0" y="144" width="16" height="16">
72,73,74,75,72,73,74,75,72,73,74,75,72,73,74,75,
92,93,94,95,92,93,94,95,92,93,94,95,92,93,94,95,
32,33,34,35,32,33,34,35,32,33,34,35,32,33,34,35,
52,53,54,55,52,53,54,55,52,53,54,55,52,53,54,55,
72,73,74,75,72,73,74,75,72,73,74,75,72,73,74,75,
92,93,94,95,92,93,94,95,92,93,94,95,92,93,94,95,
32,33,34,35,32,33,34,35,32,33,34,35,32,33,34,35,
52,53,54,55,52,53,54,55,52,53,54,55,52,53,54,55,
72,73,74,75,72,73,74,75,72,73,74,75,72,73,74,75,
92,93,94,95,92,93,94,95,92,93,94,95,92,93,94,95,
32,33,34,35,32,33,34,35,32,33,34,35,32,33,34,35,
52,53,54,55,52,53,54,55,52,53,54,55,52,53,54,55,
72,73,74,75,72,73,74,75,72,73,74,75,72,73,74,75,
92,93,94,95,92,93,94,95,92,93,94,95,92,93,94,95,
32,33,34,35,32,33,34,35,32,33,34,35,32,33,34,35,
52,53,54,55,52,53,54,55,52,53,54,55,52,53,54,55
</chunk>
   <chunk x="16" y="144" width="16" height="16">
72,73,74,75,72,73,74,75,72,73,74,75,72,73,74,75,
92,93,94,95,92,93,94,95,92,93,94,95,92,93,94,95,
32,33,34,35,32,33,34,35,32,33,34,35,32,33,34,35,
52,53,54,55,52,53,54,55,52,53,54,55,52,53,54,55,
72,73,74,75,72,73,74,75,72,73,74,75,72,73,74,75,
92,93,94,95,92,93,94,95,92,93,94,95,92,93,94,95,
32,33,34,35,32,33,34,35,32,33,34,35,32,33,34,35,
52,53,54,55,52,53,54,55,52,53,54,55,52,53,54,55,
72,73,74,75,72,73,74,75,72,73,74,75,72,73,74,75,
92,93,94,95,92,93,94,95,92,93,94,95,92,93,94,95,
32,33,34,35,32,33,34,35,32,33,34,35,32,33,34,35,
52,53,54,55,52,53,54,55,52,53,54,55,52,53,54,55,
72,73,74,75,72,73,74,75,72,73,74,75,72,73,74,75,
92,93,94,95,92,93,94,95,92,93,94,95,92,93,94,95,
32,33,34,35,32,33,34,35,32,33,34,35,32,33,34,35,
52,53,54,55,52,53,54,55,52,53,54,55,52,53,54,55
</chunk>
   <chunk x="32" y="144" width="16" height="16">
72,73,74,75,72,73,74,75,72,73,74,75,72,73,74,75,
92,93,94,95,92,93,94,95,92,93,94,95,92,93,94,95,
32,33,34,35,32,33,34,35,32,33,34,35,32,33,34,35,
52,53,54,55,52,53,54,55,52,53,54,55,52,53,54,55,
72,73,74,75,72,73,74,75,72,73,74,75,72,73,74,75,
92,93,94,95,92,93,94,95,92,93,94,95,92,93,94,95,
32,33,34,35,32,33,34,35,32,33,34,35,32,33,34,35,
52,53,54,55,52,53,54,55,52,53,54,55,52,53,54,55,
72,73,74,75,72,73,74,75,72,73,74,75,72,73,74,75,
92,93,94,95,92,93,94,95,92,93,94,95,92,93,94,95,
32,33,34,35,32,33,34,35,32,33,34,35,32,33,34,35,
52,53,54,55,52,53,54,55,52,53,54,55,52,53,54,55,
72,73,74,75,72,73,74,75,72,73,74,75,72,73,74,75,
92,93,94,95,92,93,94,95,92,93,94,95,92,93,94,95,
32,33,34,35,32,33,34,35,32,33,34,35,32,33,34,35,
52,53,54,55,52,53,54,55,52,53,54,55,52,53,54,55
</chunk>
   <chunk x="48" y="144" width="16" height="16">
72,73,74,75,72,73,74,75,72,73,74,75,72,73,74,75,
92,93,94,95,92,93,94,95,92,93,94,95,92,93,94,95,
32,33,34,35,32,33,34,35,32,33,34,35,32,33,34,35,
52,53,54,55,52,53,54,55,52,53,54,55,52,53,54,55,
72,73,74,75,72,73,74,75,72,73,74,75,72,73,74,75,
92,93,94,95,92,93,94,95,92,93,94,95,92,93,94,95,
32,33,34,35,32,33,34,35,32,33,34,35,32,33,34,35,
52,53,54,55,52,53,54,55,52,53,54,55,52,53,54,55,
72,73,74,75,72,73,74,75,72,73,74,75,72,73,74,75,
92,93,94,95,92,93,94,95,92,93,94,95,92,93,94,95,
32,33,34,35,32,33,34,35,32,33,34,35,32,33,34,35,
52,53,54,55,52,53,54,55,52,53,54,55,52,53,54,55,
72,73,74,75,72,73,74,75,72,73,74,75,72,73,74,75,
92,93,94,95,92,93,94,95,92,93,94,95,92,93,94,95,
32,33,34,35,32,33,34,35,32,33,34,35,32,33,34,35,
52,53,54,55,52,53,54,55,52,53,54,55,52,53,54,55
</chunk>
   <chunk x="64" y="144" width="16" height="16">
72,73,74,75,72,73,74,75,72,73,74,75,72,73,74,75,
92,93,94,95,92,93,94,95,92,93,94,95,92,93,94,95,
32,33,34,35,32,33,34,35,32,33,34,35,32,33,34,35,
52,53,54,55,52,53,54,55,52,53,54,55,52,53,54,55,
72,73,74,32,72,73,74,75,72,73,74,75,72,73,74,75,
92,93,94,95,92,93,94,95,92,93,94,95,92,93,94,95,
32,33,34,35,32,33,34,35,32,33,34,35,32,33,34,35,
52,53,54,55,52,53,54,55,52,53,54,55,52,53,54,55,
72,73,74,75,72,73,74,75,72,73,74,75,72,73,74,75,
92,93,94,95,92,93,94,95,92,93,94,95,92,93,94,95,
32,33,34,35,32,33,34,35,32,33,34,35,32,33,34,35,
52,53,54,55,52,53,54,55,52,53,54,55,52,53,54,55,
72,73,74,75,72,73,74,75,72,73,74,75,72,73,74,75,
92,93,94,95,92,93,94,95,92,93,94,95,92,93,94,95,
32,33,34,35,32,33,34,35,32,33,34,35,32,33,34,35,
52,53,54,55,52,53,54,55,52,53,54,55,52,53,54,55
</chunk>
   <chunk x="80" y="144" width="16" height="16">
72,73,74,75,72,73,74,75,72,73,74,75,72,73,74,75,
92,93,94,95,92,93,94,95,92,93,94,95,92,93,94,95,
32,33,34,35,32,33,34,35,32,33,34,35,32,33,34,35,
52,53,54,55,52,53,54,55,52,53,54,55,52,53,54,55,
72,73,74,75,72,73,74,75,72,73,74,75,72,73,74,75,
92,93,94,95,92,93,94,95,92,93,94,95,92,93,94,95,
32,33,34,35,32,33,34,35,32,33,34,35,32,33,34,35,
52,53,54,55,52,53,54,55,52,53,54,55,52,53,54,55,
72,73,74,75,72,73,74,75,72,73,74,75,72,73,74,75,
92,93,94,95,92,93,94,95,92,93,94,95,92,93,94,95,
32,33,34,35,32,33,34,35,32,33,34,35,32,33,34,35,
52,53,54,55,52,53,54,55,52,53,54,55,52,53,54,55,
72,73,74,75,72,73,74,75,72,73,74,75,72,73,74,75,
92,93,94,95,92,93,94,95,92,93,94,95,92,93,94,95,
32,33,34,35,32,33,34,35,32,33,34,35,32,33,34,35,
52,53,54,55,52,53,54,55,52,53,54,55,52,53,54,55
</chunk>
   <chunk x="96" y="144" width="16" height="16">
72,73,74,75,72,73,74,75,72,73,74,75,72,73,74,75,
92,93,94,95,92,93,94,95,92,93,94,95,92,93,94,95,
32,33,34,35,32,33,34,35,32,33,34,35,32,33,34,35,
52,53,54,55,52,53,54,55,52,53,54,55,52,53,54,55,
72,73,74,75,72,73,74,75,72,73,74,75,72,73,74,75,
92,93,94,95,92,93,94,95,92,93,94,95,92,93,94,95,
32,33,34,35,32,33,34,35,32,33,34,35,32,33,34,35,
52,53,54,55,52,53,54,55,52,53,54,55,52,53,54,55,
72,73,74,75,72,73,74,75,72,73,74,75,72,73,74,75,
92,93,94,95,92,93,94,95,92,93,94,95,92,93,94,95,
32,33,34,35,32,33,34,35,32,33,34,35,32,33,34,35,
52,53,54,55,52,53,54,55,52,53,54,55,52,53,54,55,
72,73,74,75,72,73,74,75,72,73,74,75,72,73,74,75,
92,93,94,95,92,93,94,95,92,93,94,95,92,93,94,95,
32,33,34,35,32,33,34,35,32,33,34,35,32,33,34,35,
52,53,54,55,52,53,54,55,52,53,54,55,52,53,54,55
</chunk>
   <chunk x="112" y="144" width="16" height="16">
72,73,74,75,72,73,74,75,72,73,74,75,72,73,74,75,
92,93,94,95,92,93,94,95,92,93,94,95,92,93,94,95,
32,33,34,35,32,33,34,35,32,33,34,35,32,33,34,35,
52,53,54,55,52,53,54,55,52,53,54,55,52,53,54,55,
72,73,74,75,72,73,74,75,72,73,74,75,72,73,74,75,
92,93,94,95,92,93,94,95,92,93,94,95,92,93,94,95,
32,33,34,35,32,33,34,35,32,33,34,35,32,33,34,35,
52,53,54,55,52,53,54,55,52,53,54,55,52,53,54,55,
72,73,74,75,72,73,74,75,72,73,74,75,72,73,74,75,
92,93,94,95,92,93,94,95,92,93,94,95,92,93,94,95,
32,33,34,35,32,33,34,35,32,33,34,35,32,33,34,35,
52,53,54,55,52,53,54,55,52,53,54,55,52,53,54,55,
72,73,74,75,72,73,74,75,72,73,74,75,72,73,74,75,
92,93,94,95,92,93,94,95,92,93,94,95,92,93,94,95,
32,33,34,35,32,33,34,35,32,33,34,35,32,33,34,35,
52,53,54,55,52,53,54,55,52,53,54,55,52,53,54,55
</chunk>
   <chunk x="128" y="144" width="16" height="16">
72,73,74,75,72,73,74,75,72,73,74,75,72,73,74,75,
92,93,94,95,92,93,94,95,92,93,94,95,92,93,94,95,
32,33,34,35,32,33,34,35,32,33,34,35,32,33,34,35,
52,53,54,55,52,53,54,55,52,53,54,55,52,53,54,55,
72,73,74,75,72,73,74,75,72,73,74,75,72,73,74,75,
92,93,94,95,92,93,94,95,92,93,94,95,92,93,94,95,
32,33,34,35,32,33,34,35,32,33,34,35,32,33,34,35,
52,53,54,55,52,53,54,55,52,53,54,55,52,53,54,55,
72,73,74,75,72,73,74,75,72,73,74,75,72,73,74,75,
92,93,94,95,92,93,94,95,92,93,94,95,92,93,94,95,
32,33,34,35,32,33,34,35,32,33,34,35,32,33,34,35,
52,53,54,55,52,53,54,55,52,53,54,55,52,53,54,55,
72,73,74,75,72,73,74,75,72,73,74,75,72,73,74,75,
92,93,94,95,92,93,94,95,92,93,94,95,92,93,94,95,
32,33,34,35,32,33,34,35,32,33,34,35,32,33,34,35,
52,53,54,55,52,53,54,55,52,53,54,55,52,53,54,55
</chunk>
   <chunk x="0" y="160" width="16" height="16">
72,73,74,75,72,73,74,75,72,73,74,75,72,73,74,75,
92,93,94,95,92,93,94,95,92,93,94,95,92,93,94,95,
32,33,34,35,32,33,34,35,32,33,34,35,32,33,34,35,
52,53,54,55,52,53,54,55,52,53,54,55,52,53,54,55,
72,73,74,75,72,73,74,75,72,73,74,75,72,73,74,75,
92,93,94,95,92,93,94,95,92,93,94,95,92,93,94,95,
32,33,34,35,32,33,34,35,32,33,34,35,32,33,34,35,
52,53,54,55,52,53,54,55,52,53,54,55,52,53,54,55,
72,73,74,75,72,73,74,75,72,73,74,75,72,73,74,75,
92,93,94,95,92,93,94,95,92,93,94,95,92,93,94,95,
32,33,34,35,32,33,34,35,32,33,34,35,32,33,34,35,
52,53,54,55,52,53,54,55,52,53,54,55,52,53,54,55,
72,73,74,75,72,73,74,75,72,73,74,75,72,73,74,75,
92,93,94,95,92,93,94,95,92,93,94,95,92,93,94,95,
32,33,34,35,32,33,34,35,32,33,34,35,32,33,34,35,
52,53,54,55,52,53,54,55,52,53,54,55,52,53,54,55
</chunk>
   <chunk x="16" y="160" width="16" height="16">
72,73,74,75,72,73,74,75,72,73,74,75,72,73,74,75,
92,93,94,95,92,93,94,95,92,93,94,95,92,93,94,95,
32,33,34,35,32,33,34,35,32,33,34,35,32,33,34,35,
52,53,54,55,52,53,54,55,52,53,54,55,52,53,54,55,
72,73,74,75,72,73,74,75,72,73,74,75,72,73,74,75,
92,93,94,95,92,93,94,95,92,93,94,95,92,93,94,95,
32,33,34,35,32,33,34,35,32,33,34,35,32,33,34,35,
52,53,54,55,52,53,54,55,52,53,54,55,52,53,54,55,
72,73,74,75,72,73,74,75,72,73,74,75,72,73,74,75,
92,93,94,95,92,93,94,95,92,93,94,95,92,93,94,95,
32,33,34,35,32,33,34,35,32,33,34,35,32,33,34,35,
52,53,54,55,52,53,54,55,52,53,54,55,52,53,54,55,
72,73,74,75,72,73,74,75,72,73,74,75,72,73,74,75,
92,93,94,95,92,93,94,95,92,93,94,95,92,93,94,95,
32,33,34,35,32,33,34,35,32,33,34,35,32,33,34,35,
52,53,54,55,52,53,54,55,52,53,54,55,52,53,54,55
</chunk>
   <chunk x="32" y="160" width="16" height="16">
72,73,74,75,72,73,74,75,72,73,74,75,72,73,74,75,
92,93,94,95,92,93,94,95,92,93,94,95,92,93,94,95,
32,33,34,35,32,33,34,35,32,33,34,35,32,33,34,35,
52,53,54,55,52,53,54,55,52,53,54,55,52,53,54,55,
72,73,74,75,72,73,74,75,72,73,74,75,72,73,74,75,
92,93,94,95,92,93,94,95,92,93,94,95,92,93,94,95,
32,33,34,35,32,33,34,35,32,33,34,35,32,33,34,35,
52,53,54,55,52,53,54,55,52,53,54,55,52,53,54,55,
72,73,74,75,72,73,74,75,72,73,74,75,72,73,74,75,
92,93,94,95,92,93,94,95,92,93,94,95,92,93,94,95,
32,33,34,35,32,33,34,35,32,33,34,35,32,33,34,35,
52,53,54,55,52,53,54,55,52,53,54,55,52,53,54,55,
72,73,74,75,72,73,74,75,72,73,74,75,72,73,74,75,
92,93,94,95,92,93,94,95,92,93,94,95,92,93,94,95,
32,33,34,35,32,33,34,35,32,33,34,35,32,33,34,35,
52,53,54,55,52,53,54,55,52,53,54,55,52,53,54,55
</chunk>
   <chunk x="48" y="160" width="16" height="16">
72,73,74,75,72,73,74,75,72,73,74,75,72,73,74,75,
92,93,94,95,92,93,94,95,92,93,94,95,92,93,94,95,
32,33,34,35,32,33,34,35,32,33,34,35,32,33,34,35,
52,53,54,55,52,53,54,55,52,53,54,55,52,53,54,55,
72,73,74,75,72,73,74,75,72,73,74,75,72,73,74,75,
92,93,94,95,92,93,94,95,92,93,94,95,92,93,94,95,
32,33,34,35,32,33,34,35,32,33,34,35,32,33,34,35,
52,53,54,55,52,53,54,55,52,53,54,55,52,53,54,55,
72,73,74,75,72,73,74,75,72,73,74,75,72,73,74,75,
92,93,94,95,92,93,94,95,92,93,94,95,92,93,94,95,
32,33,34,35,32,33,34,35,32,33,34,35,32,33,34,35,
52,53,54,55,52,53,54,55,52,53,54,55,52,53,54,55,
72,73,74,75,72,73,74,75,72,73,74,75,72,73,74,75,
92,93,94,95,92,93,94,95,92,93,94,95,92,93,94,95,
32,33,34,35,32,33,34,35,32,33,34,35,32,33,34,35,
52,53,54,55,52,53,54,55,52,53,54,55,52,53,54,55
</chunk>
   <chunk x="64" y="160" width="16" height="16">
72,73,74,75,72,73,74,75,72,73,74,75,72,73,74,75,
92,93,94,95,92,93,94,95,92,93,94,95,92,93,94,95,
32,33,34,35,32,33,34,35,32,33,34,35,32,33,34,35,
52,53,54,55,52,53,54,55,52,53,54,55,52,53,54,55,
72,73,74,75,72,73,74,75,72,73,74,75,72,73,74,75,
92,93,94,95,92,93,94,95,92,93,94,95,92,93,94,95,
32,33,34,35,32,33,34,35,32,33,34,35,32,33,34,35,
52,53,54,55,52,53,54,55,52,53,54,55,52,53,54,55,
72,73,74,75,72,73,74,75,72,73,74,75,72,73,74,75,
92,93,94,95,92,93,94,95,92,93,94,95,92,93,94,95,
32,33,34,35,32,33,34,35,32,33,34,35,32,33,34,35,
52,53,54,55,52,53,54,55,52,53,54,55,52,53,54,55,
72,73,74,75,72,73,74,75,72,73,74,75,72,73,74,75,
92,93,94,95,92,93,94,95,92,93,94,95,92,93,94,95,
32,33,34,35,32,33,34,35,32,33,34,35,32,33,34,35,
52,53,54,55,52,53,54,55,52,53,54,55,52,53,54,55
</chunk>
   <chunk x="80" y="160" width="16" height="16">
72,73,74,75,72,73,74,75,72,73,74,75,72,73,74,75,
92,93,94,95,92,93,94,95,92,93,94,95,92,93,94,95,
32,33,34,35,32,33,34,35,32,33,34,35,32,33,34,35,
52,53,54,55,52,53,54,55,52,53,54,55,52,53,54,55,
72,73,74,75,72,73,74,75,72,73,74,75,72,73,74,75,
92,93,94,95,92,93,94,95,92,93,94,95,92,93,94,95,
32,33,34,35,32,33,34,35,32,33,34,35,32,33,34,35,
52,53,54,55,52,53,54,55,52,53,54,55,52,53,54,55,
72,73,74,75,72,73,74,75,72,73,74,75,72,73,74,75,
92,93,94,95,92,93,94,95,92,93,94,95,92,93,94,95,
32,33,34,35,32,33,34,35,32,33,34,35,32,33,34,35,
52,53,54,55,52,53,54,55,52,53,54,55,52,53,54,55,
72,73,74,75,72,73,74,75,72,73,74,75,72,73,74,75,
92,93,94,95,92,93,94,95,92,93,94,95,92,93,94,95,
32,33,34,35,32,33,34,35,32,33,34,35,32,33,34,35,
52,53,54,55,52,53,54,55,52,53,54,55,52,53,54,55
</chunk>
   <chunk x="96" y="160" width="16" height="16">
72,73,74,75,72,73,74,75,72,73,74,75,72,73,74,75,
92,93,94,95,92,93,94,95,92,93,94,95,92,93,94,95,
32,33,34,35,32,33,34,35,32,33,34,35,32,33,34,35,
52,53,54,55,52,53,54,55,52,53,54,55,52,53,54,55,
72,73,74,75,72,73,74,75,72,73,74,75,72,73,74,75,
92,93,94,95,92,93,94,95,92,93,94,95,92,93,94,95,
32,33,34,35,32,33,34,35,32,33,34,35,32,33,34,35,
52,53,54,55,52,53,54,55,52,53,54,55,52,53,54,55,
72,73,74,75,72,73,74,75,72,73,74,75,72,73,74,75,
92,93,94,95,92,93,94,95,92,93,94,95,92,93,94,95,
32,33,34,35,32,33,34,35,32,33,34,35,32,33,34,35,
52,53,54,55,52,53,54,55,52,53,54,55,52,53,54,55,
72,73,74,75,72,73,74,75,72,73,74,75,72,73,74,75,
92,93,94,95,92,93,94,95,92,93,94,95,92,93,94,95,
32,33,34,35,32,33,34,35,32,33,34,35,32,33,34,35,
52,53,54,55,52,53,54,55,52,53,54,55,52,53,54,55
</chunk>
   <chunk x="112" y="160" width="16" height="16">
72,73,74,75,72,73,74,75,72,73,74,75,72,73,74,75,
92,93,94,95,92,93,94,95,92,93,94,95,92,93,94,95,
32,33,34,35,32,33,34,35,32,33,34,35,32,33,34,35,
52,53,54,55,52,53,54,55,52,53,54,55,52,53,54,55,
72,73,74,75,72,73,74,75,72,73,74,75,72,73,74,75,
92,93,94,95,92,93,94,95,92,93,94,95,92,93,94,95,
32,33,34,35,32,33,34,35,32,33,34,35,32,33,34,35,
52,53,54,55,52,53,54,55,52,53,54,55,52,53,54,55,
72,73,74,75,72,73,74,75,72,73,74,75,72,73,74,75,
92,93,94,95,92,93,94,95,92,93,94,95,92,93,94,95,
32,33,34,35,32,33,34,35,32,33,34,35,32,33,34,35,
52,53,54,55,52,53,54,55,52,53,54,55,52,53,54,55,
72,73,74,75,72,73,74,75,72,73,74,75,72,73,74,75,
92,93,94,95,92,93,94,95,92,93,94,95,92,93,94,95,
32,33,34,35,32,33,34,35,32,33,34,35,32,33,34,35,
52,53,54,55,52,53,54,55,52,53,54,55,52,53,54,55
</chunk>
   <chunk x="128" y="160" width="16" height="16">
72,73,74,75,72,73,74,75,72,73,74,75,72,73,74,75,
92,93,94,95,92,93,94,95,92,93,94,95,92,93,94,95,
32,33,34,35,32,33,34,35,32,33,34,35,32,33,34,35,
52,53,54,55,52,53,54,55,52,53,54,55,52,53,54,55,
72,73,74,75,72,73,74,75,72,73,74,75,72,73,74,75,
92,93,94,95,92,93,94,95,92,93,94,95,92,93,94,95,
32,33,34,35,32,33,34,35,32,33,34,35,32,33,34,35,
52,53,54,55,52,53,54,55,52,53,54,55,52,53,54,55,
72,73,74,75,72,73,74,75,72,73,74,75,72,73,74,75,
92,93,94,95,92,93,94,95,92,93,94,95,92,93,94,95,
32,33,34,35,32,33,34,35,32,33,34,35,32,33,34,35,
52,53,54,55,52,53,54,55,52,53,54,55,52,53,54,55,
72,73,74,75,72,73,74,75,72,73,74,75,72,73,74,75,
92,93,94,95,92,93,94,95,92,93,94,95,92,93,94,95,
32,33,34,35,32,33,34,35,32,33,34,35,32,33,34,35,
52,53,54,55,52,53,54,55,52,53,54,55,52,53,54,55
</chunk>
   <chunk x="0" y="176" width="16" height="16">
72,73,74,75,72,73,74,75,72,73,74,75,72,73,74,75,
92,93,94,95,92,93,94,95,92,93,94,95,92,93,94,95,
32,33,34,35,32,33,34,35,32,33,34,35,32,33,34,35,
52,53,54,55,52,53,54,55,52,53,54,55,52,53,54,55,
72,73,74,75,72,73,74,75,72,73,74,75,72,73,74,75,
92,93,94,95,92,93,94,95,92,93,94,95,92,93,94,95,
0,0,0,0,0,0,0,0,0,0,0,0,0,0,0,0,
0,0,0,0,0,0,0,0,0,0,0,0,0,0,0,0,
0,0,0,0,0,0,0,0,0,0,0,0,0,0,0,0,
0,0,0,0,0,0,0,0,0,0,0,0,0,0,0,0,
0,0,0,0,0,0,0,0,0,0,0,0,0,0,0,0,
0,0,0,0,0,0,0,0,0,0,0,0,0,0,0,0,
0,0,0,0,0,0,0,0,0,0,0,0,0,0,0,0,
0,0,0,0,0,0,0,0,0,0,0,0,0,0,0,0,
0,0,0,0,0,0,0,0,0,0,0,0,0,0,0,0,
0,0,0,0,0,0,0,0,0,0,0,0,0,0,0,0
</chunk>
   <chunk x="16" y="176" width="16" height="16">
72,73,74,75,72,73,74,75,72,73,74,75,72,73,74,75,
92,93,94,95,92,93,94,95,92,93,94,95,92,93,94,95,
32,33,34,35,32,33,34,35,32,33,34,35,32,33,34,35,
52,53,54,55,52,53,54,55,52,53,54,55,52,53,54,55,
72,73,74,75,72,73,74,75,72,73,74,75,72,73,74,75,
92,93,94,95,92,93,94,95,92,93,94,95,92,93,94,95,
0,0,0,0,0,0,0,0,0,0,0,0,0,0,0,0,
0,0,0,0,0,0,0,0,0,0,0,0,0,0,0,0,
0,0,0,0,0,0,0,0,0,0,0,0,0,0,0,0,
0,0,0,0,0,0,0,0,0,0,0,0,0,0,0,0,
0,0,0,0,0,0,0,0,0,0,0,0,0,0,0,0,
0,0,0,0,0,0,0,0,0,0,0,0,0,0,0,0,
0,0,0,0,0,0,0,0,0,0,0,0,0,0,0,0,
0,0,0,0,0,0,0,0,0,0,0,0,0,0,0,0,
0,0,0,0,0,0,0,0,0,0,0,0,0,0,0,0,
0,0,0,0,0,0,0,0,0,0,0,0,0,0,0,0
</chunk>
   <chunk x="32" y="176" width="16" height="16">
72,73,74,75,72,73,74,75,72,73,74,75,72,73,74,75,
92,93,94,95,92,93,94,95,92,93,94,95,92,93,94,95,
32,33,34,35,32,33,34,35,32,33,34,35,32,33,34,35,
52,53,54,55,52,53,54,55,52,53,54,55,52,53,54,55,
72,73,74,75,72,73,74,75,72,73,74,75,72,73,74,75,
92,93,94,95,92,93,94,95,92,93,94,95,92,93,94,95,
0,0,0,0,0,0,0,0,0,0,0,0,0,0,0,0,
0,0,0,0,0,0,0,0,0,0,0,0,0,0,0,0,
0,0,0,0,0,0,0,0,0,0,0,0,0,0,0,0,
0,0,0,0,0,0,0,0,0,0,0,0,0,0,0,0,
0,0,0,0,0,0,0,0,0,0,0,0,0,0,0,0,
0,0,0,0,0,0,0,0,0,0,0,0,0,0,0,0,
0,0,0,0,0,0,0,0,0,0,0,0,0,0,0,0,
0,0,0,0,0,0,0,0,0,0,0,0,0,0,0,0,
0,0,0,0,0,0,0,0,0,0,0,0,0,0,0,0,
0,0,0,0,0,0,0,0,0,0,0,0,0,0,0,0
</chunk>
   <chunk x="48" y="176" width="16" height="16">
72,73,74,75,72,73,74,75,72,73,74,75,72,73,74,75,
92,93,94,95,92,93,94,95,92,93,94,95,92,93,94,95,
32,33,34,35,32,33,34,35,32,33,34,35,32,33,34,35,
52,53,54,55,52,53,54,55,52,53,54,55,52,53,54,55,
72,73,74,75,72,73,74,75,72,73,74,75,72,73,74,75,
92,93,94,95,92,93,94,95,92,93,94,95,92,93,94,95,
0,0,0,0,0,0,0,0,0,0,0,0,0,0,0,0,
0,0,0,0,0,0,0,0,0,0,0,0,0,0,0,0,
0,0,0,0,0,0,0,0,0,0,0,0,0,0,0,0,
0,0,0,0,0,0,0,0,0,0,0,0,0,0,0,0,
0,0,0,0,0,0,0,0,0,0,0,0,0,0,0,0,
0,0,0,0,0,0,0,0,0,0,0,0,0,0,0,0,
0,0,0,0,0,0,0,0,0,0,0,0,0,0,0,0,
0,0,0,0,0,0,0,0,0,0,0,0,0,0,0,0,
0,0,0,0,0,0,0,0,0,0,0,0,0,0,0,0,
0,0,0,0,0,0,0,0,0,0,0,0,0,0,0,0
</chunk>
   <chunk x="64" y="176" width="16" height="16">
72,73,74,75,72,73,74,75,72,73,74,75,72,73,74,75,
92,93,94,95,92,93,94,95,92,93,94,95,92,93,94,95,
32,33,34,35,32,33,34,35,32,33,34,35,32,33,34,35,
52,53,54,55,52,53,54,55,52,53,54,55,52,53,54,55,
72,73,74,75,72,73,74,75,72,73,74,75,72,73,74,75,
92,93,94,95,92,93,94,95,92,93,94,95,92,93,94,95,
0,0,0,0,0,0,0,0,0,0,0,0,0,0,0,0,
0,0,0,0,0,0,0,0,0,0,0,0,0,0,0,0,
0,0,0,0,0,0,0,0,0,0,0,0,0,0,0,0,
0,0,0,0,0,0,0,0,0,0,0,0,0,0,0,0,
0,0,0,0,0,0,0,0,0,0,0,0,0,0,0,0,
0,0,0,0,0,0,0,0,0,0,0,0,0,0,0,0,
0,0,0,0,0,0,0,0,0,0,0,0,0,0,0,0,
0,0,0,0,0,0,0,0,0,0,0,0,0,0,0,0,
0,0,0,0,0,0,0,0,0,0,0,0,0,0,0,0,
0,0,0,0,0,0,0,0,0,0,0,0,0,0,0,0
</chunk>
   <chunk x="80" y="176" width="16" height="16">
72,73,74,75,72,73,74,75,72,73,74,75,72,73,74,75,
92,93,94,95,92,93,94,95,92,93,94,95,92,93,94,95,
32,33,34,35,32,33,34,35,32,33,34,35,32,33,34,35,
52,53,54,55,52,53,54,55,52,53,54,55,52,53,54,55,
72,73,74,75,72,73,74,75,72,73,74,75,72,73,74,75,
92,93,94,95,92,93,94,95,92,93,94,95,92,93,94,95,
0,0,0,0,0,0,0,0,0,0,0,0,0,0,0,0,
0,0,0,0,0,0,0,0,0,0,0,0,0,0,0,0,
0,0,0,0,0,0,0,0,0,0,0,0,0,0,0,0,
0,0,0,0,0,0,0,0,0,0,0,0,0,0,0,0,
0,0,0,0,0,0,0,0,0,0,0,0,0,0,0,0,
0,0,0,0,0,0,0,0,0,0,0,0,0,0,0,0,
0,0,0,0,0,0,0,0,0,0,0,0,0,0,0,0,
0,0,0,0,0,0,0,0,0,0,0,0,0,0,0,0,
0,0,0,0,0,0,0,0,0,0,0,0,0,0,0,0,
0,0,0,0,0,0,0,0,0,0,0,0,0,0,0,0
</chunk>
   <chunk x="96" y="176" width="16" height="16">
72,73,74,75,72,73,74,75,72,73,74,75,72,73,74,75,
92,93,94,95,92,93,94,95,92,93,94,95,92,93,94,95,
32,33,34,35,32,33,34,35,32,33,34,35,32,33,34,35,
52,53,54,55,52,53,54,55,52,53,54,55,52,53,54,55,
72,73,74,75,72,73,74,75,72,73,74,75,72,73,74,75,
92,93,94,95,92,93,94,95,92,93,94,95,92,93,94,95,
0,0,0,0,0,0,0,0,0,0,0,0,0,0,0,0,
0,0,0,0,0,0,0,0,0,0,0,0,0,0,0,0,
0,0,0,0,0,0,0,0,0,0,0,0,0,0,0,0,
0,0,0,0,0,0,0,0,0,0,0,0,0,0,0,0,
0,0,0,0,0,0,0,0,0,0,0,0,0,0,0,0,
0,0,0,0,0,0,0,0,0,0,0,0,0,0,0,0,
0,0,0,0,0,0,0,0,0,0,0,0,0,0,0,0,
0,0,0,0,0,0,0,0,0,0,0,0,0,0,0,0,
0,0,0,0,0,0,0,0,0,0,0,0,0,0,0,0,
0,0,0,0,0,0,0,0,0,0,0,0,0,0,0,0
</chunk>
   <chunk x="112" y="176" width="16" height="16">
72,73,74,75,72,73,74,75,72,73,74,75,72,73,74,75,
92,93,94,95,92,93,94,95,92,93,94,95,92,93,94,95,
32,33,34,35,32,33,34,35,32,33,34,35,32,33,34,35,
52,53,54,55,52,53,54,55,52,53,54,55,52,53,54,55,
72,73,74,75,72,73,74,75,72,73,74,75,72,73,74,75,
92,93,94,95,92,93,94,95,92,93,94,95,92,93,94,95,
0,0,0,0,0,0,0,0,0,0,0,0,0,0,0,0,
0,0,0,0,0,0,0,0,0,0,0,0,0,0,0,0,
0,0,0,0,0,0,0,0,0,0,0,0,0,0,0,0,
0,0,0,0,0,0,0,0,0,0,0,0,0,0,0,0,
0,0,0,0,0,0,0,0,0,0,0,0,0,0,0,0,
0,0,0,0,0,0,0,0,0,0,0,0,0,0,0,0,
0,0,0,0,0,0,0,0,0,0,0,0,0,0,0,0,
0,0,0,0,0,0,0,0,0,0,0,0,0,0,0,0,
0,0,0,0,0,0,0,0,0,0,0,0,0,0,0,0,
0,0,0,0,0,0,0,0,0,0,0,0,0,0,0,0
</chunk>
   <chunk x="128" y="176" width="16" height="16">
72,73,74,75,72,73,74,75,72,73,74,75,72,73,74,75,
92,93,94,95,92,93,94,95,92,93,94,95,92,93,94,95,
32,33,34,35,32,33,34,35,32,33,34,35,32,33,34,35,
52,53,54,55,52,53,54,55,52,53,54,55,52,53,54,55,
72,73,74,75,72,73,74,75,72,73,74,75,72,73,74,75,
92,93,94,95,92,93,94,95,92,93,94,95,92,93,94,95,
0,0,0,0,0,0,0,0,0,0,0,0,0,0,0,0,
0,0,0,0,0,0,0,0,0,0,0,0,0,0,0,0,
0,0,0,0,0,0,0,0,0,0,0,0,0,0,0,0,
0,0,0,0,0,0,0,0,0,0,0,0,0,0,0,0,
0,0,0,0,0,0,0,0,0,0,0,0,0,0,0,0,
0,0,0,0,0,0,0,0,0,0,0,0,0,0,0,0,
0,0,0,0,0,0,0,0,0,0,0,0,0,0,0,0,
0,0,0,0,0,0,0,0,0,0,0,0,0,0,0,0,
0,0,0,0,0,0,0,0,0,0,0,0,0,0,0,0,
0,0,0,0,0,0,0,0,0,0,0,0,0,0,0,0
</chunk>
  </data>
 </layer>
 <layer id="4" name="woda" width="144" height="208">
  <data encoding="csv">
   <chunk x="64" y="96" width="16" height="16">
0,0,0,0,0,0,0,0,0,0,0,0,0,0,0,0,
0,0,0,0,0,161,161,161,161,161,161,161,161,161,162,0,
0,0,0,161,161,163,163,163,163,161,161,161,162,161,161,162,
0,161,161,161,161,162,164,161,161,163,163,161,162,163,163,164,
161,163,163,161,162,162,161,163,163,164,161,161,161,162,162,161,
163,163,164,161,162,164,163,163,164,161,162,163,161,161,162,162,
163,164,162,161,162,163,164,161,162,162,162,161,163,163,161,161,
163,164,164,161,162,162,163,161,161,161,161,163,163,163,163,161,
0,163,164,161,161,162,163,163,163,163,163,164,161,161,163,163,
0,163,164,163,161,161,161,161,161,163,161,161,161,161,163,164,
0,0,0,161,163,163,163,163,163,164,163,163,163,163,163,164,
0,0,0,0,161,161,163,164,164,164,162,162,162,162,164,164,
0,0,0,0,0,161,161,161,163,164,164,164,164,164,0,0,
0,0,0,0,0,0,0,0,0,0,0,0,0,0,0,0,
0,0,0,0,0,0,0,0,0,0,0,0,0,0,0,0,
0,0,0,0,0,0,0,0,0,0,0,0,0,0,0,0
</chunk>
   <chunk x="80" y="96" width="16" height="16">
0,0,0,0,0,0,0,0,0,0,0,0,0,0,0,0,
0,0,0,0,0,0,0,0,0,0,0,0,0,0,0,0,
0,0,0,0,0,0,0,0,0,0,0,0,0,0,0,0,
0,0,0,0,0,0,0,0,0,0,0,0,0,0,0,0,
161,162,0,0,0,0,0,0,0,0,0,0,0,0,0,0,
161,161,162,0,0,0,0,0,0,0,0,0,0,0,0,0,
162,161,161,162,0,0,0,0,0,0,0,0,0,0,0,0,
161,162,163,164,162,0,0,0,0,0,0,0,0,0,0,0,
163,164,162,163,164,0,0,0,0,0,0,0,0,0,0,0,
162,162,162,164,0,0,0,0,0,0,0,0,0,0,0,0,
164,164,164,0,0,0,0,0,0,0,0,0,0,0,0,0,
0,0,0,0,0,0,0,0,0,0,0,0,0,0,0,0,
0,0,0,0,0,0,0,0,0,0,0,0,0,0,0,0,
0,0,0,0,0,0,0,0,0,0,0,0,0,0,0,0,
0,0,0,0,0,0,0,0,0,0,0,0,0,0,0,0,
0,0,0,0,0,0,0,0,0,0,0,0,0,0,0,0
</chunk>
  </data>
 </layer>
 <layer id="2" name="trawa" width="144" height="208">
  <data encoding="csv">
   <chunk x="96" y="48" width="16" height="16">
0,0,0,0,0,0,0,0,0,0,0,0,0,0,0,0,
0,0,0,0,0,0,0,0,0,0,0,0,0,0,0,0,
0,0,0,0,0,0,0,0,0,0,0,0,0,0,0,0,
0,0,0,0,0,0,0,0,0,0,0,0,0,0,0,0,
0,0,0,0,0,0,0,0,0,0,0,0,0,0,0,0,
0,0,0,0,0,0,0,0,0,0,0,0,0,0,0,0,
0,0,0,0,0,0,0,0,0,0,0,0,0,0,0,0,
0,0,0,0,0,0,0,0,0,0,0,0,0,0,0,0,
0,0,0,0,0,0,0,0,0,0,0,0,0,0,0,0,
0,0,0,0,0,0,0,0,0,0,0,0,0,0,0,0,
0,0,0,0,0,0,0,0,0,0,0,0,0,0,0,0,
0,0,0,0,0,0,0,0,0,0,0,0,0,0,0,0,
0,0,0,0,0,0,0,0,0,0,0,0,377,0,379,0,
0,0,0,0,0,0,0,0,0,0,0,0,0,0,0,0,
0,0,0,0,0,0,0,0,0,0,0,0,383,0,385,0,
0,0,0,0,0,0,0,0,0,0,0,0,0,0,0,0
</chunk>
   <chunk x="112" y="48" width="16" height="16">
0,0,0,0,0,0,0,0,0,0,0,0,0,0,0,0,
0,0,0,0,0,0,0,0,0,0,0,0,0,0,0,0,
0,0,0,0,0,0,0,0,0,0,0,0,0,0,0,0,
0,0,0,0,0,0,0,0,0,0,0,0,0,0,0,0,
0,0,0,0,0,0,0,0,0,0,0,0,0,0,0,0,
0,0,0,0,0,0,0,0,0,0,0,0,0,0,0,0,
0,0,0,0,0,0,0,0,0,0,0,0,0,0,0,0,
0,0,0,0,0,0,0,0,0,0,0,377,0,378,378,378,
0,0,0,0,0,0,0,0,0,0,0,0,0,0,0,0,
0,0,0,0,0,0,0,0,0,0,0,380,0,381,0,381,
0,0,0,0,0,0,0,0,0,377,0,0,381,0,0,0,
0,0,0,0,0,0,0,0,0,0,0,381,381,0,381,0,
0,0,0,0,0,0,0,0,0,380,381,0,0,0,0,0,
0,0,0,0,377,0,378,378,0,0,0,0,384,0,384,0,
0,0,0,0,0,0,0,0,0,381,0,382,0,0,0,0,
0,0,0,0,380,0,381,381,381,381,0,382,0,0,0,0
</chunk>
   <chunk x="128" y="48" width="16" height="16">
0,0,0,0,0,0,0,0,0,0,0,0,0,0,0,0,
0,0,0,0,0,0,0,0,0,0,0,0,0,0,0,0,
0,0,0,0,0,0,0,0,0,0,0,0,0,0,0,0,
0,0,0,0,0,0,0,0,0,0,0,377,0,379,0,0,
0,0,0,0,0,0,0,0,0,0,0,0,0,0,0,0,
0,0,0,0,0,0,0,0,0,0,0,383,0,385,0,0,
0,0,0,0,0,0,0,0,0,0,0,0,0,0,0,0,
378,0,378,0,379,0,0,0,0,0,0,0,0,0,0,0,
0,0,0,0,0,0,0,0,0,0,0,0,0,0,0,0,
0,381,381,0,382,0,0,0,0,0,0,0,0,0,0,0,
0,0,0,0,0,0,0,0,0,0,0,0,0,0,0,0,
381,0,381,0,382,0,0,0,0,0,0,0,0,0,0,0,
0,0,0,0,0,0,0,0,0,0,0,0,0,0,0,0,
384,0,384,0,385,0,0,0,0,0,0,0,0,0,0,0,
0,0,0,0,0,0,0,0,0,0,0,0,0,0,0,0,
0,0,0,0,0,0,0,0,0,0,0,0,0,0,0,0
</chunk>
   <chunk x="96" y="64" width="16" height="16">
0,0,0,0,0,0,0,0,0,0,0,0,0,0,0,0,
0,0,0,0,0,0,0,0,0,0,0,0,0,0,0,0,
0,0,0,0,0,0,0,0,0,0,0,0,0,0,0,0,
0,0,0,0,0,0,0,0,0,0,0,377,0,378,0,379,
0,0,0,0,0,0,0,0,0,0,0,0,0,0,0,0,
0,0,0,0,0,0,0,0,0,0,0,383,0,384,0,385,
0,0,0,0,0,0,0,0,0,0,0,0,0,0,0,0,
0,0,0,0,0,0,0,0,0,0,0,0,0,0,0,0,
0,0,0,0,0,0,0,0,0,0,0,0,0,0,0,0,
0,0,0,0,0,0,0,0,0,0,0,0,0,0,0,0,
0,0,0,0,0,0,0,0,0,0,0,0,0,0,0,0,
0,0,0,0,0,0,0,0,0,0,0,0,0,0,0,0,
0,0,0,0,0,0,0,0,0,0,0,377,0,379,0,0,
0,0,0,0,0,0,0,0,0,0,0,0,0,0,0,0,
0,0,0,0,0,0,0,0,0,0,0,383,0,385,0,0,
0,0,0,0,0,0,0,0,0,0,0,0,0,0,0,0
</chunk>
   <chunk x="112" y="64" width="16" height="16">
0,0,0,0,0,0,0,0,0,0,0,0,0,0,0,0,
0,0,0,0,380,0,381,381,381,381,381,382,0,0,0,0,
0,0,0,0,0,0,0,0,0,0,0,0,0,0,0,0,
0,0,0,0,383,0,384,384,0,384,0,385,0,0,0,0,
0,0,0,0,0,0,0,0,0,0,0,0,0,0,0,0,
0,0,0,0,0,0,0,0,0,0,0,0,0,0,0,0,
0,0,0,0,0,0,0,0,0,0,0,0,0,0,0,0,
0,0,0,0,0,377,0,379,0,0,0,0,0,0,0,0,
0,0,0,0,0,0,0,0,0,0,0,0,0,0,0,0,
0,0,0,0,0,383,0,385,0,0,0,0,0,0,0,0,
0,0,0,0,0,0,0,0,0,0,0,0,0,0,0,0,
0,0,0,0,0,0,0,0,0,0,0,0,0,0,0,0,
0,0,0,0,0,0,0,0,0,0,0,0,0,0,0,0,
0,0,0,0,0,0,0,0,0,0,0,0,0,0,0,0,
0,0,0,0,0,0,0,0,0,0,0,0,0,0,0,0,
0,0,0,0,0,0,0,0,0,0,0,0,0,0,0,0
</chunk>
   <chunk x="64" y="80" width="16" height="16">
0,0,0,0,0,0,0,0,0,0,0,0,0,0,0,0,
0,0,0,0,0,0,0,0,0,0,0,0,0,0,0,0,
0,0,0,0,0,0,0,0,0,0,0,0,0,0,0,0,
0,0,0,0,0,0,0,0,0,0,0,0,0,0,0,0,
0,0,0,0,0,0,0,0,0,0,0,0,0,0,0,0,
0,0,0,0,0,0,0,0,0,0,0,0,0,0,0,0,
0,0,0,0,0,0,0,0,0,0,0,0,0,0,0,0,
0,0,0,0,0,0,0,0,0,0,0,0,0,0,0,0,
0,0,0,0,0,0,0,0,0,0,0,0,0,0,0,0,
0,0,0,0,0,127,128,0,0,0,0,0,0,0,0,0,
0,0,0,0,0,147,148,0,0,0,0,0,0,0,0,0,
0,0,0,0,0,0,0,0,0,0,0,0,0,0,0,0,
0,0,0,0,1,2,3,4,5,3,4,5,3,4,5,6,
0,0,1,2,23,22,23,22,23,23,22,22,23,22,22,26,
1,2,23,22,23,42,43,42,43,43,42,42,43,42,42,23,
21,22,23,42,43,22,23,22,23,22,23,22,23,22,23,22
</chunk>
   <chunk x="80" y="80" width="16" height="16">
0,0,0,0,0,0,0,0,0,0,0,0,0,0,0,0,
0,0,0,0,0,0,0,0,0,0,0,0,0,0,0,0,
0,0,0,0,0,0,0,0,0,0,0,0,0,0,0,0,
0,0,0,0,0,0,0,0,0,0,0,0,0,0,0,0,
0,0,0,0,0,0,0,0,0,0,0,0,0,0,0,0,
0,0,0,0,0,0,0,0,0,0,0,0,0,0,0,0,
0,0,0,0,0,0,0,0,0,0,0,0,0,0,0,0,
0,0,0,0,0,0,0,0,0,0,0,0,0,0,0,0,
0,0,0,0,0,0,0,0,0,0,0,0,0,0,0,0,
0,0,0,0,0,0,0,0,0,0,0,0,0,0,0,0,
0,0,0,0,0,0,0,0,0,0,0,0,0,0,0,0,
0,0,0,0,0,0,0,0,0,127,128,0,0,0,0,0,
0,0,0,0,0,0,0,0,0,147,148,0,0,0,0,0,
0,0,0,0,0,0,0,0,0,0,0,0,0,0,0,0,
3,4,5,6,0,0,0,0,0,0,0,0,0,0,0,0,
23,22,23,23,3,6,0,0,0,0,0,0,0,0,0,0
</chunk>
   <chunk x="48" y="96" width="16" height="16">
0,0,0,0,0,0,0,0,0,0,0,0,0,1,2,3,
0,0,0,0,0,0,0,0,0,0,0,0,0,21,22,23,
0,0,0,0,0,0,0,0,0,0,0,1,3,22,42,43,
0,0,0,0,0,0,127,128,0,1,3,22,22,23,23,22,
0,0,0,0,0,0,147,148,0,21,22,23,42,43,43,42,
0,0,0,0,0,0,0,0,0,41,42,43,22,23,22,23,
0,0,0,0,0,0,0,0,0,61,42,43,42,43,42,43,
0,0,0,0,0,0,0,0,0,21,22,23,22,22,22,23,
0,0,0,0,0,0,0,0,0,41,42,43,42,22,42,43,
0,0,0,0,0,0,0,0,0,61,22,22,23,23,23,22,
0,0,0,0,0,0,0,0,0,81,42,42,43,43,43,43,
0,0,0,0,0,0,0,0,0,101,63,22,23,22,22,22,
0,0,0,0,0,0,0,0,0,0,61,42,43,42,22,42,
0,0,0,0,0,0,0,0,0,0,101,103,103,103,63,22,
0,0,0,0,0,0,0,0,127,128,0,0,0,0,61,42,
0,0,0,0,0,0,0,0,147,148,0,0,0,0,101,103
</chunk>
   <chunk x="64" y="96" width="16" height="16">
22,42,43,22,23,42,43,42,43,42,43,42,43,42,43,22,
22,23,23,42,43,43,103,104,105,102,103,102,103,104,43,42,
42,43,43,43,103,106,0,0,0,0,0,0,0,0,101,23,
23,43,103,106,0,0,0,0,0,0,0,0,0,0,0,21,
43,106,0,0,0,0,0,0,0,0,0,0,0,0,0,101,
46,0,0,0,0,0,0,0,0,0,0,0,0,0,0,0,
26,0,0,0,0,0,0,0,0,0,0,0,0,0,0,0,
46,0,0,0,0,0,0,0,0,0,0,0,0,0,0,0,
23,6,0,0,0,0,0,0,0,0,0,0,0,0,0,0,
23,23,3,6,0,0,0,0,0,0,0,0,0,0,0,0,
23,22,23,23,6,0,0,0,0,0,0,0,0,0,0,1,
23,22,22,23,26,0,0,0,0,0,0,0,0,1,2,23,
43,42,42,22,23,2,3,4,2,3,4,2,3,23,22,23,
23,22,23,42,43,22,22,22,23,22,22,23,22,23,22,23,
43,42,43,22,23,22,23,22,23,22,23,43,42,43,42,43,
103,103,63,42,43,42,43,42,22,23,22,23,22,23,22,22
</chunk>
   <chunk x="80" y="96" width="16" height="16">
23,22,23,22,23,43,6,0,0,0,0,0,0,0,0,0,
43,42,43,42,43,23,23,3,3,3,6,0,0,0,0,0,
22,22,22,23,22,23,22,43,22,23,23,6,0,0,0,0,
42,42,22,23,42,43,42,22,42,43,23,26,0,0,0,0,
103,22,42,43,23,22,23,22,22,22,43,26,0,0,0,0,
0,101,23,42,22,23,43,42,42,42,43,46,0,7,8,0,
0,0,101,23,42,22,22,23,22,22,23,66,0,67,68,0,
0,0,0,101,22,42,42,43,42,42,43,86,0,87,88,0,
0,0,0,0,41,22,23,23,22,23,23,66,0,107,108,0,
0,0,0,1,22,23,43,43,42,43,43,86,0,0,0,0,
2,3,4,22,23,43,22,22,23,63,102,106,0,0,0,0,
22,22,23,22,22,22,23,42,43,46,0,0,127,128,0,0,
42,42,43,42,43,42,43,63,102,106,0,0,147,148,0,0,
22,23,22,22,23,64,102,106,0,0,0,0,0,0,0,0,
42,43,42,42,43,46,0,0,0,0,0,0,0,0,0,0,
23,63,103,102,103,106,0,0,0,0,0,0,0,0,0,0
</chunk>
   <chunk x="96" y="96" width="16" height="16">
0,0,0,0,0,0,0,0,0,0,0,0,0,0,0,0,
0,0,0,0,0,0,0,0,0,0,0,0,0,0,0,0,
0,0,0,0,0,0,0,0,0,0,0,0,0,0,0,0,
0,0,0,0,0,0,0,0,0,0,0,0,0,0,0,0,
0,0,0,0,0,0,0,0,0,0,0,0,0,0,0,0,
0,0,0,0,0,0,0,0,0,0,0,0,0,0,0,0,
0,0,0,0,0,0,0,0,0,0,0,0,0,0,0,0,
0,0,0,0,0,0,0,0,0,0,0,0,0,0,0,0,
0,127,128,0,0,0,0,0,0,0,0,0,0,0,0,0,
0,147,148,0,0,0,0,0,0,0,0,0,0,0,0,0,
0,0,0,0,0,0,0,0,0,0,0,0,0,0,0,0,
0,0,0,0,0,0,0,0,0,0,0,0,0,0,0,0,
0,0,0,0,0,0,0,0,0,0,0,0,0,0,0,0,
0,0,0,0,0,0,0,0,0,0,0,0,0,0,0,0,
0,0,0,0,0,0,0,0,0,0,0,0,0,0,0,0,
0,0,0,0,0,0,0,0,0,0,0,0,0,0,0,0
</chunk>
   <chunk x="48" y="112" width="16" height="16">
0,0,0,0,0,0,0,0,0,0,0,127,128,0,0,0,
0,0,0,0,0,0,0,0,0,0,0,147,148,0,7,8,
0,0,0,0,0,0,0,0,0,0,0,0,0,0,87,88,
0,0,0,0,0,0,0,0,0,0,0,0,0,0,107,108,
0,0,0,0,0,0,0,0,0,0,0,0,0,0,0,0,
0,0,0,0,0,0,0,0,0,0,0,0,0,0,0,0,
0,0,0,0,0,0,0,0,0,0,0,0,0,0,0,0,
0,0,0,0,0,0,0,0,0,0,0,0,0,0,0,0,
0,0,0,0,0,0,0,0,0,0,0,0,0,0,0,0,
0,0,0,0,0,0,0,0,0,0,0,0,0,0,0,0,
0,0,0,0,0,0,0,0,0,0,0,0,0,0,0,0,
0,0,0,0,0,0,0,0,0,0,0,0,0,0,0,0,
0,0,0,0,0,0,0,0,0,0,0,0,0,0,0,0,
0,0,0,0,0,0,0,0,0,0,0,0,0,0,0,0,
0,0,0,0,0,0,0,0,0,0,0,0,0,0,0,0,
0,0,0,0,0,0,0,0,0,0,0,0,0,0,0,0
</chunk>
   <chunk x="64" y="112" width="16" height="16">
0,0,101,103,103,103,103,63,42,43,42,43,42,43,42,42,
0,0,0,0,0,0,0,101,102,102,102,102,102,103,102,102,
0,0,0,0,0,0,0,0,0,0,0,0,0,0,0,0,
0,0,0,0,0,0,0,0,0,0,0,0,121,122,123,124,
0,0,0,0,0,0,0,0,0,0,0,0,141,142,143,144,
0,0,0,0,0,0,0,0,0,0,0,0,0,0,0,0,
0,0,0,0,0,0,0,0,0,0,0,0,0,0,0,0,
0,0,0,0,0,0,0,0,0,0,0,0,0,0,0,0,
0,0,0,0,0,0,0,0,0,0,0,0,0,0,0,0,
0,0,0,0,0,0,0,0,0,0,0,0,0,0,0,0,
0,0,0,0,0,0,0,0,0,0,0,0,0,0,0,0,
0,0,0,0,0,0,0,0,0,0,0,0,0,0,0,0,
0,0,0,0,0,0,0,0,0,0,0,0,0,0,0,0,
0,0,0,0,0,0,0,0,0,0,0,0,0,0,0,0,
0,0,0,0,0,0,0,0,0,0,0,0,0,0,0,0,
0,0,0,0,0,0,0,0,0,0,0,0,0,0,0,0
</chunk>
   <chunk x="80" y="112" width="16" height="16">
43,46,0,0,0,0,0,0,0,0,0,0,0,0,0,0,
103,106,0,127,128,0,0,0,0,0,0,0,0,0,0,0,
0,0,0,147,148,0,0,0,0,0,0,0,0,0,0,0,
125,126,0,0,0,0,0,0,0,0,0,0,0,0,0,0,
145,146,0,0,0,0,0,0,0,0,0,0,0,0,0,0,
0,0,0,0,0,0,0,0,0,0,0,0,0,0,0,0,
0,0,0,0,0,0,0,0,0,0,0,0,0,0,0,0,
0,0,0,0,0,0,0,0,0,0,0,0,0,0,0,0,
0,0,0,0,0,0,0,0,0,0,0,0,0,0,0,0,
0,0,0,0,0,0,0,0,0,0,0,0,0,0,0,0,
0,0,0,0,0,0,0,0,0,0,0,0,0,0,0,0,
0,0,0,0,0,0,0,0,0,0,0,0,0,0,0,0,
0,0,0,0,0,0,0,0,0,0,0,0,0,0,0,0,
0,0,0,0,0,0,0,0,0,0,0,0,0,0,0,0,
0,0,0,0,0,0,0,0,0,0,0,0,0,0,0,0,
0,0,0,0,0,0,0,0,0,0,0,0,0,0,0,0
</chunk>
   <chunk x="112" y="128" width="16" height="16">
0,0,0,0,0,0,0,0,0,0,0,0,0,0,0,0,
0,0,0,0,0,0,0,0,0,0,0,0,0,0,0,0,
0,0,0,0,0,0,0,0,0,0,0,0,0,0,0,0,
0,0,0,0,0,0,0,0,0,0,0,0,0,0,0,0,
0,0,0,0,0,0,0,0,0,0,0,0,0,0,0,0,
0,0,0,0,0,0,0,0,0,0,0,0,0,0,0,0,
0,0,0,0,0,0,0,0,0,0,0,0,0,0,0,0,
0,0,0,0,0,0,0,0,0,0,0,0,0,0,0,0,
0,0,0,0,0,0,0,0,0,0,0,0,0,0,0,0,
0,0,0,0,0,0,0,0,0,0,0,0,0,0,0,0,
0,0,0,0,0,0,0,0,0,0,0,0,0,0,0,0,
0,0,0,0,0,0,0,0,0,0,127,128,0,0,0,0,
0,0,0,0,0,0,0,0,0,0,147,148,0,0,0,0,
0,0,0,0,0,0,0,0,0,0,0,0,0,127,128,0,
0,0,0,0,0,0,0,0,0,0,0,0,0,147,148,0,
0,0,0,0,0,0,0,0,0,0,0,0,0,0,0,0
</chunk>
   <chunk x="128" y="128" width="16" height="16">
0,0,0,0,0,0,0,0,0,0,0,0,0,0,0,0,
0,0,0,0,0,0,0,0,0,0,0,0,0,0,0,0,
0,0,0,0,0,0,0,0,0,0,0,0,0,0,0,0,
0,0,0,0,0,0,0,0,0,0,0,0,0,0,0,0,
0,0,0,0,0,0,0,0,0,0,0,0,0,0,0,0,
0,0,0,0,0,0,0,0,0,127,128,0,0,0,0,0,
0,0,0,0,0,0,0,0,0,147,148,0,0,0,0,0,
0,0,0,0,0,0,0,0,0,0,0,0,0,0,0,0,
0,0,0,127,128,0,0,0,0,0,0,0,0,0,0,0,
0,0,0,147,148,0,0,0,0,0,0,0,0,0,0,0,
0,0,0,0,0,0,0,0,0,0,0,0,127,128,0,0,
0,0,0,0,0,0,0,0,0,0,0,0,87,88,0,0,
0,0,0,0,0,7,4,5,8,0,0,0,107,108,0,0,
0,0,0,0,0,67,45,45,68,0,0,0,0,0,0,0,
0,0,0,0,0,87,65,65,88,0,0,0,0,0,0,0,
0,0,0,0,0,107,144,145,108,0,0,0,0,0,0,0
</chunk>
   <chunk x="16" y="144" width="16" height="16">
0,0,0,0,0,0,0,0,0,0,0,0,0,0,0,0,
0,0,0,0,0,0,0,0,0,0,0,0,0,0,0,0,
0,0,0,0,0,0,0,0,0,0,0,0,0,0,0,0,
0,0,0,0,0,0,0,0,0,0,0,0,0,0,0,0,
0,0,0,0,0,0,0,0,0,0,0,0,0,0,0,0,
0,0,0,0,0,0,0,0,0,0,0,0,0,0,0,0,
0,0,0,0,0,0,0,0,0,0,0,0,0,0,0,0,
0,0,0,0,0,0,0,0,0,0,0,0,0,0,0,0,
0,0,0,0,0,0,0,0,0,0,0,0,0,0,0,0,
0,0,0,0,0,0,0,0,0,0,0,0,0,0,0,0,
0,0,0,0,0,0,0,0,0,0,0,0,0,0,0,0,
0,0,0,0,0,0,0,0,0,0,0,0,0,0,0,0,
0,0,0,0,0,0,0,0,0,0,127,128,0,0,0,0,
0,0,0,0,0,0,0,0,0,0,147,148,0,0,0,0,
0,0,0,0,0,0,0,0,0,0,0,0,0,0,0,0,
0,0,0,0,0,0,0,0,0,0,0,0,0,0,0,0
</chunk>
   <chunk x="48" y="144" width="16" height="16">
0,0,0,0,0,0,0,0,0,0,0,0,0,0,0,0,
0,0,0,0,0,0,0,0,0,0,0,0,0,0,0,0,
0,0,0,0,0,0,0,0,0,0,0,0,0,0,0,0,
0,0,0,0,0,0,0,0,0,0,0,0,0,0,0,0,
0,0,0,0,0,0,0,0,0,0,0,0,0,0,0,0,
0,0,0,0,0,0,0,0,0,0,0,0,0,0,0,0,
0,0,0,0,0,0,0,0,0,0,0,0,0,0,0,0,
0,0,0,0,0,0,0,0,0,0,0,0,0,0,0,0,
0,0,0,0,0,0,0,0,0,0,0,0,0,0,0,0,
0,0,0,0,0,0,0,0,0,0,0,0,0,0,0,0,
0,0,0,0,0,0,0,0,0,0,0,0,0,0,0,0,
0,0,0,0,0,0,0,0,0,0,0,0,0,0,0,0,
0,0,0,0,0,0,0,0,0,0,0,0,0,0,0,0,
0,0,0,0,0,0,0,0,0,127,128,0,0,0,0,0,
0,0,0,0,0,0,0,0,0,147,148,0,0,0,0,0,
0,0,0,0,0,0,0,0,0,0,0,0,0,0,0,0
</chunk>
   <chunk x="64" y="144" width="16" height="16">
0,0,0,0,0,0,0,0,0,0,0,0,0,0,0,0,
0,0,0,0,0,0,0,0,0,0,0,0,0,0,0,0,
0,0,0,0,0,0,0,0,0,0,0,0,0,0,0,0,
0,0,0,0,0,0,0,0,0,0,0,0,0,0,0,0,
0,0,0,0,0,0,0,0,0,0,0,0,0,0,0,0,
0,0,0,0,0,0,0,0,0,0,0,0,0,0,0,0,
0,0,0,0,0,0,0,0,0,0,0,0,0,0,0,0,
0,0,0,0,0,0,0,0,0,0,0,0,0,0,0,0,
0,0,0,0,0,0,0,0,0,0,0,0,0,0,0,0,
0,0,0,0,0,0,0,0,0,0,0,0,0,0,0,0,
0,0,0,0,0,0,0,0,0,0,0,0,0,0,0,0,
0,0,0,0,0,0,0,0,0,0,0,0,0,0,0,0,
0,0,0,0,0,0,0,0,0,0,0,0,0,0,0,0,
7,8,0,0,0,0,0,0,0,0,0,0,0,0,0,0,
27,28,0,0,0,0,0,0,0,0,0,0,0,0,0,0,
87,83,8,0,0,0,0,0,0,0,0,0,0,0,0,0
</chunk>
   <chunk x="96" y="144" width="16" height="16">
0,0,0,0,0,0,0,0,0,0,0,0,0,0,0,0,
0,0,0,0,0,0,0,0,0,0,0,0,0,0,0,0,
0,0,0,0,0,0,0,0,0,0,0,0,0,0,0,0,
0,0,0,0,0,0,0,0,0,0,0,0,0,0,0,0,
0,0,0,0,0,0,0,0,0,0,0,0,0,0,0,0,
0,0,0,0,0,0,0,0,0,0,0,0,0,0,0,0,
0,0,0,0,0,0,0,0,0,0,0,0,127,128,0,0,
0,0,0,0,0,0,0,0,0,0,0,0,147,148,0,0,
0,0,0,0,0,0,0,0,0,0,0,0,0,0,0,0,
0,0,0,0,0,0,0,0,0,0,0,0,0,0,0,0,
0,0,0,0,0,0,0,0,0,0,0,0,0,0,0,0,
0,0,0,0,0,0,0,0,0,0,0,0,0,39,40,0,
0,0,0,0,0,0,0,0,0,0,0,0,0,0,0,0,
0,0,0,0,0,0,0,0,0,0,0,0,0,0,0,0,
0,0,0,0,0,0,0,0,0,0,0,0,7,8,0,39,
0,0,0,0,0,0,0,0,0,39,7,4,43,88,0,0
</chunk>
   <chunk x="112" y="144" width="16" height="16">
0,0,0,0,0,0,0,0,0,0,0,0,0,0,0,0,
0,0,0,0,0,0,0,0,0,0,0,0,0,0,0,0,
0,0,0,0,0,0,0,0,0,0,0,0,0,0,0,0,
0,0,0,0,0,0,0,0,0,0,0,127,128,0,0,0,
0,0,0,0,0,0,0,0,0,0,0,147,148,40,0,39,
0,0,0,0,0,0,0,0,0,0,0,0,0,0,0,0,
0,0,0,0,0,0,0,0,0,0,0,39,40,0,0,1,
0,0,0,0,0,0,0,0,0,0,0,0,0,0,0,21,
0,0,0,0,0,0,39,40,0,0,1,2,3,4,5,63,
0,127,128,40,0,0,0,0,0,0,21,22,23,24,25,83,
0,147,148,0,0,0,0,1,2,3,22,23,24,25,22,23,
0,39,40,40,0,0,0,21,22,23,42,43,44,45,42,43,
0,0,0,0,1,2,3,63,64,65,62,63,64,65,62,63,
0,0,0,0,21,22,23,83,84,85,82,83,84,85,82,83,
40,0,0,1,24,25,22,23,24,25,22,23,24,25,22,23,
0,0,0,21,44,45,42,43,44,45,42,43,44,45,42,43
</chunk>
   <chunk x="128" y="144" width="16" height="16">
0,0,0,0,0,0,0,0,0,0,0,0,0,39,40,0,
0,0,0,0,0,0,0,0,0,0,39,127,128,0,0,0,
0,0,0,0,0,39,40,40,0,0,0,147,148,0,39,40,
0,39,127,128,0,0,0,0,0,0,0,0,0,0,0,0,
40,0,147,148,1,2,3,4,5,2,3,4,2,3,4,5,
0,0,0,0,21,22,23,24,25,22,23,24,22,23,24,25,
2,3,4,5,24,25,22,23,24,25,22,23,24,25,22,23,
22,23,24,25,44,45,42,43,44,45,42,43,44,45,42,43,
64,65,62,63,64,65,62,63,64,65,62,63,64,65,62,63,
84,85,82,83,84,85,82,83,84,85,82,83,84,85,82,83,
24,25,22,23,24,25,22,23,24,25,22,23,24,25,22,23,
44,45,42,43,44,45,42,43,44,45,42,43,44,45,42,43,
64,65,62,63,64,65,62,63,64,65,62,63,64,65,62,63,
84,85,82,83,84,85,82,83,84,85,82,83,84,85,82,83,
24,25,22,23,24,25,22,23,24,25,22,23,24,25,22,23,
44,45,42,43,44,45,42,43,44,45,42,43,44,45,42,43
</chunk>
   <chunk x="16" y="160" width="16" height="16">
0,0,0,0,0,0,0,0,0,0,0,0,0,0,0,0,
0,0,0,0,0,0,0,0,0,0,0,0,0,0,0,0,
0,0,0,0,0,0,0,0,0,0,0,0,7,4,125,126,
0,0,0,0,0,0,0,127,128,0,0,0,27,24,145,146,
0,0,0,0,0,0,0,147,148,0,0,0,107,108,0,0,
0,0,0,0,0,0,0,0,0,0,0,0,0,0,0,0,
0,0,0,0,0,0,0,0,0,0,0,0,0,0,0,0,
0,0,0,0,0,0,0,0,0,0,0,0,0,1,2,3,
0,0,0,0,0,0,0,0,0,0,0,0,0,21,22,22,
0,0,0,0,0,0,0,0,0,0,0,0,0,41,42,42,
0,0,0,0,0,0,0,0,0,0,0,1,2,42,43,62,
0,0,0,0,0,0,0,0,0,0,0,21,22,42,43,82,
0,0,0,0,127,128,0,0,0,0,0,41,42,62,63,64,
0,0,0,0,147,148,0,0,0,1,2,42,43,44,42,43,
0,0,0,0,0,0,0,0,0,21,22,62,63,64,42,43,
0,0,0,0,0,0,0,0,0,41,42,43,44,45,42,43
</chunk>
   <chunk x="32" y="160" width="16" height="16">
0,0,0,0,0,0,0,0,121,125,126,0,0,0,0,0,
0,0,0,0,0,0,0,0,141,145,146,0,0,0,0,0,
0,0,0,0,0,0,0,0,0,0,0,0,0,0,0,0,
0,0,0,0,0,0,0,0,0,0,0,0,1,2,3,4,
0,0,0,0,0,0,0,0,0,1,2,3,42,22,23,24,
0,0,0,0,0,1,2,3,4,42,43,44,45,42,43,44,
0,1,2,3,4,42,43,44,45,62,63,64,65,62,63,64,
4,42,22,23,24,25,63,22,23,24,25,22,22,82,83,84,
23,24,25,43,22,23,24,25,43,22,23,24,25,43,22,23,
43,44,45,63,42,43,44,45,63,42,43,44,45,63,42,43,
63,64,65,83,62,63,64,65,83,62,63,64,65,83,62,63,
83,84,85,85,82,83,84,85,62,82,83,84,85,82,82,83,
42,43,44,45,45,84,85,62,82,82,82,83,84,85,42,43,
22,23,24,25,65,83,84,22,23,24,25,22,23,24,25,42,
42,43,44,45,43,44,45,42,43,44,45,42,43,44,45,62,
62,63,64,65,63,64,65,62,63,64,65,62,63,64,65,82
</chunk>
   <chunk x="48" y="160" width="16" height="16">
0,0,0,0,0,0,0,0,0,0,0,0,0,0,0,0,
0,0,0,0,0,0,1,2,3,4,5,2,3,4,5,6,
0,1,2,3,4,5,42,43,44,45,45,42,42,43,44,45,
5,42,43,44,45,45,42,43,44,45,65,62,42,43,44,45,
25,23,24,25,22,23,24,25,23,24,25,82,22,23,24,25,
45,43,44,45,42,43,44,45,43,44,45,85,42,43,44,45,
65,63,64,65,62,63,64,65,63,64,65,84,62,63,64,65,
85,83,84,85,82,83,84,85,83,84,85,84,82,83,84,85,
24,25,85,22,23,24,25,83,84,22,23,24,25,22,23,24,
44,45,82,42,43,44,45,83,84,42,43,44,45,42,43,44,
64,65,63,62,63,64,65,62,82,62,63,64,65,62,63,64,
84,85,83,82,83,84,85,82,82,82,83,84,85,82,83,84,
44,42,42,62,62,42,43,44,22,23,24,25,45,65,65,65,
22,23,24,25,22,23,24,25,42,43,44,45,65,85,85,85,
42,43,44,45,42,43,44,45,62,63,64,65,85,25,25,43,
62,63,64,65,62,63,64,65,82,83,84,85,44,45,45,63
</chunk>
   <chunk x="64" y="160" width="16" height="16">
107,103,108,0,0,0,0,127,128,0,0,0,0,0,0,0,
0,0,0,0,0,0,0,147,148,0,0,0,0,0,0,0,
6,0,0,0,0,0,0,0,0,0,0,0,0,0,0,0,
26,0,0,0,0,0,0,0,0,0,0,0,0,0,0,0,
46,0,0,0,0,0,0,0,0,0,0,0,0,0,0,0,
45,6,0,0,127,128,0,0,0,0,0,0,0,0,0,0,
65,26,0,0,147,148,0,0,0,0,0,0,0,0,0,0,
85,46,0,0,0,0,0,0,0,0,0,0,0,127,128,0,
25,45,2,2,3,4,5,6,0,0,0,0,0,147,148,0,
45,42,43,44,45,44,45,66,0,0,0,0,0,0,0,0,
65,62,63,64,65,64,65,2,3,4,5,6,0,0,0,0,
85,82,83,42,43,44,45,45,43,44,45,45,3,4,5,5,
82,82,83,42,43,44,45,65,63,64,65,65,23,24,25,25,
24,25,24,62,63,64,65,85,83,84,85,85,23,24,25,45,
44,45,44,82,83,84,85,45,43,44,45,42,43,44,45,65,
64,65,64,65,62,63,64,65,63,64,65,62,63,64,65,85
</chunk>
   <chunk x="80" y="160" width="16" height="16">
0,0,0,0,0,0,0,0,0,0,0,0,0,0,0,0,
0,0,0,0,0,0,0,0,0,0,0,0,0,0,0,0,
0,0,0,0,0,0,0,0,0,0,0,0,0,0,0,0,
0,0,0,0,0,0,0,0,0,0,0,0,0,0,0,0,
0,0,0,0,0,0,0,0,0,0,0,0,0,0,0,0,
0,0,0,0,0,0,0,0,0,0,0,0,0,0,0,0,
0,0,0,0,0,0,0,0,0,0,0,0,0,0,0,0,
0,0,0,0,0,0,0,0,0,0,0,0,0,0,0,0,
0,121,122,123,124,125,126,0,0,0,0,0,0,0,0,39,
0,141,142,143,144,145,146,0,0,0,0,0,0,0,0,39,
0,0,0,0,0,39,40,0,0,39,1,2,3,4,5,5,
5,5,5,5,4,5,5,5,5,5,22,23,24,25,25,23,
22,23,24,22,23,24,25,24,25,23,22,23,24,25,25,43,
42,43,44,42,43,44,45,44,45,43,42,43,44,45,45,63,
62,63,64,62,63,64,65,64,65,63,62,63,64,65,65,25,
82,83,84,82,83,84,22,23,24,25,25,83,84,85,85,45
</chunk>
   <chunk x="96" y="160" width="16" height="16">
0,0,0,0,0,0,0,39,40,0,107,104,105,108,40,0,
0,0,0,0,0,0,0,39,40,0,0,0,0,0,0,0,
0,0,0,0,0,127,128,0,0,0,0,39,40,39,40,40,
0,0,0,0,0,147,148,40,0,0,0,0,0,0,0,0,
0,0,39,40,0,39,40,0,1,2,122,123,124,125,122,123,
0,0,0,0,0,0,0,0,21,22,82,83,84,85,82,83,
0,127,128,0,0,0,0,0,41,42,22,23,24,25,22,23,
0,147,148,39,40,0,1,2,44,45,42,43,44,45,42,43,
40,39,40,0,0,0,21,22,64,65,62,63,64,65,62,63,
40,0,0,0,0,0,41,42,84,85,82,83,84,85,82,83,
3,4,5,3,4,5,22,23,24,25,22,23,24,25,22,23,
24,25,25,23,24,25,42,43,44,45,42,43,44,45,42,43,
44,45,45,43,44,45,62,63,64,65,62,63,64,65,62,63,
64,65,65,83,84,85,82,83,84,85,82,83,84,85,82,83,
84,85,85,23,24,25,22,23,24,25,22,23,24,25,22,23,
45,45,42,43,44,45,42,43,44,45,42,43,44,45,42,43
</chunk>
   <chunk x="112" y="160" width="16" height="16">
0,0,0,41,64,65,62,63,64,65,62,63,64,65,62,63,
0,0,0,61,84,85,82,83,84,85,82,83,84,85,82,83,
40,0,1,23,24,25,22,23,24,25,22,23,24,25,22,23,
0,0,21,43,44,45,42,43,44,45,42,43,44,45,42,43,
124,125,62,63,64,65,62,63,64,65,62,63,64,65,62,63,
84,85,82,83,84,85,82,83,84,85,82,83,84,85,82,83,
24,25,22,23,24,25,22,23,24,25,22,23,24,25,22,23,
44,45,42,43,44,45,42,43,44,45,42,43,44,45,42,43,
64,65,62,63,64,65,62,63,64,65,62,63,64,65,62,63,
84,85,82,83,84,85,82,83,84,85,82,83,84,85,82,83,
24,25,22,23,24,25,22,23,24,25,22,23,24,25,22,23,
44,45,42,43,44,45,42,43,44,45,42,43,44,45,42,43,
64,65,62,63,64,65,62,63,64,65,62,63,64,65,62,63,
84,85,82,83,84,85,82,83,84,85,82,83,84,85,82,83,
24,25,22,23,24,25,22,23,24,25,22,23,24,25,22,23,
44,45,42,43,44,45,42,43,44,45,42,43,44,45,42,43
</chunk>
   <chunk x="128" y="160" width="16" height="16">
64,65,62,63,64,65,62,63,64,65,62,63,64,65,62,63,
84,85,82,83,84,85,82,83,84,85,82,83,84,85,82,83,
24,25,22,23,24,25,22,23,24,25,22,23,24,25,22,23,
44,45,42,43,44,45,42,43,44,45,42,43,44,45,42,43,
64,65,62,63,64,65,62,63,64,65,62,63,64,65,62,63,
84,85,82,83,84,85,82,83,84,85,82,83,84,85,82,83,
24,25,22,23,24,25,22,23,24,25,22,23,24,25,22,23,
44,45,42,43,44,45,42,43,44,45,42,43,44,45,42,43,
64,65,62,63,64,65,62,63,64,65,62,63,64,65,62,63,
84,85,82,83,84,85,82,83,84,85,82,83,84,85,82,83,
24,25,22,23,24,25,22,23,24,25,22,23,24,25,22,23,
44,45,42,43,44,45,42,43,44,45,42,43,44,45,42,43,
64,65,62,63,64,65,62,63,64,65,62,63,64,65,62,63,
84,85,82,83,84,85,82,83,84,85,82,83,84,85,82,83,
24,25,22,23,24,25,22,23,24,25,22,23,24,25,22,23,
44,45,42,43,44,45,42,43,44,45,42,43,44,45,42,43
</chunk>
   <chunk x="0" y="176" width="16" height="16">
0,0,0,0,0,0,0,0,0,0,0,0,0,0,127,128,
0,0,0,0,0,0,0,0,0,0,0,0,0,0,147,148,
0,0,0,0,0,0,0,0,0,0,0,0,0,0,0,0,
0,0,0,0,0,0,0,0,121,122,123,124,125,126,0,0,
0,0,0,0,0,0,0,0,141,142,143,144,145,146,0,0,
0,0,0,0,0,0,0,0,0,0,0,0,0,0,0,0,
0,0,0,0,0,0,0,0,0,0,0,0,0,0,0,0,
0,0,0,0,0,0,0,0,0,0,0,0,0,0,0,0,
0,0,0,0,0,0,0,0,0,0,0,0,0,0,0,0,
0,0,0,0,0,0,0,0,0,0,0,0,0,0,0,0,
0,0,0,0,0,0,0,0,0,0,0,0,0,0,0,0,
0,0,0,0,0,0,0,0,0,0,0,0,0,0,0,0,
0,0,0,0,0,0,0,0,0,0,0,0,0,0,0,0,
0,0,0,0,0,0,0,0,0,0,0,0,0,0,0,0,
0,0,0,0,0,0,0,0,0,0,0,0,0,0,0,0,
0,0,0,0,0,0,0,0,0,0,0,0,0,0,0,0
</chunk>
   <chunk x="16" y="176" width="16" height="16">
0,0,0,0,0,1,2,3,4,42,43,44,45,65,42,42,
0,0,0,0,0,21,22,23,24,62,63,42,43,42,62,62,
0,0,0,0,0,41,42,43,44,82,83,22,23,24,25,22,
0,1,2,3,4,42,43,44,42,42,43,42,43,44,45,42,
0,21,22,23,24,62,63,64,62,42,42,62,63,64,65,62,
0,41,42,43,44,82,83,84,82,62,62,82,83,84,85,82,
0,0,0,0,0,0,0,0,0,0,0,0,0,0,0,0,
0,0,0,0,0,0,0,0,0,0,0,0,0,0,0,0,
0,0,0,0,0,0,0,0,0,0,0,0,0,0,0,0,
0,0,0,0,0,0,0,0,0,0,0,0,0,0,0,0,
0,0,0,0,0,0,0,0,0,0,0,0,0,0,0,0,
0,0,0,0,0,0,0,0,0,0,0,0,0,0,0,0,
0,0,0,0,0,0,0,0,0,0,0,0,0,0,0,0,
0,0,0,0,0,0,0,0,0,0,0,0,0,0,0,0,
0,0,0,0,0,0,0,0,0,0,0,0,0,0,0,0,
0,0,0,0,0,0,0,0,0,0,0,0,0,0,0,0
</chunk>
   <chunk x="32" y="176" width="16" height="16">
82,83,84,85,83,84,85,82,83,84,85,82,83,84,85,43,
62,62,82,83,84,85,64,65,65,65,65,65,85,85,85,63,
23,24,25,84,22,23,24,25,85,85,85,85,65,65,82,83,
43,44,45,83,42,43,44,45,22,23,24,25,85,22,22,22,
63,64,65,84,62,63,64,65,42,22,23,24,25,42,42,22,
83,84,85,22,82,83,84,85,62,42,43,44,45,62,62,42,
0,0,0,0,0,0,0,0,0,0,0,0,0,0,0,0,
0,0,0,0,0,0,0,0,0,0,0,0,0,0,0,0,
0,0,0,0,0,0,0,0,0,0,0,0,0,0,0,0,
0,0,0,0,0,0,0,0,0,0,0,0,0,0,0,0,
0,0,0,0,0,0,0,0,0,0,0,0,0,0,0,0,
0,0,0,0,0,0,0,0,0,0,0,0,0,0,0,0,
0,0,0,0,0,0,0,0,0,0,0,0,0,0,0,0,
0,0,0,0,0,0,0,0,0,0,0,0,0,0,0,0,
0,0,0,0,0,0,0,0,0,0,0,0,0,0,0,0,
0,0,0,0,0,0,0,0,0,0,0,0,0,0,0,0
</chunk>
   <chunk x="48" y="176" width="16" height="16">
82,83,84,85,82,83,84,85,64,65,62,63,64,65,22,23,
64,65,65,65,83,84,85,22,23,24,25,22,23,24,22,22,
84,85,85,85,43,44,45,42,22,23,24,22,22,23,42,42,
23,24,25,62,63,64,65,62,42,43,44,42,42,43,62,62,
23,22,22,23,24,25,85,82,62,63,64,62,62,63,82,82,
43,42,42,43,44,45,85,62,82,83,84,82,82,83,84,85,
0,0,0,0,0,0,0,0,0,0,0,0,0,0,0,0,
0,0,0,0,0,0,0,0,0,0,0,0,0,0,0,0,
0,0,0,0,0,0,0,0,0,0,0,0,0,0,0,0,
0,0,0,0,0,0,0,0,0,0,0,0,0,0,0,0,
0,0,0,0,0,0,0,0,0,0,0,0,0,0,0,0,
0,0,0,0,0,0,0,0,0,0,0,0,0,0,0,0,
0,0,0,0,0,0,0,0,0,0,0,0,0,0,0,0,
0,0,0,0,0,0,0,0,0,0,0,0,0,0,0,0,
0,0,0,0,0,0,0,0,0,0,0,0,0,0,0,0,
0,0,0,0,0,0,0,0,0,0,0,0,0,0,0,0
</chunk>
   <chunk x="64" y="176" width="16" height="16">
24,25,84,85,82,83,84,85,83,84,85,82,83,84,22,23,
22,23,24,25,25,24,25,25,22,23,24,25,25,25,25,25,
42,43,44,22,23,24,25,22,22,23,24,25,45,22,23,24,
62,63,64,42,43,44,45,42,42,43,44,45,65,42,43,44,
82,83,84,62,63,64,65,62,62,63,64,65,85,62,63,64,
64,82,83,82,83,84,85,82,82,83,84,85,85,82,83,84,
0,0,0,0,0,0,0,0,0,0,0,0,0,0,0,0,
0,0,0,0,0,0,0,0,0,0,0,0,0,0,0,0,
0,0,0,0,0,0,0,0,0,0,0,0,0,0,0,0,
0,0,0,0,0,0,0,0,0,0,0,0,0,0,0,0,
0,0,0,0,0,0,0,0,0,0,0,0,0,0,0,0,
0,0,0,0,0,0,0,0,0,0,0,0,0,0,0,0,
0,0,0,0,0,0,0,0,0,0,0,0,0,0,0,0,
0,0,0,0,0,0,0,0,0,0,0,0,0,0,0,0,
0,0,0,0,0,0,0,0,0,0,0,0,0,0,0,0,
0,0,0,0,0,0,0,0,0,0,0,0,0,0,0,0
</chunk>
   <chunk x="80" y="176" width="16" height="16">
62,63,64,65,82,22,42,43,44,45,45,62,63,64,65,65,
82,83,22,23,24,25,62,63,64,65,65,82,83,84,85,85,
25,65,22,23,24,25,82,83,84,85,85,85,85,25,22,23,
45,85,42,43,44,45,65,65,85,85,85,85,44,45,42,43,
65,84,62,63,64,65,85,85,64,65,62,63,64,65,62,63,
85,84,82,83,84,85,82,83,84,85,82,83,84,85,82,83,
0,0,0,0,0,0,0,0,0,0,0,0,0,0,0,0,
0,0,0,0,0,0,0,0,0,0,0,0,0,0,0,0,
0,0,0,0,0,0,0,0,0,0,0,0,0,0,0,0,
0,0,0,0,0,0,0,0,0,0,0,0,0,0,0,0,
0,0,0,0,0,0,0,0,0,0,0,0,0,0,0,0,
0,0,0,0,0,0,0,0,0,0,0,0,0,0,0,0,
0,0,0,0,0,0,0,0,0,0,0,0,0,0,0,0,
0,0,0,0,0,0,0,0,0,0,0,0,0,0,0,0,
0,0,0,0,0,0,0,0,0,0,0,0,0,0,0,0,
0,0,0,0,0,0,0,0,0,0,0,0,0,0,0,0
</chunk>
   <chunk x="96" y="176" width="16" height="16">
64,65,62,63,64,65,62,63,64,65,62,63,64,65,62,63,
84,85,82,83,84,85,82,83,84,85,82,83,84,85,82,83,
24,25,22,23,24,25,22,23,24,25,22,23,24,25,22,23,
44,45,42,43,44,45,42,43,44,45,42,43,44,45,42,43,
64,65,62,63,64,65,62,63,64,65,62,63,64,65,62,63,
84,85,82,83,84,85,82,83,84,85,82,83,84,85,82,83,
0,0,0,0,0,0,0,0,0,0,0,0,0,0,0,0,
0,0,0,0,0,0,0,0,0,0,0,0,0,0,0,0,
0,0,0,0,0,0,0,0,0,0,0,0,0,0,0,0,
0,0,0,0,0,0,0,0,0,0,0,0,0,0,0,0,
0,0,0,0,0,0,0,0,0,0,0,0,0,0,0,0,
0,0,0,0,0,0,0,0,0,0,0,0,0,0,0,0,
0,0,0,0,0,0,0,0,0,0,0,0,0,0,0,0,
0,0,0,0,0,0,0,0,0,0,0,0,0,0,0,0,
0,0,0,0,0,0,0,0,0,0,0,0,0,0,0,0,
0,0,0,0,0,0,0,0,0,0,0,0,0,0,0,0
</chunk>
   <chunk x="112" y="176" width="16" height="16">
64,65,62,63,64,65,62,63,64,65,62,63,64,65,62,63,
84,85,82,83,84,85,82,83,84,85,82,83,84,85,82,83,
24,25,22,23,24,25,22,23,24,25,22,23,24,25,22,23,
44,45,42,43,44,45,42,43,44,45,42,43,44,45,42,43,
64,65,62,63,64,65,62,63,64,65,62,63,64,65,62,63,
84,85,82,83,84,85,82,83,84,85,82,83,84,85,82,83,
0,0,0,0,0,0,0,0,0,0,0,0,0,0,0,0,
0,0,0,0,0,0,0,0,0,0,0,0,0,0,0,0,
0,0,0,0,0,0,0,0,0,0,0,0,0,0,0,0,
0,0,0,0,0,0,0,0,0,0,0,0,0,0,0,0,
0,0,0,0,0,0,0,0,0,0,0,0,0,0,0,0,
0,0,0,0,0,0,0,0,0,0,0,0,0,0,0,0,
0,0,0,0,0,0,0,0,0,0,0,0,0,0,0,0,
0,0,0,0,0,0,0,0,0,0,0,0,0,0,0,0,
0,0,0,0,0,0,0,0,0,0,0,0,0,0,0,0,
0,0,0,0,0,0,0,0,0,0,0,0,0,0,0,0
</chunk>
   <chunk x="128" y="176" width="16" height="16">
64,65,62,63,64,65,62,63,64,65,62,63,64,65,62,63,
84,85,82,83,84,85,82,83,84,85,82,83,84,85,82,83,
24,25,22,23,24,25,22,23,24,25,22,23,24,25,22,23,
44,45,42,43,44,45,42,43,44,45,42,43,44,45,42,43,
64,65,62,63,64,65,62,63,64,65,62,63,64,65,62,63,
84,85,82,83,84,85,82,83,84,85,82,83,84,85,82,83,
0,0,0,0,0,0,0,0,0,0,0,0,0,0,0,0,
0,0,0,0,0,0,0,0,0,0,0,0,0,0,0,0,
0,0,0,0,0,0,0,0,0,0,0,0,0,0,0,0,
0,0,0,0,0,0,0,0,0,0,0,0,0,0,0,0,
0,0,0,0,0,0,0,0,0,0,0,0,0,0,0,0,
0,0,0,0,0,0,0,0,0,0,0,0,0,0,0,0,
0,0,0,0,0,0,0,0,0,0,0,0,0,0,0,0,
0,0,0,0,0,0,0,0,0,0,0,0,0,0,0,0,
0,0,0,0,0,0,0,0,0,0,0,0,0,0,0,0,
0,0,0,0,0,0,0,0,0,0,0,0,0,0,0,0
</chunk>
  </data>
 </layer>
 <layer id="5" name="trawa-elementy" width="144" height="208">
  <data encoding="csv">
   <chunk x="0" y="0" width="16" height="16">
0,0,0,0,0,0,0,0,0,0,0,0,0,0,0,0,
0,0,0,0,0,0,0,0,0,0,0,0,0,0,0,0,
0,0,0,0,0,0,0,0,0,0,0,0,39,40,0,39,
0,0,0,0,0,0,39,40,0,0,0,0,39,40,0,0,
0,0,39,40,0,0,0,0,39,40,0,0,0,0,0,0,
0,0,39,40,39,40,0,0,39,40,40,0,0,0,0,39,
0,39,39,40,39,40,0,0,0,0,0,39,40,0,0,0,
0,0,39,40,39,40,0,0,0,0,0,39,40,40,40,0,
0,0,0,0,39,40,0,0,0,0,0,0,0,0,0,39,
39,40,0,0,0,0,0,0,0,0,0,0,0,0,0,0,
39,40,0,0,39,40,0,0,0,0,0,0,39,40,0,0,
0,0,0,0,39,40,0,0,0,39,40,39,40,39,39,40,
0,0,0,39,40,0,0,0,0,39,40,0,39,40,40,40,
0,0,39,40,0,0,0,0,0,39,40,0,0,0,0,0,
0,39,40,40,0,0,0,0,0,0,0,0,0,0,0,0,
39,40,40,0,0,0,0,0,0,0,39,40,0,0,0,0
</chunk>
   <chunk x="16" y="0" width="16" height="16">
0,0,0,0,0,0,0,0,0,0,0,0,0,0,0,0,
39,40,40,0,0,0,0,0,0,0,0,0,0,0,0,0,
40,39,40,40,0,39,40,0,0,0,0,0,0,0,0,0,
0,0,0,0,0,0,0,0,0,0,0,0,0,0,0,0,
0,0,0,0,0,0,0,0,0,0,0,39,40,0,0,0,
39,39,39,40,40,40,0,0,0,0,0,0,0,39,40,40,
0,0,0,0,0,0,0,0,0,0,0,39,40,40,0,0,
0,0,0,0,0,0,0,0,0,0,0,39,40,0,0,0,
40,40,0,0,0,0,0,0,0,0,39,40,0,0,0,0,
0,39,40,40,40,0,0,0,39,40,40,0,0,0,0,0,
0,0,0,0,39,40,40,40,40,0,0,0,0,0,0,0,
0,0,0,0,0,0,0,0,0,0,0,0,0,0,0,0,
40,0,0,0,0,0,0,0,0,0,0,0,0,0,0,0,
0,0,0,0,0,0,0,0,0,0,0,39,40,0,0,0,
0,0,0,0,39,40,0,0,0,0,0,39,40,0,0,0,
0,39,39,39,40,0,0,0,0,0,39,40,0,0,0,0
</chunk>
   <chunk x="32" y="0" width="16" height="16">
39,40,40,40,0,0,0,0,0,0,0,0,0,0,0,0,
0,0,0,0,39,40,0,0,0,0,0,0,0,0,0,0,
0,0,0,0,39,40,0,0,0,0,0,0,0,0,0,0,
39,40,0,0,0,0,0,0,0,0,0,0,0,0,0,39,
0,0,0,0,0,0,0,0,0,39,40,40,0,0,0,0,
40,40,0,0,39,40,40,39,40,39,40,0,0,0,0,0,
0,0,0,0,0,0,0,39,40,40,0,0,0,0,0,0,
39,40,0,0,0,0,0,0,0,0,0,0,0,39,40,0,
0,0,0,0,0,0,0,0,39,39,40,0,0,39,40,0,
0,0,0,0,0,0,0,0,0,0,0,0,0,0,0,0,
0,0,0,0,0,0,0,0,0,0,0,0,0,0,0,0,
0,0,0,0,0,0,0,0,0,0,0,0,0,0,0,0,
0,0,0,0,0,0,0,0,0,0,0,0,0,0,0,0,
0,0,0,0,0,0,0,0,0,0,0,0,0,0,0,0,
0,0,0,0,0,0,0,0,0,0,0,0,0,0,0,0,
0,39,39,40,0,0,0,0,0,0,0,0,0,0,0,0
</chunk>
   <chunk x="48" y="0" width="16" height="16">
0,0,0,0,0,0,0,0,0,0,0,0,0,0,0,0,
0,0,0,0,0,0,0,0,0,0,0,0,0,0,0,0,
0,0,0,0,0,0,0,0,0,0,0,0,0,0,0,0,
40,0,0,0,0,0,0,0,0,0,0,0,0,0,0,0,
0,0,0,0,0,0,0,0,0,0,0,0,0,0,0,0,
0,0,0,0,0,0,0,0,0,0,0,0,0,39,40,40,
0,0,0,0,0,0,0,39,40,0,0,0,0,0,0,0,
0,0,0,0,0,0,0,0,0,0,39,39,40,0,0,39,
0,0,0,0,0,0,0,0,0,0,0,0,0,0,0,39,
39,39,40,0,0,0,0,0,0,0,0,0,0,0,39,39,
0,39,39,39,39,39,39,40,0,0,0,0,0,0,0,0,
0,0,0,0,0,0,39,39,39,40,0,0,0,0,0,0,
0,0,0,0,0,0,0,0,0,0,0,0,0,0,0,0,
0,0,0,0,0,0,0,0,0,0,0,0,0,0,0,0,
0,0,0,0,0,0,0,0,0,0,0,0,0,0,0,0,
0,0,0,0,0,0,0,0,0,0,0,0,0,0,39,40
</chunk>
   <chunk x="64" y="0" width="16" height="16">
0,0,0,0,0,0,0,0,0,0,0,0,0,0,0,0,
0,0,0,0,0,0,0,0,0,0,0,0,0,0,0,0,
0,0,0,0,0,0,0,0,0,0,39,40,40,40,0,0,
0,0,0,0,0,0,0,0,0,0,0,0,0,0,39,40,
0,0,39,40,0,0,0,0,0,0,0,0,39,40,0,0,
40,0,39,39,40,0,0,0,0,0,0,39,39,40,0,0,
0,0,0,39,40,0,0,0,0,0,39,39,40,40,40,40,
40,0,0,0,0,39,40,40,40,40,0,0,0,0,39,40,
40,40,39,40,40,40,0,0,0,0,0,0,0,0,0,39,
40,0,0,0,0,0,0,0,0,0,0,0,0,0,0,0,
0,0,0,0,0,0,0,39,39,40,0,0,0,0,0,0,
0,0,0,0,0,0,0,0,39,39,40,0,0,0,0,0,
0,0,0,0,0,0,0,39,40,40,40,0,0,0,0,0,
0,0,0,0,0,0,0,39,40,0,0,0,0,0,0,0,
0,0,0,0,39,40,40,0,0,0,0,0,0,0,0,0,
0,0,0,39,39,39,39,40,39,39,39,39,39,40,39,39
</chunk>
   <chunk x="80" y="0" width="16" height="16">
0,0,0,0,0,0,0,0,0,0,0,0,0,0,0,0,
0,0,39,39,39,39,39,40,39,40,0,39,40,0,0,0,
0,0,0,0,0,0,0,0,39,40,0,0,39,39,39,40,
0,0,0,0,39,40,40,40,0,0,0,0,0,0,0,39,
0,0,39,40,40,40,0,39,40,0,0,0,39,40,0,0,
0,0,0,39,40,0,39,40,0,0,0,0,0,0,0,0,
0,0,0,0,0,0,0,0,0,0,0,0,0,0,0,0,
40,40,0,0,0,0,0,0,0,0,0,0,0,39,40,0,
40,0,0,0,0,0,0,0,0,0,0,0,0,0,39,40,
0,0,0,0,0,0,0,0,0,0,0,0,0,0,0,0,
0,0,0,0,39,40,0,0,0,0,0,0,0,0,0,0,
0,0,0,39,40,40,0,0,0,0,0,0,0,0,0,0,
0,0,0,0,0,0,39,39,39,40,0,0,0,0,0,0,
0,0,0,0,0,0,0,0,0,0,0,0,0,0,0,0,
0,0,0,0,0,0,0,0,0,0,0,0,0,0,0,0,
39,40,0,0,0,0,0,0,0,0,0,0,0,0,0,0
</chunk>
   <chunk x="96" y="0" width="16" height="16">
0,0,0,0,0,0,0,0,0,0,0,0,0,0,0,0,
0,0,0,0,0,0,39,40,0,0,0,0,0,0,0,0,
0,0,0,0,0,0,0,0,0,0,0,0,0,0,0,0,
40,40,40,0,0,0,0,0,0,0,0,0,0,0,0,0,
0,0,0,0,0,0,0,0,0,39,40,40,0,0,0,0,
0,0,0,0,0,0,0,39,40,0,0,0,0,0,0,0,
0,0,0,0,0,0,0,39,40,0,0,0,0,0,0,0,
0,0,0,0,0,0,0,0,0,0,0,0,0,0,0,0,
0,0,0,0,0,0,0,0,0,0,0,0,0,0,0,0,
0,0,0,0,0,0,0,0,0,0,0,0,0,0,0,0,
0,0,0,0,0,0,0,0,0,0,0,0,0,0,0,0,
0,0,0,0,0,0,0,0,0,0,0,0,0,0,0,0,
0,0,0,0,0,0,0,0,0,0,0,0,0,0,0,0,
0,0,0,0,0,0,0,0,0,0,0,0,0,0,0,0,
0,0,0,0,0,0,0,0,0,0,0,0,0,0,0,0,
0,0,0,0,0,0,0,0,0,0,0,0,0,0,0,0
</chunk>
   <chunk x="112" y="0" width="16" height="16">
0,0,0,0,0,0,0,0,0,0,0,0,0,0,0,0,
0,0,0,0,0,0,0,0,0,0,0,0,0,0,0,0,
0,0,0,0,0,0,0,0,0,0,0,0,0,0,39,40,
0,0,0,0,0,0,0,0,0,0,0,0,0,39,40,40,
39,40,0,0,0,39,40,39,39,39,40,0,0,0,0,0,
0,0,0,0,0,39,40,0,0,0,39,39,39,39,39,39,
39,40,0,0,0,0,0,0,0,0,0,0,39,40,0,0,
39,40,40,0,0,0,0,0,0,0,0,0,0,0,0,0,
0,0,0,0,0,0,0,0,0,39,40,40,40,0,0,0,
0,0,0,0,0,0,0,0,0,0,0,0,0,39,40,40,
0,0,0,0,0,0,0,0,0,0,0,0,0,0,0,0,
0,0,0,0,0,0,0,0,0,0,0,0,0,0,0,0,
0,0,0,0,0,0,0,0,0,0,0,0,0,0,0,0,
0,0,0,0,0,0,0,0,0,0,0,0,0,0,0,0,
0,0,0,0,0,0,0,0,0,0,0,0,0,0,0,0,
0,0,0,0,0,0,0,0,0,0,0,0,0,0,0,0
</chunk>
   <chunk x="128" y="0" width="16" height="16">
0,0,0,0,0,0,0,0,0,0,0,0,0,0,0,0,
0,0,0,0,0,0,0,0,0,0,0,0,39,39,40,0,
0,0,0,0,0,0,0,0,0,0,0,0,0,0,0,0,
0,0,0,0,0,0,0,0,0,0,0,0,0,0,0,0,
0,0,0,0,0,0,0,0,0,0,0,0,0,39,40,0,
40,0,0,0,0,0,0,0,0,0,0,0,39,40,0,0,
0,0,0,39,39,40,0,0,0,0,0,0,0,0,0,0,
0,0,0,0,39,39,40,0,0,0,0,0,0,0,0,0,
0,0,0,0,0,0,0,0,0,0,0,0,0,0,0,0,
0,0,0,0,0,0,0,0,0,0,0,0,0,0,0,0,
0,0,0,0,0,0,0,0,0,0,0,0,0,0,0,0,
0,0,0,0,0,0,0,0,0,0,0,0,0,0,0,0,
0,0,0,0,0,0,0,0,0,0,0,0,0,0,0,0,
0,0,0,0,0,0,0,0,0,0,0,0,0,0,0,0,
0,39,39,40,0,0,0,0,0,39,39,40,0,0,0,0,
0,0,0,0,0,0,0,0,0,0,39,40,0,0,0,0
</chunk>
   <chunk x="0" y="16" width="16" height="16">
0,0,0,0,39,39,40,0,39,40,40,40,0,0,0,0,
0,0,0,0,0,39,40,0,0,0,0,0,0,0,0,0,
0,0,0,0,0,0,0,0,0,0,0,0,0,0,0,0,
0,0,0,0,0,0,0,0,0,0,0,0,39,39,39,40,
0,0,0,0,0,0,39,39,39,39,39,40,0,0,0,0,
0,0,0,0,0,39,40,0,0,0,0,0,0,0,0,0,
0,0,0,0,0,0,0,0,0,0,0,39,40,40,0,0,
0,0,0,39,40,0,0,0,0,39,40,40,0,0,0,0,
0,0,39,40,39,40,40,40,0,0,0,0,0,0,0,0,
0,39,39,40,0,0,0,0,0,0,0,0,0,0,0,0,
0,0,0,0,0,0,0,0,0,0,0,0,0,0,0,0,
0,0,0,0,0,0,0,0,0,0,0,0,0,0,0,0,
0,0,0,0,0,0,0,0,0,0,0,0,0,0,0,0,
0,0,0,0,0,0,0,0,0,0,0,0,0,0,0,0,
0,0,0,0,0,0,0,0,0,0,39,40,0,0,0,0,
0,0,0,0,0,0,0,0,0,0,0,0,0,0,0,0
</chunk>
   <chunk x="16" y="16" width="16" height="16">
0,0,0,0,0,0,0,0,39,40,40,40,39,39,39,39,
0,0,0,0,0,0,39,40,40,40,0,0,0,0,0,0,
0,0,0,0,0,0,0,0,0,0,0,0,0,0,0,0,
0,0,39,40,0,0,0,0,0,0,0,0,0,0,0,0,
0,0,0,0,0,0,0,0,0,0,0,0,0,0,0,0,
0,0,0,0,0,0,0,0,0,0,0,0,0,0,0,0,
0,0,0,0,0,0,0,0,0,0,0,0,0,0,0,0,
0,0,0,0,0,0,0,0,0,0,0,0,0,0,0,0,
0,0,0,0,0,0,0,0,0,0,0,0,0,0,0,0,
0,0,0,0,0,0,0,0,0,0,0,0,0,0,0,0,
0,0,0,0,0,0,0,0,0,0,0,0,0,0,0,0,
0,0,0,0,0,0,0,0,0,0,0,0,0,0,0,0,
0,0,0,0,0,0,0,0,0,0,0,0,0,0,0,0,
0,0,0,0,0,0,0,0,0,0,0,0,0,0,0,0,
0,0,0,0,0,0,0,0,0,0,0,0,0,0,39,40,
0,0,0,0,0,0,0,0,0,0,0,0,0,0,0,0
</chunk>
   <chunk x="32" y="16" width="16" height="16">
40,0,0,0,0,0,0,0,0,0,0,0,0,0,0,0,
0,0,0,0,0,0,0,0,0,0,0,0,0,0,0,0,
0,0,0,0,0,0,0,0,0,0,0,0,0,0,0,0,
0,0,0,0,0,0,0,0,0,0,0,0,0,0,0,0,
0,0,0,0,0,0,0,0,0,0,0,0,0,0,0,0,
0,0,0,0,0,0,0,0,0,0,0,0,0,0,0,0,
0,0,0,0,0,0,0,0,0,0,0,0,0,0,0,0,
0,0,0,0,0,0,0,0,0,0,0,0,0,0,0,0,
0,0,0,0,0,0,0,0,0,0,0,0,0,0,0,0,
0,0,0,0,0,0,0,0,0,0,0,0,0,0,0,0,
0,0,0,0,0,0,0,0,0,0,0,0,0,0,0,0,
0,0,0,0,0,0,0,0,0,39,40,0,0,0,0,0,
0,0,0,0,0,0,0,0,0,0,0,0,0,0,0,0,
0,0,0,0,0,0,0,0,0,0,0,0,0,0,0,0,
40,0,0,0,0,0,0,0,0,0,0,0,0,0,39,40,
0,0,0,0,0,0,0,0,0,0,0,0,0,0,39,40
</chunk>
   <chunk x="48" y="16" width="16" height="16">
0,0,0,0,0,0,0,0,0,0,0,0,0,0,0,0,
0,0,0,0,0,0,0,0,0,0,39,40,0,0,0,0,
0,0,0,0,0,0,0,0,0,0,0,0,39,40,40,0,
0,0,0,0,0,0,0,0,0,0,0,0,0,0,0,0,
0,0,0,0,0,0,0,0,0,0,0,0,0,0,39,39,
0,0,0,0,0,0,0,0,0,0,0,0,39,39,39,40,
0,0,0,0,0,0,0,0,0,0,0,0,0,0,0,0,
0,0,0,0,0,0,0,0,0,0,0,0,0,0,0,0,
0,0,0,0,0,0,0,0,0,0,0,0,0,0,0,0,
0,0,0,0,0,0,0,0,0,0,0,0,0,0,0,0,
0,0,0,0,0,0,0,0,0,0,0,0,0,0,0,0,
0,0,0,0,0,0,0,0,0,0,0,0,0,0,0,0,
0,0,0,0,0,0,0,0,0,0,0,0,0,0,0,0,
0,0,0,0,0,0,0,0,0,0,0,0,0,0,0,0,
0,0,0,0,0,0,0,0,0,0,0,0,0,0,0,0,
0,0,0,0,0,0,0,0,0,0,0,0,0,0,0,0
</chunk>
   <chunk x="64" y="16" width="16" height="16">
0,0,0,0,0,0,0,0,0,0,0,0,39,40,40,40,
0,0,0,0,0,0,0,0,0,39,40,39,40,40,39,39,
0,0,0,0,0,0,0,0,39,39,40,39,39,39,39,40,
39,39,40,0,0,0,0,0,0,0,0,0,0,0,39,40,
39,40,0,0,0,0,0,0,0,0,0,39,40,40,39,40,
0,0,0,0,0,0,0,0,0,39,40,0,0,0,0,0,
0,0,39,40,40,0,0,0,39,40,40,0,0,0,0,0,
0,0,0,0,0,0,0,0,0,0,0,0,0,0,0,39,
0,0,0,0,0,0,0,39,40,0,0,0,0,39,39,40,
0,0,0,0,0,0,0,0,0,0,0,0,0,0,39,40,
0,0,0,0,0,0,0,0,0,0,0,0,0,39,40,40,
0,0,0,0,0,0,0,0,0,0,0,0,0,0,0,0,
0,0,0,0,0,0,0,0,0,0,39,40,0,0,0,0,
0,0,0,0,0,0,0,0,0,0,0,0,0,0,0,0,
0,0,0,0,0,0,0,0,0,0,0,0,0,0,0,0,
0,0,0,0,0,0,0,0,0,0,0,0,0,0,0,0
</chunk>
   <chunk x="80" y="16" width="16" height="16">
40,40,0,0,0,0,0,0,0,0,0,0,0,0,0,0,
39,40,0,0,0,0,0,0,0,0,0,0,0,0,0,0,
0,0,0,0,0,0,0,0,0,0,0,0,0,0,0,0,
0,39,40,40,40,0,0,0,0,0,0,0,0,0,0,0,
0,0,0,0,0,0,0,0,0,0,0,0,0,0,0,0,
0,0,0,0,0,0,0,0,0,0,0,0,0,0,0,0,
0,0,0,0,0,0,0,0,0,0,0,0,0,0,0,0,
40,0,0,0,0,0,0,0,0,0,0,0,0,0,0,0,
0,0,0,0,0,0,0,0,0,0,0,0,0,0,0,0,
0,0,0,0,0,0,0,0,0,0,0,0,0,0,0,0,
0,0,0,0,0,0,0,0,0,0,0,0,0,0,0,0,
0,0,39,40,0,0,0,0,0,0,0,0,0,0,0,0,
0,0,0,0,0,0,0,0,0,0,0,0,0,0,0,0,
0,0,0,0,0,0,0,0,0,0,0,0,0,0,0,0,
0,0,0,0,0,0,0,0,0,0,0,0,0,0,0,0,
0,0,0,0,0,0,0,0,0,0,0,0,0,0,0,0
</chunk>
   <chunk x="96" y="16" width="16" height="16">
0,0,0,0,0,0,0,0,0,0,0,0,0,0,0,0,
0,0,0,0,0,0,0,0,0,0,0,0,0,0,0,0,
0,0,0,0,0,0,0,0,0,0,0,0,0,0,0,0,
0,0,0,0,0,0,0,0,0,0,0,0,0,0,0,0,
0,0,0,0,0,0,0,0,0,0,0,0,0,0,0,0,
0,0,0,0,0,0,0,0,0,0,0,0,0,0,0,0,
0,0,0,0,0,0,0,0,0,0,0,0,0,0,0,0,
0,0,0,0,0,0,0,0,0,0,0,0,0,0,0,0,
0,0,0,0,0,0,0,0,0,0,0,0,0,0,0,0,
0,0,0,0,0,0,0,0,0,0,0,0,0,0,0,0,
0,0,0,0,0,0,0,0,0,0,0,0,0,0,0,0,
0,0,0,0,0,0,0,0,0,0,0,0,0,0,0,0,
0,0,0,0,0,0,0,0,0,0,0,0,0,0,0,0,
0,0,0,0,0,0,0,0,0,0,0,0,0,0,0,0,
0,0,0,0,0,0,0,0,0,0,39,40,0,0,0,0,
0,0,0,0,0,0,0,0,0,0,0,0,0,0,0,0
</chunk>
   <chunk x="112" y="16" width="16" height="16">
0,0,0,0,0,0,0,0,0,0,0,0,0,0,0,0,
0,0,0,0,0,0,0,0,0,0,0,0,0,0,0,39,
0,0,0,0,0,0,0,0,0,0,0,0,0,0,39,40,
0,0,0,0,0,0,0,0,0,0,0,0,0,0,0,0,
0,0,0,0,0,0,0,0,0,0,0,0,0,0,0,0,
0,0,0,0,0,0,0,0,0,0,0,0,0,0,0,0,
0,0,0,0,0,0,0,0,0,0,0,0,0,0,0,0,
0,0,0,0,0,0,0,0,0,0,0,0,0,0,0,0,
0,0,0,0,0,0,0,0,0,0,0,0,0,0,0,0,
0,0,0,0,0,0,0,0,0,0,0,0,0,0,0,0,
0,0,0,0,0,0,0,0,0,0,0,0,0,0,0,0,
0,0,0,0,0,0,0,0,0,0,0,0,0,0,0,0,
0,0,0,0,0,0,0,0,0,0,0,0,0,0,0,0,
0,0,0,0,0,0,0,0,0,0,0,0,0,0,0,0,
0,0,0,0,0,0,0,0,0,0,0,0,0,0,0,0,
0,0,0,0,0,0,0,0,0,0,0,0,0,0,0,0
</chunk>
   <chunk x="128" y="16" width="16" height="16">
0,39,40,0,0,0,0,0,0,0,0,0,39,39,40,0,
40,40,0,0,0,0,0,0,0,0,0,0,0,0,0,0,
40,0,0,0,0,0,0,0,0,0,0,0,0,0,0,0,
0,0,0,0,0,0,0,0,0,0,0,0,0,0,0,0,
0,0,0,0,0,0,0,0,0,0,0,0,0,0,0,0,
0,0,0,0,0,0,0,0,0,0,0,0,0,0,0,0,
0,0,0,0,0,0,0,0,0,0,0,0,0,0,0,0,
0,0,0,0,0,0,0,0,0,0,0,0,0,0,0,0,
0,0,0,0,0,0,0,0,0,0,0,0,0,0,0,0,
0,0,0,0,0,0,0,0,0,0,0,0,0,0,0,0,
0,0,0,0,0,0,0,0,0,0,0,0,0,0,0,0,
0,0,0,0,0,0,0,0,0,0,0,0,0,0,0,0,
0,0,0,0,0,0,0,0,0,0,0,0,0,0,0,0,
0,0,0,0,0,0,0,0,0,0,0,0,0,0,0,0,
0,0,0,0,0,0,0,0,0,0,0,0,0,0,0,0,
0,0,0,0,0,0,0,0,0,0,0,0,0,0,0,0
</chunk>
   <chunk x="0" y="32" width="16" height="16">
0,0,0,0,39,39,40,0,0,39,39,40,0,39,40,0,
0,0,0,0,39,40,0,0,0,39,39,40,0,0,0,0,
0,0,0,0,0,0,0,0,0,0,0,0,0,39,40,0,
0,0,0,0,0,0,0,0,0,0,0,0,0,0,0,0,
0,0,0,0,0,0,0,0,0,0,0,0,0,0,0,0,
0,0,0,0,0,0,0,0,0,0,0,0,0,0,0,0,
0,0,0,0,0,0,0,0,0,0,0,0,0,0,0,0,
0,0,0,0,0,0,0,0,0,0,0,0,0,0,0,0,
0,0,0,0,0,0,0,0,0,0,0,0,0,0,0,0,
0,0,0,0,0,0,0,0,0,0,0,0,0,0,0,0,
0,0,0,0,0,0,0,0,0,0,0,0,0,0,0,0,
0,0,0,0,0,0,0,0,0,0,0,0,0,0,0,0,
0,0,0,0,0,0,39,40,0,0,0,0,0,0,0,0,
0,0,0,0,0,39,40,0,0,0,0,0,0,0,0,0,
0,0,0,0,0,0,0,0,0,0,0,0,0,0,0,0,
0,0,0,39,39,40,0,0,0,0,0,0,0,0,0,0
</chunk>
   <chunk x="16" y="32" width="16" height="16">
0,0,0,0,0,0,0,0,0,0,0,0,0,0,0,0,
0,0,0,0,0,0,0,0,0,0,0,0,0,0,0,0,
0,39,40,40,40,0,0,0,0,0,0,0,0,0,0,0,
0,0,0,39,40,0,0,0,0,0,0,0,0,0,0,0,
0,0,0,0,0,0,0,0,0,0,0,0,0,0,0,0,
0,0,0,0,0,0,0,0,0,0,0,0,0,0,0,0,
0,0,0,0,0,0,0,0,0,0,0,0,0,0,0,0,
0,0,0,0,0,0,0,0,0,0,0,0,0,0,0,0,
0,0,0,0,0,0,0,0,0,0,0,0,0,0,0,0,
0,0,0,0,0,0,0,0,0,0,0,0,0,0,0,0,
0,0,0,0,0,0,0,0,0,0,0,0,0,0,0,0,
0,0,0,0,0,0,0,0,0,0,0,0,0,0,0,0,
0,0,0,0,0,0,0,0,0,0,0,0,0,0,0,0,
0,0,0,0,0,0,0,0,0,0,0,0,0,0,0,0,
0,0,0,0,0,0,0,0,0,0,0,0,0,0,0,0,
0,0,0,0,0,0,0,0,0,0,0,0,0,0,0,0
</chunk>
   <chunk x="32" y="32" width="16" height="16">
0,0,0,0,0,0,0,0,39,40,40,0,0,0,0,0,
0,0,0,0,39,40,40,40,40,40,0,0,0,0,0,0,
0,0,0,0,0,0,0,0,0,0,0,0,0,0,0,0,
39,40,0,0,0,0,0,0,0,0,0,0,0,0,0,0,
0,0,0,0,0,0,0,0,0,0,0,0,0,0,0,0,
0,0,0,0,0,0,0,0,0,0,0,0,0,0,0,0,
0,0,0,0,0,0,0,0,0,0,0,0,0,0,0,0,
0,0,0,0,0,0,0,0,0,0,0,0,0,0,0,0,
0,0,0,0,0,0,0,0,0,0,0,0,0,0,0,0,
0,0,0,0,0,0,0,0,0,0,0,0,0,0,0,0,
0,0,0,0,0,0,0,0,0,0,0,0,0,0,0,0,
0,0,0,0,0,0,0,0,0,0,0,0,0,0,0,0,
0,0,0,0,0,0,0,0,0,0,0,0,0,0,0,0,
0,0,0,0,0,0,0,0,0,0,0,0,0,0,0,0,
0,0,0,0,0,0,0,0,0,0,0,0,0,0,0,0,
0,0,0,0,0,0,0,0,0,0,0,0,0,0,0,0
</chunk>
   <chunk x="96" y="32" width="16" height="16">
0,0,0,0,0,0,39,40,0,0,0,0,0,0,0,0,
0,0,0,0,0,0,0,0,0,0,0,0,0,0,0,0,
0,0,0,0,0,0,0,0,0,0,0,0,0,0,39,40,
0,0,0,0,0,0,0,0,0,0,0,0,0,0,0,0,
0,0,0,0,0,0,0,0,0,0,0,0,0,0,0,0,
0,0,0,0,0,0,0,0,0,0,0,0,0,0,0,0,
0,0,0,0,0,0,0,0,0,0,0,0,0,0,0,0,
0,0,0,0,0,0,0,0,0,0,0,0,0,0,0,0,
0,0,0,0,0,0,0,0,0,0,0,0,0,0,0,0,
0,0,0,0,0,0,0,0,0,0,0,0,0,0,0,0,
0,0,0,0,0,0,0,0,0,0,0,0,0,0,0,0,
0,0,0,0,0,0,0,0,0,0,0,0,0,0,0,0,
0,0,0,0,0,0,0,0,0,0,0,0,0,0,0,0,
0,0,0,0,0,0,0,0,0,0,0,0,0,0,0,0,
0,0,0,0,0,0,0,0,0,0,0,0,0,0,0,0,
0,0,0,0,0,0,0,0,0,0,0,0,0,0,0,0
</chunk>
   <chunk x="112" y="32" width="16" height="16">
0,0,0,0,0,0,0,0,0,0,0,0,0,0,0,0,
0,0,0,0,0,0,0,0,0,0,0,0,0,0,0,0,
0,0,0,0,0,0,0,0,0,0,0,0,0,0,0,0,
0,0,0,0,0,0,0,0,0,0,0,0,0,0,0,0,
0,0,0,0,0,0,0,0,0,0,0,0,0,0,0,0,
0,0,0,0,0,0,0,0,0,0,0,0,0,0,0,0,
0,0,0,0,0,0,0,0,0,0,0,0,0,0,0,0,
0,0,0,0,0,0,0,0,0,0,0,0,0,0,0,0,
0,0,0,0,0,0,0,0,0,0,0,0,0,0,0,0,
0,0,0,0,0,0,0,0,0,0,0,0,0,0,0,0,
0,0,0,0,0,0,0,0,0,0,0,0,0,0,0,0,
0,0,0,0,0,0,0,0,0,0,0,0,0,0,0,0,
0,0,0,0,0,0,0,0,0,0,0,0,0,0,0,0,
0,0,0,0,0,0,0,0,0,0,0,0,0,0,0,39,
0,0,0,0,0,0,0,0,0,0,0,0,0,0,0,0,
0,0,0,0,0,0,39,40,0,0,0,0,0,0,0,0
</chunk>
   <chunk x="128" y="32" width="16" height="16">
0,0,0,0,0,0,0,0,0,0,0,0,0,0,0,0,
0,0,0,0,0,0,0,0,0,0,0,0,0,0,0,0,
0,0,0,0,0,0,0,0,0,0,0,0,0,0,0,0,
0,0,0,0,0,0,0,0,0,0,0,0,0,0,0,0,
0,0,0,0,0,0,0,0,0,0,0,0,0,0,0,0,
0,0,0,0,0,0,0,0,0,0,0,0,0,0,0,0,
0,0,0,0,0,0,0,0,0,0,0,0,0,0,0,0,
0,0,0,0,0,0,0,0,0,0,0,0,0,39,40,0,
0,0,0,0,0,0,0,0,39,39,40,0,0,0,0,0,
0,0,0,0,0,0,0,0,0,0,39,40,0,0,0,0,
0,0,39,40,0,0,0,0,0,0,0,0,0,0,0,0,
0,0,0,0,0,0,0,0,0,0,0,0,39,40,0,0,
0,0,0,0,0,0,0,0,0,0,0,0,0,0,0,0,
39,40,0,0,0,0,0,0,0,0,0,0,0,0,0,0,
0,0,0,0,0,0,0,0,0,0,0,0,0,0,0,0,
0,0,0,0,0,0,0,0,0,0,0,0,0,0,0,0
</chunk>
   <chunk x="0" y="48" width="16" height="16">
0,0,0,0,0,0,0,0,0,0,0,0,0,0,0,0,
0,0,0,0,0,0,0,0,0,0,0,0,39,40,0,0,
0,0,0,0,0,0,0,0,0,0,0,0,0,0,0,0,
0,0,0,0,0,0,0,0,0,0,0,0,0,0,0,0,
0,0,0,0,0,0,0,0,0,0,39,40,0,0,0,0,
0,0,0,0,0,0,0,0,0,0,0,0,0,0,0,0,
0,0,0,0,0,0,0,0,0,0,0,0,0,0,0,0,
0,0,0,0,0,0,0,0,0,0,0,0,0,39,40,0,
0,0,0,0,0,0,0,0,0,0,0,0,39,40,40,40,
0,0,0,0,0,0,0,0,0,0,0,0,0,0,0,0,
0,0,39,40,0,0,0,0,39,40,0,0,0,0,0,0,
0,0,0,0,0,0,0,0,0,0,0,0,0,0,0,0,
0,0,0,0,0,39,39,40,0,0,0,0,0,0,0,0,
0,0,0,0,0,0,0,0,0,39,40,0,0,0,0,0,
0,0,0,0,0,0,0,0,0,0,0,0,0,0,0,0,
0,0,0,0,0,0,0,0,0,0,0,0,0,0,0,0
</chunk>
   <chunk x="16" y="48" width="16" height="16">
0,0,0,0,0,0,0,0,0,0,0,0,0,0,0,0,
0,0,0,0,0,0,0,0,0,0,0,0,0,0,0,0,
0,0,0,0,0,0,0,0,0,0,0,0,0,0,0,0,
0,0,0,0,0,0,0,0,0,0,0,0,0,0,0,0,
0,0,0,0,0,0,0,0,0,0,0,0,0,0,0,0,
0,0,0,0,0,0,0,0,0,0,0,0,0,0,0,0,
0,0,0,0,0,0,0,0,0,0,0,0,0,0,0,0,
0,39,40,0,0,0,0,0,0,0,0,0,0,0,0,0,
40,40,0,0,0,0,0,0,0,0,0,0,0,0,0,0,
0,0,0,0,0,0,0,0,0,0,0,0,0,0,0,0,
0,0,0,0,0,0,0,0,0,0,0,0,0,0,0,0,
0,0,0,0,0,0,0,0,0,0,0,0,0,0,0,0,
0,0,0,0,0,0,0,0,0,0,0,0,0,0,0,0,
0,0,0,0,39,39,40,0,0,0,0,0,0,0,0,0,
0,0,0,0,0,0,0,0,0,39,40,0,0,0,0,0,
0,0,0,0,0,39,40,0,0,0,0,0,0,0,0,0
</chunk>
   <chunk x="48" y="48" width="16" height="16">
0,0,0,0,0,0,0,0,0,0,0,0,0,0,0,0,
0,0,0,0,0,0,0,0,0,0,0,0,0,0,0,0,
0,0,0,0,0,0,0,0,0,0,0,0,0,0,0,0,
0,0,0,0,0,0,0,0,0,0,0,0,0,0,0,0,
0,0,0,0,0,0,0,0,0,0,0,0,0,0,0,39,
0,0,0,0,0,0,0,0,0,0,0,0,0,0,0,0,
0,0,0,0,0,0,0,0,0,0,0,0,0,0,0,0,
0,0,0,0,0,0,0,0,0,0,0,0,0,0,0,0,
0,0,0,0,0,0,0,39,40,0,0,0,0,0,0,0,
0,0,0,0,0,0,0,0,0,0,0,0,0,0,0,0,
0,0,0,0,0,0,0,0,0,0,0,0,0,0,0,0,
0,0,0,0,0,0,0,0,0,0,0,0,0,0,0,0,
0,0,0,0,0,0,0,0,0,0,0,0,0,0,0,0,
0,0,0,0,0,0,0,0,0,0,0,0,0,0,0,0,
0,0,0,0,0,0,0,0,0,0,0,0,0,0,0,0,
0,0,0,0,0,0,0,0,0,0,0,0,0,0,0,0
</chunk>
   <chunk x="64" y="48" width="16" height="16">
0,0,0,0,0,0,0,0,0,0,0,0,0,0,0,0,
0,0,0,0,0,0,0,0,0,0,0,0,0,0,0,0,
0,0,0,0,0,0,0,0,0,0,0,0,0,0,0,0,
0,0,0,0,0,0,0,0,0,0,0,0,0,0,0,0,
40,0,0,0,0,0,0,0,0,0,39,40,0,0,0,0,
0,0,0,0,0,0,0,0,0,0,0,0,0,0,0,0,
0,0,0,0,0,0,0,0,0,0,0,0,0,0,0,0,
0,0,0,0,0,0,0,0,0,0,0,0,0,0,0,0,
0,0,0,0,0,0,0,0,0,0,0,0,0,0,0,0,
0,0,0,0,0,0,0,0,0,0,0,0,0,0,0,0,
0,0,0,0,0,0,0,0,0,0,0,0,0,0,0,0,
0,0,0,0,0,0,0,0,0,0,0,0,0,0,0,0,
0,0,0,0,0,0,0,0,0,0,0,0,0,0,0,0,
0,0,0,0,0,0,0,0,0,0,0,0,0,0,0,0,
0,0,0,0,0,0,0,0,0,0,0,0,0,0,0,0,
0,0,0,0,0,0,0,0,0,0,0,0,0,0,0,0
</chunk>
   <chunk x="80" y="48" width="16" height="16">
0,0,0,0,0,0,0,0,0,0,0,0,0,0,0,0,
0,0,0,0,0,0,0,0,0,0,0,0,0,0,0,0,
0,39,40,0,0,0,0,0,0,0,0,0,0,0,0,0,
0,0,0,0,0,0,0,0,0,0,0,0,0,0,0,0,
0,0,0,0,0,0,0,0,0,0,0,0,0,0,0,0,
0,0,0,0,0,0,0,0,0,0,0,0,0,0,0,0,
0,0,0,0,0,0,0,0,0,0,0,0,0,0,0,0,
0,0,0,0,0,0,0,0,0,0,0,0,0,0,0,0,
0,0,0,0,0,0,0,0,0,0,0,0,0,0,0,0,
0,0,0,0,0,0,0,0,0,0,0,0,0,0,0,0,
0,0,0,0,0,0,0,0,0,0,0,0,0,0,0,0,
0,0,0,0,0,0,0,0,0,0,0,0,0,0,0,0,
0,0,0,0,0,0,0,0,0,0,0,0,0,0,0,0,
0,0,0,0,0,0,0,0,0,0,0,0,0,0,0,0,
0,0,0,0,0,0,0,0,0,0,0,0,0,0,0,0,
0,0,0,0,0,0,0,0,0,0,0,0,0,0,0,0
</chunk>
   <chunk x="96" y="48" width="16" height="16">
0,0,0,0,0,0,0,0,0,0,0,0,0,0,0,0,
0,0,0,0,0,0,0,0,0,0,0,0,0,0,0,0,
0,0,0,0,0,0,0,0,0,0,0,0,0,0,0,0,
0,0,0,0,0,0,0,0,0,0,0,39,40,0,0,0,
0,0,0,0,0,0,0,0,0,0,0,0,0,0,0,0,
0,0,0,0,0,0,0,0,0,0,0,0,0,0,0,39,
0,0,0,0,0,0,0,0,0,0,0,0,0,0,0,0,
0,0,0,0,0,0,0,0,0,0,0,0,39,40,0,0,
0,0,0,0,0,0,0,0,0,0,0,0,0,0,0,0,
0,0,0,0,0,0,0,0,0,0,0,0,0,0,0,0,
0,0,0,0,0,0,0,0,0,0,0,0,0,0,0,0,
0,0,0,0,0,0,0,0,0,0,0,0,0,0,0,0,
0,0,0,0,0,0,0,0,0,0,0,0,0,0,0,0,
0,0,0,0,0,0,0,0,0,0,0,0,0,0,0,0,
0,0,0,0,0,0,0,0,0,0,0,0,0,0,0,0,
0,0,0,0,0,0,0,0,0,0,0,0,0,0,0,0
</chunk>
   <chunk x="112" y="48" width="16" height="16">
0,0,0,0,0,0,0,0,0,0,0,0,0,0,39,40,
0,0,0,0,0,0,0,0,0,0,39,39,40,0,39,40,
0,0,0,0,0,0,0,0,0,0,39,40,0,0,0,0,
0,0,0,0,0,0,0,0,0,0,0,0,0,0,0,0,
0,0,0,0,0,0,0,0,0,0,0,0,0,0,0,0,
39,40,0,0,0,0,0,0,0,0,0,0,0,0,0,0,
0,0,0,0,0,0,0,0,0,0,0,0,0,0,0,0,
0,0,0,0,0,0,0,0,0,0,0,0,0,0,0,0,
0,0,0,0,0,0,0,0,0,0,0,0,0,0,0,0,
0,39,40,0,0,0,0,0,0,0,0,0,0,0,0,0,
0,0,0,0,0,0,0,0,0,0,0,0,0,0,0,0,
0,0,0,0,0,0,0,0,0,0,0,0,0,0,0,0,
0,0,0,0,0,0,0,0,0,0,0,0,0,0,0,0,
0,0,0,0,0,0,0,0,0,0,0,0,0,0,0,0,
0,0,0,0,0,0,0,0,0,0,0,0,0,0,0,0,
0,0,0,0,0,0,0,0,0,0,0,0,0,0,0,0
</chunk>
   <chunk x="128" y="48" width="16" height="16">
0,0,0,0,0,0,0,0,0,0,0,0,0,0,0,0,
0,0,0,0,0,0,0,0,0,0,0,0,0,0,0,0,
0,0,0,0,0,0,0,0,0,0,0,0,0,0,0,0,
0,0,0,0,0,0,0,0,0,0,0,0,0,0,0,0,
0,0,0,0,0,0,0,0,0,0,0,0,0,0,0,0,
0,0,0,0,0,0,0,0,0,0,0,0,0,0,0,0,
0,0,0,0,0,0,0,0,0,0,0,0,0,39,40,0,
0,0,0,0,0,0,0,0,0,0,0,0,0,39,40,0,
0,0,0,0,0,0,0,0,0,0,0,0,0,0,0,0,
0,0,0,0,0,0,0,39,40,40,0,0,0,0,0,0,
0,0,0,0,0,0,0,0,39,40,0,0,0,0,0,0,
0,0,0,0,0,0,0,0,0,0,0,0,0,0,0,0,
0,0,0,0,0,0,0,0,0,0,0,0,0,0,0,0,
0,0,0,0,0,0,0,0,0,39,40,39,40,40,0,0,
0,0,0,0,0,0,0,0,0,0,0,0,0,0,0,0,
0,0,0,0,0,0,0,0,0,0,0,0,0,0,0,0
</chunk>
   <chunk x="0" y="64" width="16" height="16">
0,0,0,0,0,0,0,0,0,0,0,0,0,0,0,0,
0,0,39,40,0,0,0,0,0,0,0,0,0,0,0,0,
0,0,0,0,0,0,0,0,0,0,0,0,0,0,0,0,
0,0,0,0,0,0,0,39,40,40,0,0,0,0,0,0,
0,0,0,0,0,0,0,0,0,0,0,0,0,0,0,0,
0,0,0,39,40,0,39,40,0,0,0,0,0,0,0,0,
0,0,0,0,0,0,0,0,0,0,0,0,0,0,0,0,
0,0,0,0,0,0,0,0,0,0,0,0,0,0,39,40,
0,0,0,0,0,0,0,0,0,0,0,0,0,39,40,0,
0,0,0,0,0,0,0,0,0,0,0,0,39,40,40,0,
0,0,0,0,0,0,0,0,0,0,0,0,0,0,0,0,
0,0,0,0,0,0,0,0,0,0,0,0,0,0,0,0,
0,0,0,0,0,0,0,39,40,0,0,0,0,0,0,0,
0,0,0,0,0,0,0,0,0,0,0,0,0,0,0,0,
0,0,0,0,0,0,0,0,0,0,0,0,0,0,0,0,
0,0,0,0,0,0,0,0,0,0,0,0,0,0,0,0
</chunk>
   <chunk x="16" y="64" width="16" height="16">
39,40,40,40,0,0,0,39,40,0,0,0,0,0,0,0,
0,0,0,0,0,0,0,0,0,0,0,0,0,0,0,0,
0,0,0,0,0,0,0,0,0,0,0,0,0,0,0,0,
0,0,0,0,0,0,0,0,0,0,0,0,39,40,0,0,
0,0,0,0,0,0,0,0,0,0,0,0,0,0,0,0,
0,0,0,0,0,0,0,0,0,0,0,0,0,0,0,0,
0,0,0,0,0,0,0,0,0,0,0,0,0,0,0,0,
40,40,0,0,0,0,0,0,0,0,0,0,0,0,0,0,
0,0,0,0,0,0,0,0,0,0,0,0,0,0,0,0,
0,0,0,0,0,0,0,0,0,0,0,0,0,0,0,0,
39,40,40,0,0,0,0,0,0,0,0,0,0,0,0,0,
0,0,0,0,0,0,0,0,0,0,0,0,0,0,0,0,
0,0,0,0,0,0,0,0,0,0,0,0,0,0,0,0,
0,0,0,0,0,0,0,0,0,0,0,0,0,0,0,0,
0,0,0,0,0,0,0,0,0,0,0,0,0,0,0,0,
0,0,0,0,0,0,0,0,0,0,0,0,0,0,0,0
</chunk>
   <chunk x="64" y="64" width="16" height="16">
0,0,0,0,0,0,0,0,0,0,0,0,0,0,0,0,
0,0,0,0,0,0,0,0,0,0,0,0,0,0,0,0,
0,0,0,0,0,0,0,0,0,0,0,0,0,0,0,0,
0,0,0,0,0,0,0,0,0,0,0,0,0,0,0,0,
0,0,0,0,0,0,0,0,0,0,0,0,0,0,0,0,
0,0,0,0,0,0,0,0,0,0,0,39,40,0,0,0,
0,0,0,0,0,0,0,0,0,0,0,0,0,0,0,0,
0,0,0,0,0,0,0,0,0,0,0,0,0,0,0,0,
0,0,0,0,0,0,0,0,0,0,0,0,0,0,0,0,
0,0,0,0,0,39,40,0,0,0,0,0,0,39,40,0,
0,0,0,0,0,0,0,0,0,0,0,0,39,40,40,0,
0,0,0,0,0,0,0,0,0,0,0,0,0,0,0,0,
0,0,0,0,0,0,0,0,0,0,0,0,0,0,0,0,
0,0,0,0,0,0,0,0,0,0,0,0,0,0,0,0,
0,0,0,0,0,0,0,0,0,0,0,0,0,0,0,0,
0,0,0,0,0,0,0,0,0,0,0,0,0,0,0,0
</chunk>
   <chunk x="80" y="64" width="16" height="16">
0,0,0,0,0,0,0,0,0,0,0,0,0,0,0,0,
0,0,0,0,0,0,0,0,0,0,0,0,0,0,0,0,
0,0,0,0,0,0,0,0,0,0,0,0,0,0,0,0,
0,0,0,0,0,0,0,0,0,0,0,0,39,40,0,0,
0,0,0,0,0,0,0,0,0,0,0,0,0,0,0,0,
0,0,0,0,0,0,0,0,0,0,0,0,0,0,0,0,
0,0,0,0,0,0,0,0,0,0,0,0,0,0,0,0,
0,0,0,0,0,0,0,0,0,0,0,0,0,0,0,0,
0,0,39,40,40,40,0,0,0,0,0,0,0,0,0,0,
0,0,0,0,0,0,0,0,0,0,0,0,0,0,0,0,
0,0,0,0,0,0,0,0,0,0,0,0,0,0,0,0,
0,0,0,0,0,39,40,40,0,0,0,0,0,0,0,0,
39,39,39,40,0,0,0,0,0,0,0,0,0,0,0,0,
0,0,0,0,0,0,0,0,0,0,0,0,0,39,40,0,
0,0,0,0,0,39,40,0,0,0,0,0,0,0,0,0,
0,0,0,0,0,0,0,0,0,0,0,0,0,0,0,0
</chunk>
   <chunk x="96" y="64" width="16" height="16">
0,0,0,0,0,0,0,0,0,0,0,0,0,0,0,0,
0,0,0,0,0,0,0,0,0,0,0,0,0,0,0,0,
0,0,0,0,0,0,0,0,0,0,0,0,0,0,0,0,
0,0,0,0,39,40,0,0,0,0,0,0,0,0,0,0,
0,0,0,0,0,0,0,0,0,0,0,0,0,0,0,0,
0,0,0,0,0,0,0,0,0,0,0,0,0,0,0,0,
0,0,0,0,0,0,0,0,0,0,0,39,40,40,0,0,
0,0,0,0,0,0,0,0,0,0,0,39,40,0,0,0,
0,0,0,0,0,0,0,0,0,0,0,0,0,0,0,0,
0,0,0,0,0,0,0,0,0,0,0,0,0,0,0,0,
0,0,0,0,0,0,0,0,0,0,0,0,0,0,0,0,
0,0,0,0,0,0,0,0,0,0,0,0,0,0,0,0,
0,0,0,0,0,0,0,0,0,0,0,0,0,0,0,0,
0,0,0,0,0,0,0,0,0,0,0,0,0,0,0,0,
0,0,0,0,0,0,0,0,0,0,0,0,0,0,0,0,
0,0,0,0,0,0,0,0,0,0,0,0,0,0,0,0
</chunk>
   <chunk x="112" y="64" width="16" height="16">
0,39,40,0,0,0,0,0,0,0,0,0,0,0,0,0,
0,0,0,0,0,0,0,0,0,0,0,0,0,0,0,0,
0,0,0,0,0,0,0,0,0,0,0,0,0,0,0,0,
0,0,0,0,0,0,0,0,0,0,0,0,0,0,0,0,
0,0,0,0,0,0,0,0,0,0,0,0,0,0,39,39,
0,0,0,0,0,0,0,0,0,0,0,0,39,39,40,40,
0,0,0,0,0,0,0,0,0,0,0,0,39,40,0,0,
0,0,0,0,0,0,0,0,0,0,0,0,0,0,0,0,
0,0,0,0,0,0,0,0,0,0,0,0,0,0,0,0,
0,0,0,0,0,0,0,0,0,0,0,0,0,0,0,0,
0,39,40,0,0,0,0,0,0,0,0,0,0,0,0,0,
0,0,0,0,0,0,0,0,0,0,0,0,0,0,0,0,
0,0,0,0,0,0,0,0,0,0,0,0,0,0,0,0,
0,0,0,0,0,0,0,0,0,0,0,0,0,0,0,0,
0,0,0,0,0,0,0,0,0,0,39,40,0,0,0,0,
0,0,0,0,0,0,0,0,0,0,0,0,0,0,0,0
</chunk>
   <chunk x="128" y="64" width="16" height="16">
0,0,0,0,0,0,0,0,0,0,0,0,0,0,0,0,
0,0,0,0,0,0,0,0,0,0,0,0,0,0,0,0,
0,0,0,0,0,0,0,0,0,0,0,0,0,0,0,0,
39,39,39,39,40,0,39,40,40,0,0,0,0,0,0,0,
40,0,0,0,0,0,0,0,0,0,0,0,0,0,0,0,
40,0,0,0,0,0,0,39,39,39,39,39,39,40,0,0,
0,0,0,0,0,0,0,0,0,0,0,0,0,0,0,0,
0,0,0,0,0,0,0,0,0,39,39,40,0,0,0,0,
0,0,0,0,0,0,0,0,0,0,0,0,0,0,0,0,
0,0,0,0,0,0,0,0,0,0,0,0,0,0,0,0,
0,0,0,0,0,0,0,0,0,0,0,0,0,0,0,0,
0,0,0,0,0,0,0,0,0,0,0,0,0,0,0,0,
0,0,0,0,0,0,0,0,39,39,40,0,0,0,0,0,
0,0,0,0,0,0,0,0,0,0,0,0,0,0,0,0,
0,0,0,0,0,0,0,0,0,0,0,0,0,0,0,0,
0,0,0,0,0,0,0,39,40,0,0,0,0,0,0,0
</chunk>
   <chunk x="0" y="80" width="16" height="16">
0,0,0,0,0,0,0,0,0,0,0,0,39,39,40,0,
0,0,0,0,0,0,0,0,0,0,0,0,0,0,0,0,
0,0,0,0,0,0,0,0,0,0,0,0,0,0,0,0,
0,0,0,0,0,0,0,0,0,0,0,0,0,39,40,0,
0,0,0,0,0,0,0,0,0,0,0,0,0,0,0,0,
0,0,0,0,39,40,40,0,0,0,0,0,0,0,0,0,
0,0,0,0,0,39,40,0,0,0,0,0,0,0,0,0,
0,39,40,0,0,0,0,0,0,0,0,0,39,40,0,0,
0,0,0,0,0,0,0,0,0,0,0,0,0,0,0,0,
0,0,0,0,0,0,0,0,0,0,0,0,0,0,0,0,
0,0,0,0,0,0,0,0,0,39,40,40,40,0,39,40,
0,0,0,0,0,0,0,0,0,0,0,0,0,0,0,0,
0,0,0,0,0,0,0,0,0,0,0,0,0,0,0,0,
0,0,0,0,0,0,0,0,0,0,0,0,0,0,0,0,
0,0,0,0,0,0,0,0,0,0,0,39,40,0,0,0,
0,0,0,0,0,0,0,0,0,0,0,0,0,0,0,0
</chunk>
   <chunk x="16" y="80" width="16" height="16">
39,39,39,40,0,0,0,0,0,0,0,0,0,0,0,0,
0,0,0,0,0,0,0,0,0,0,0,0,0,0,0,0,
0,0,0,0,0,0,0,0,0,0,0,0,0,0,0,0,
0,0,0,0,0,0,0,0,0,0,0,0,0,0,0,0,
0,0,0,0,0,0,0,0,0,0,0,0,0,0,0,0,
0,0,0,0,39,40,0,0,0,0,0,0,0,0,0,0,
0,0,0,0,0,0,0,0,0,0,0,0,0,0,0,0,
0,0,0,0,0,0,0,0,0,0,0,0,0,0,0,0,
0,0,0,0,0,0,39,40,0,0,0,0,0,0,0,0,
0,0,0,0,0,0,0,0,0,0,0,0,0,0,0,0,
40,40,0,0,0,0,0,0,0,0,0,0,0,0,0,0,
0,0,0,0,0,0,0,0,0,0,0,0,0,0,0,0,
0,0,0,0,0,0,0,0,0,0,0,0,0,0,0,0,
0,0,0,0,0,0,0,0,0,0,0,0,0,0,0,39,
0,0,0,0,0,0,0,0,0,0,0,0,0,0,0,0,
0,0,0,0,0,0,0,0,0,0,0,0,0,0,0,0
</chunk>
   <chunk x="32" y="80" width="16" height="16">
0,0,0,0,0,0,0,0,0,0,0,0,0,0,0,0,
0,0,0,0,0,0,0,0,0,0,0,0,0,0,0,0,
0,0,0,0,0,0,0,0,0,0,0,0,0,0,0,0,
0,0,0,0,0,0,0,0,0,0,0,0,0,0,0,0,
0,0,0,0,0,0,0,0,0,0,0,0,0,0,0,0,
0,0,0,0,0,0,0,0,0,0,0,0,0,0,0,0,
0,0,0,0,0,0,0,0,0,0,0,0,0,0,0,0,
0,0,0,0,0,0,0,0,0,0,0,0,0,0,0,0,
0,0,0,0,0,0,0,0,0,0,0,0,0,0,0,0,
0,0,0,0,0,0,0,0,0,0,0,0,0,0,0,0,
0,0,0,0,0,0,0,0,0,0,0,0,0,0,0,0,
0,0,0,0,0,0,0,0,0,0,0,0,0,0,0,0,
0,0,0,0,0,0,0,0,0,0,0,0,0,0,0,0,
40,0,0,0,0,0,0,0,0,0,0,0,0,0,0,0,
0,0,0,0,0,0,0,0,0,0,0,0,0,0,0,0,
0,0,0,0,0,39,40,0,0,0,0,0,0,0,0,0
</chunk>
   <chunk x="48" y="80" width="16" height="16">
0,0,0,0,0,0,0,0,0,0,0,0,0,0,0,0,
0,0,0,0,0,0,0,0,0,0,0,0,0,0,0,0,
0,0,0,0,0,0,0,0,0,0,0,0,0,0,0,0,
0,0,0,0,0,0,0,0,0,0,0,0,0,0,0,0,
29,30,0,0,0,0,0,29,30,0,0,0,0,0,0,0,
49,50,0,0,0,0,351,29,30,0,0,0,0,0,0,0,
49,50,29,30,0,0,0,49,50,29,30,0,0,0,0,0,
0,351,49,50,0,0,0,0,0,49,50,0,0,0,0,0,
0,0,0,0,29,30,0,0,0,0,0,0,0,0,0,0,
0,0,29,30,49,50,0,0,39,40,0,0,0,0,0,0,
0,0,49,50,0,0,0,0,39,39,40,0,0,0,0,0,
0,0,0,0,0,0,0,0,0,0,39,40,0,0,0,0,
0,0,0,0,0,0,0,0,0,0,0,0,0,0,0,0,
0,0,0,0,0,0,0,0,0,0,0,0,39,40,0,0,
0,0,0,0,0,0,0,0,0,0,0,39,40,40,0,0,
0,0,0,0,0,0,0,0,0,0,0,0,0,0,0,0
</chunk>
   <chunk x="64" y="80" width="16" height="16">
0,0,0,0,0,0,0,0,0,0,0,0,0,0,0,0,
0,0,0,0,0,0,0,0,0,0,0,0,0,0,0,0,
0,0,0,0,0,0,0,0,0,0,0,0,0,0,0,0,
0,0,0,0,0,0,0,0,0,0,0,0,0,0,0,0,
0,0,0,0,0,0,0,0,0,0,0,0,0,0,0,0,
0,0,0,0,0,0,0,0,0,0,0,0,0,0,0,0,
0,0,0,0,0,0,0,0,0,0,0,0,0,0,0,0,
0,0,0,0,0,0,0,0,0,0,0,39,40,0,0,0,
0,0,0,0,0,0,0,0,0,0,0,0,0,0,0,0,
0,0,0,0,0,0,0,0,0,0,0,0,0,0,0,39,
0,0,0,0,0,0,0,0,0,0,0,0,0,0,0,0,
0,0,0,0,0,0,0,0,0,0,0,0,0,0,0,0,
29,30,0,0,0,0,0,0,0,0,0,0,0,0,0,0,
49,50,0,0,0,0,0,0,0,0,0,0,0,0,0,0,
0,0,0,29,29,29,30,0,0,0,0,0,0,0,0,0,
0,0,0,29,29,30,30,0,29,30,0,0,0,351,29,30
</chunk>
   <chunk x="80" y="80" width="16" height="16">
0,0,0,0,0,0,0,0,0,0,0,0,0,0,0,0,
0,0,0,0,0,0,0,0,0,0,0,0,0,0,0,0,
0,0,0,0,0,0,0,0,0,0,0,0,0,0,0,0,
0,0,0,0,0,0,0,0,0,0,0,0,0,0,0,0,
0,0,0,0,0,0,0,0,0,0,0,0,0,0,0,0,
0,0,0,0,0,0,0,0,0,0,0,0,0,0,0,0,
0,0,0,0,0,0,0,0,0,0,0,0,0,0,0,0,
0,0,0,0,0,0,0,0,0,0,0,0,0,0,0,0,
0,0,0,0,0,0,0,0,0,0,0,0,0,0,0,0,
39,40,0,0,0,0,39,40,0,0,0,0,0,0,0,0,
0,0,0,0,0,0,0,0,0,0,0,0,0,0,0,0,
0,0,0,0,0,0,0,0,0,0,0,0,0,0,0,0,
0,0,0,0,0,0,0,0,0,0,0,0,0,0,0,0,
0,0,0,0,0,0,0,0,0,0,0,0,0,0,0,0,
0,0,0,0,0,0,0,0,0,39,39,40,0,0,0,0,
0,0,0,0,0,0,0,0,0,0,0,39,40,0,0,0
</chunk>
   <chunk x="96" y="80" width="16" height="16">
0,0,0,0,0,0,0,0,0,0,0,0,0,0,0,0,
0,0,0,0,0,0,0,0,0,0,0,0,0,0,0,0,
0,0,0,0,0,0,0,0,0,0,0,0,0,0,0,0,
0,0,0,0,0,0,0,0,0,0,0,0,0,0,0,0,
0,0,0,0,0,0,0,0,0,0,0,0,0,0,0,0,
0,0,0,0,0,0,0,0,0,0,0,0,0,0,0,0,
0,0,0,0,0,0,0,0,0,0,0,0,0,0,0,0,
0,0,0,0,0,0,0,0,0,0,0,0,0,0,0,0,
0,0,0,0,0,0,0,0,0,0,0,0,0,0,0,0,
0,0,0,0,0,0,0,0,0,0,0,0,0,0,0,0,
0,0,0,0,0,0,0,0,0,0,0,0,0,0,0,0,
0,0,0,0,0,0,0,0,0,0,0,0,0,0,0,0,
0,0,0,0,0,0,0,0,0,0,0,0,0,0,0,0,
0,0,0,29,30,0,0,0,0,0,0,0,0,0,0,0,
29,29,30,49,50,0,0,0,0,0,0,0,0,0,0,0,
49,49,29,29,30,0,0,0,0,0,0,0,0,0,0,0
</chunk>
   <chunk x="112" y="80" width="16" height="16">
0,0,0,0,0,0,0,0,0,0,0,0,0,39,40,0,
0,0,0,0,0,0,0,0,0,0,0,0,0,0,39,40,
0,0,0,0,0,39,40,0,0,0,0,0,0,0,0,0,
0,0,0,0,0,0,0,0,0,0,0,0,0,0,0,0,
0,0,0,0,0,0,0,0,0,0,0,0,0,0,0,0,
0,0,0,0,0,0,0,0,0,0,0,0,0,0,0,0,
0,0,0,0,0,0,0,0,0,0,0,0,0,0,0,0,
0,0,39,40,0,0,0,0,0,0,0,0,0,0,0,0,
0,0,0,0,0,0,0,0,0,0,0,0,0,0,0,0,
0,0,0,0,0,0,0,0,0,0,0,0,0,0,0,0,
0,0,0,0,0,0,39,40,0,0,0,0,0,0,0,0,
0,0,0,0,0,0,0,0,0,0,0,0,0,0,0,0,
0,0,0,0,0,0,0,0,0,0,0,0,0,0,0,0,
0,0,0,0,0,0,0,0,0,0,0,0,0,0,0,0,
0,0,0,0,0,0,0,0,0,0,0,0,0,0,0,0,
0,0,0,0,0,0,0,0,0,0,0,0,0,0,0,0
</chunk>
   <chunk x="128" y="80" width="16" height="16">
0,0,0,0,0,0,39,39,40,0,0,0,0,0,0,0,
0,39,39,39,40,0,0,0,0,0,0,0,0,0,0,0,
0,0,0,0,0,0,0,0,0,0,0,0,0,0,0,0,
39,40,0,0,0,0,0,0,0,0,0,0,0,0,0,0,
0,0,0,0,0,0,0,0,0,0,0,0,0,0,0,0,
0,0,0,0,0,0,0,0,0,0,0,0,0,0,0,0,
0,0,0,0,0,0,0,0,0,0,0,0,0,0,0,0,
0,0,0,0,0,0,0,0,0,0,0,0,0,39,40,0,
0,0,0,0,0,0,0,0,0,0,0,0,39,40,0,0,
0,0,0,0,0,0,0,0,0,0,0,39,39,40,0,0,
0,0,0,0,0,0,0,0,39,39,40,0,0,0,0,0,
0,0,0,0,0,0,0,0,0,0,0,0,0,0,0,0,
0,0,0,0,0,0,0,0,0,0,0,0,0,0,0,0,
0,0,0,0,0,0,0,0,0,0,0,0,0,0,0,0,
0,0,0,0,0,0,0,0,0,0,0,0,0,0,0,0,
0,0,0,0,0,0,0,0,0,0,0,0,0,0,0,0
</chunk>
   <chunk x="32" y="96" width="16" height="16">
0,0,0,0,0,0,0,0,0,39,39,40,0,0,0,0,
0,0,0,0,0,0,0,0,0,0,39,40,0,0,0,0,
0,0,0,0,0,0,0,0,0,0,0,0,0,0,0,0,
0,0,0,0,0,0,0,0,0,0,0,0,0,0,0,0,
0,0,0,0,0,0,0,0,0,0,0,0,0,0,0,0,
0,0,0,0,0,0,0,0,0,0,0,0,0,0,0,0,
0,0,0,0,0,0,0,0,0,0,0,0,0,0,0,0,
0,0,0,0,0,0,0,0,0,0,0,0,0,0,0,0,
0,0,0,0,0,0,0,0,0,0,0,0,0,0,0,0,
0,0,0,0,0,0,0,0,0,0,0,0,0,0,0,0,
0,0,0,0,0,0,0,0,0,0,0,0,0,0,0,0,
0,0,0,0,0,0,0,0,0,0,0,0,0,0,0,0,
0,0,0,0,0,0,0,0,0,0,0,0,0,0,0,0,
0,0,0,0,0,0,0,0,0,0,0,0,0,0,0,0,
0,0,0,0,0,0,0,0,0,0,0,0,0,0,0,0,
0,0,0,0,0,0,0,0,0,0,0,0,0,0,0,0
</chunk>
   <chunk x="48" y="96" width="16" height="16">
0,0,0,0,0,0,0,39,40,0,0,0,0,0,0,0,
0,0,0,0,0,0,0,0,0,0,0,0,0,0,0,0,
0,0,0,0,0,0,0,0,0,0,0,0,0,0,0,0,
0,29,30,0,0,0,0,0,0,0,0,0,0,0,0,29,
0,49,50,0,0,0,0,0,0,0,0,0,0,0,0,0,
0,0,0,0,0,0,0,0,0,0,0,0,0,0,0,0,
0,0,0,0,0,0,0,0,0,0,0,0,0,0,0,0,
0,0,0,0,0,39,40,0,0,0,0,0,29,29,30,0,
0,0,0,0,0,39,40,0,0,0,0,0,29,29,30,0,
0,0,0,39,40,0,0,0,0,0,0,0,0,0,0,0,
0,0,0,39,40,0,0,0,0,0,0,0,0,0,0,0,
0,0,0,0,0,0,0,0,0,0,0,0,0,29,29,29,
0,0,0,0,0,0,0,0,0,0,0,0,0,0,0,0,
0,0,0,0,0,0,0,351,0,0,0,0,0,0,0,0,
0,0,0,0,0,0,0,0,0,0,0,0,29,30,30,0,
0,0,0,0,0,0,0,0,0,0,29,30,30,50,50,0
</chunk>
   <chunk x="64" y="96" width="16" height="16">
0,29,30,0,29,30,0,0,0,0,0,0,0,0,0,0,
0,0,0,0,0,0,0,0,0,0,0,0,0,0,0,29,
29,30,0,0,0,0,0,0,0,0,0,0,0,0,0,0,
30,0,0,0,0,0,0,0,0,0,0,0,0,0,0,0,
0,0,0,0,0,0,0,0,0,0,0,0,0,0,0,0,
0,0,0,0,0,0,0,0,0,0,0,0,0,0,0,0,
0,0,0,0,0,0,0,0,0,0,0,0,0,0,0,0,
0,0,0,0,0,0,0,0,0,0,0,0,0,0,0,0,
0,0,0,0,0,0,0,0,0,0,0,0,0,0,0,0,
0,0,0,0,0,0,0,0,0,0,0,0,0,0,0,0,
0,0,0,0,0,0,0,0,0,0,0,0,0,0,0,0,
29,30,0,0,0,0,0,0,0,0,0,0,0,0,0,0,
29,30,30,0,0,0,0,0,0,0,0,0,0,0,0,0,
0,0,0,0,0,0,0,0,0,0,0,0,0,0,0,0,
0,0,29,30,0,0,0,0,29,30,30,0,0,0,0,0,
0,0,0,0,0,0,0,0,0,0,0,0,0,0,0,0
</chunk>
   <chunk x="80" y="96" width="16" height="16">
0,0,0,0,0,0,0,0,0,0,0,0,0,0,0,0,
30,0,0,0,0,0,0,0,0,0,0,0,0,0,0,0,
0,0,0,0,0,0,0,0,0,0,0,0,0,0,39,40,
0,0,0,0,0,0,0,0,0,0,0,0,0,0,0,0,
0,0,0,0,0,0,0,0,0,29,30,0,0,0,0,0,
0,0,0,0,0,0,0,0,29,30,0,0,0,0,0,0,
0,0,0,0,0,0,29,30,29,30,0,0,29,30,0,0,
0,0,0,0,0,0,0,0,0,0,0,0,49,50,0,0,
0,0,0,0,0,0,0,0,0,0,0,0,0,0,0,0,
0,0,0,0,0,0,0,0,0,0,0,0,0,0,0,0,
0,0,0,0,0,0,0,0,0,0,0,0,0,0,0,0,
0,0,0,0,0,0,0,0,0,0,0,0,0,0,0,0,
29,30,0,0,0,0,0,0,0,0,0,0,0,0,0,0,
0,0,0,0,0,0,0,0,0,0,39,40,0,0,0,0,
0,0,0,0,0,0,0,0,0,0,0,0,0,0,0,0,
0,0,0,0,0,0,0,0,0,0,0,0,0,0,0,0
</chunk>
   <chunk x="96" y="96" width="16" height="16">
0,0,49,49,50,0,0,0,0,0,0,0,0,0,0,0,
0,0,0,0,0,0,0,0,0,0,0,0,0,0,0,0,
0,0,0,0,0,0,0,0,0,0,0,0,0,0,0,0,
0,0,0,0,0,0,0,0,0,0,0,0,0,0,0,0,
0,0,0,0,0,0,0,0,0,0,0,0,0,0,0,0,
0,29,30,0,0,0,0,0,0,0,0,0,0,0,0,0,
0,49,50,0,0,0,0,0,0,0,0,0,0,0,0,0,
0,0,0,0,0,0,0,0,0,0,0,0,0,0,0,0,
0,0,0,0,0,0,0,0,0,0,0,0,0,0,0,0,
0,0,0,0,29,30,0,0,0,0,0,0,0,0,0,0,
0,0,0,0,49,50,0,0,0,0,0,0,0,0,0,0,
0,0,0,0,0,0,0,0,0,0,0,0,0,0,0,0,
0,0,0,0,0,0,0,0,0,0,0,0,0,0,0,0,
0,0,0,0,0,0,0,0,0,0,0,0,0,0,0,0,
0,0,0,0,0,0,0,0,0,0,0,0,0,0,0,0,
0,0,0,0,0,0,0,0,0,0,0,0,0,0,0,0
</chunk>
   <chunk x="112" y="96" width="16" height="16">
0,0,0,0,0,0,0,0,0,0,0,0,0,0,0,0,
0,0,0,0,0,0,0,0,0,0,0,0,0,0,0,0,
0,0,0,0,0,0,0,0,0,0,0,0,0,0,0,0,
0,0,0,0,0,0,0,0,0,0,0,0,39,40,40,0,
0,0,0,0,0,0,0,0,0,0,0,0,39,40,0,0,
0,0,0,0,0,0,0,0,0,0,0,0,0,0,0,0,
0,0,0,0,0,0,0,0,0,0,39,40,0,0,0,0,
0,0,0,0,0,0,0,0,0,0,39,40,0,0,0,0,
0,0,0,0,0,0,0,0,0,0,0,0,0,0,0,0,
0,0,0,0,0,0,0,0,0,0,0,0,0,0,0,0,
0,0,0,0,0,0,0,0,0,0,0,0,0,0,0,0,
0,0,0,0,0,0,0,0,0,0,0,0,0,0,0,0,
0,0,0,0,0,0,0,0,0,0,0,0,0,0,0,0,
0,0,0,0,0,0,0,0,0,39,40,0,0,0,0,0,
0,0,0,0,0,0,0,39,40,40,0,0,0,0,0,0,
0,0,0,0,0,0,0,0,0,0,0,0,0,0,0,0
</chunk>
   <chunk x="128" y="96" width="16" height="16">
0,0,0,0,0,0,0,0,0,0,0,0,0,0,0,0,
0,39,40,0,0,0,0,39,40,0,0,0,0,0,0,0,
0,0,0,0,0,0,0,0,0,0,0,0,0,0,0,0,
0,0,0,0,0,0,0,0,0,0,0,0,0,0,0,0,
0,0,39,40,0,0,0,0,0,0,0,0,0,0,0,0,
0,39,39,40,0,0,0,0,0,0,0,0,0,0,0,0,
0,0,0,0,0,0,0,0,0,0,0,0,0,0,0,0,
0,0,0,0,0,0,0,0,0,0,0,0,0,0,0,0,
0,0,0,0,0,0,0,0,0,0,39,40,0,0,0,0,
0,0,0,0,0,0,0,0,0,0,0,0,0,0,0,0,
0,0,0,0,0,0,0,0,0,0,0,0,0,0,0,0,
39,39,40,0,0,0,0,0,0,0,0,0,0,0,0,0,
0,0,0,0,0,0,0,0,0,0,0,0,0,0,0,0,
39,40,40,40,40,40,0,0,0,0,0,0,0,0,0,0,
0,0,0,0,0,0,0,0,0,0,0,0,0,0,0,0,
0,0,0,0,0,0,0,0,0,0,0,0,0,0,0,0
</chunk>
   <chunk x="0" y="112" width="16" height="16">
0,0,0,0,0,0,0,0,0,0,0,0,0,0,0,0,
0,0,0,0,39,40,0,0,0,0,0,0,0,0,0,0,
0,0,0,0,0,0,0,0,0,0,0,0,39,40,0,0,
0,0,0,0,0,0,0,0,0,0,0,0,0,0,0,0,
0,0,0,0,0,0,0,0,0,0,0,0,0,0,0,0,
0,0,0,0,0,0,0,0,0,0,0,0,0,0,0,0,
0,0,0,0,0,0,0,0,39,40,40,40,0,0,0,0,
0,0,0,0,0,39,40,40,0,0,0,0,0,0,0,0,
0,0,0,0,39,40,40,0,0,0,0,0,39,40,0,0,
0,0,0,0,0,0,0,0,0,0,0,39,39,40,0,0,
0,0,0,0,0,0,0,0,0,0,0,0,0,0,0,0,
0,0,39,40,0,0,0,0,0,0,0,0,0,0,0,0,
0,39,40,40,0,0,0,0,0,0,0,0,0,0,0,0,
0,0,0,0,0,0,0,0,0,0,0,0,0,0,0,0,
0,0,0,0,0,0,0,0,0,0,0,0,0,0,0,0,
0,0,0,0,0,39,40,0,0,0,0,0,0,0,0,0
</chunk>
   <chunk x="16" y="112" width="16" height="16">
0,0,0,0,0,0,0,0,0,0,0,0,0,0,39,40,
0,0,0,0,0,0,0,0,0,0,0,0,0,39,40,0,
0,0,0,0,0,0,0,0,0,0,0,0,0,0,0,0,
0,0,0,0,0,0,0,0,0,0,0,0,0,0,0,0,
0,0,0,0,0,0,0,0,39,40,40,40,0,0,0,0,
0,0,0,0,0,0,0,39,40,0,0,0,0,0,0,39,
0,0,0,0,0,0,0,0,0,0,0,0,0,0,0,0,
0,0,0,39,40,0,0,0,0,0,0,0,0,39,40,0,
0,0,0,0,0,0,0,0,0,0,0,0,0,0,0,0,
0,0,0,0,0,0,0,0,0,0,0,0,0,0,0,0,
0,0,0,0,0,0,0,0,0,0,0,0,0,0,0,0,
0,0,0,0,0,0,0,0,0,0,0,0,0,0,0,0,
0,0,0,0,0,0,0,0,0,0,0,0,0,0,0,0,
0,0,0,0,0,0,0,0,0,0,0,0,0,0,0,0,
0,0,0,0,0,0,0,0,0,0,0,0,0,0,0,0,
0,0,0,0,0,0,0,0,0,0,0,0,0,0,0,0
</chunk>
   <chunk x="32" y="112" width="16" height="16">
0,0,0,0,0,0,0,0,0,0,0,0,0,0,0,0,
0,0,0,0,0,0,0,0,0,0,0,0,0,0,0,0,
0,0,0,0,0,0,0,0,0,0,0,0,0,0,0,0,
0,0,0,0,0,0,0,0,0,0,0,0,0,0,0,0,
0,0,0,0,0,0,0,0,0,0,0,0,0,0,0,29,
40,0,0,0,0,0,0,0,0,0,0,0,0,0,0,49,
0,0,0,0,0,0,0,0,0,0,0,0,0,0,0,0,
0,0,0,0,0,0,0,0,0,0,0,0,0,0,0,0,
0,0,0,0,0,0,0,0,0,0,0,0,0,0,0,0,
0,0,0,0,0,0,0,0,0,0,0,0,0,0,0,0,
0,0,0,0,0,0,0,0,0,0,0,0,0,0,0,0,
0,0,0,0,0,0,0,0,0,0,0,0,0,0,0,0,
0,0,0,0,0,0,0,0,0,0,0,0,0,0,0,0,
0,0,0,0,0,0,0,0,0,0,0,0,0,0,0,0,
0,0,0,0,0,39,40,0,0,0,0,0,0,0,0,0,
0,0,0,0,0,0,0,0,39,40,0,0,0,0,0,0
</chunk>
   <chunk x="48" y="112" width="16" height="16">
0,0,0,0,0,0,0,39,40,29,30,30,50,0,0,0,
0,0,0,0,0,0,0,0,0,49,50,50,0,0,0,0,
0,0,0,0,0,0,0,0,0,0,0,0,0,0,0,0,
29,30,30,29,29,30,0,0,0,0,0,0,0,0,0,0,
30,29,29,49,29,30,0,0,0,0,0,29,30,0,0,0,
50,49,49,50,351,50,0,0,0,0,0,49,50,0,0,0,
39,40,40,0,0,0,0,0,0,0,0,0,0,0,0,0,
39,40,0,0,0,0,0,0,0,0,0,0,0,0,0,29,
0,0,0,0,0,0,0,0,0,0,0,0,0,0,0,49,
0,0,39,40,0,0,0,0,0,0,0,0,0,0,0,0,
0,0,0,0,0,0,0,0,0,0,0,0,0,0,0,0,
0,0,0,0,0,0,0,0,0,0,0,0,0,0,0,0,
0,0,0,0,0,0,0,0,0,0,0,0,0,0,0,0,
0,0,0,0,0,0,0,0,0,0,0,0,0,0,0,0,
0,0,0,0,0,0,0,0,0,0,0,0,0,0,0,0,
0,0,0,0,0,0,0,0,0,0,0,0,0,0,0,0
</chunk>
   <chunk x="64" y="112" width="16" height="16">
0,0,0,0,0,0,0,0,0,0,0,29,30,0,0,29,
0,29,30,0,0,0,0,0,0,0,0,0,0,0,0,49,
0,49,50,0,0,0,0,0,0,0,0,0,0,29,30,49,
0,0,0,0,0,0,0,0,29,29,30,0,0,49,50,0,
0,0,0,0,0,0,0,0,49,49,50,0,0,0,0,0,
0,0,0,0,0,0,0,0,0,0,0,0,29,30,0,0,
0,0,0,0,0,0,0,0,0,0,0,0,49,50,0,0,
30,0,0,0,0,0,0,0,0,0,0,0,0,0,0,0,
50,0,0,0,0,0,0,0,0,0,0,0,0,0,0,0,
0,0,0,0,0,0,0,0,0,0,0,0,0,0,0,0,
0,0,0,0,0,0,0,0,0,0,0,0,0,0,0,0,
0,0,0,0,0,0,0,0,0,0,0,0,0,0,0,0,
0,0,0,0,0,0,0,0,0,0,0,0,0,0,0,0,
0,0,0,0,0,0,0,0,0,0,0,0,0,0,0,0,
0,0,0,0,0,0,0,0,0,0,0,0,0,0,0,0,
0,0,0,0,0,0,0,0,0,0,0,0,0,0,0,0
</chunk>
   <chunk x="80" y="112" width="16" height="16">
29,30,0,0,0,0,0,0,39,40,40,0,0,0,0,0,
49,50,0,0,0,0,0,39,40,40,0,0,0,0,0,0,
50,0,0,0,0,0,0,0,0,0,0,0,0,0,0,0,
0,0,0,0,0,0,0,0,0,0,0,0,0,0,0,0,
0,0,0,0,0,0,0,0,0,0,0,0,0,0,0,0,
0,0,0,0,0,0,0,0,0,0,0,0,0,0,0,0,
0,0,0,0,0,0,0,0,0,0,0,0,0,0,0,0,
0,0,0,0,0,0,0,0,0,0,0,0,0,0,0,0,
0,0,0,0,0,0,0,0,0,0,0,0,0,0,0,0,
0,0,0,0,0,0,0,0,0,0,0,0,0,0,0,0,
0,0,0,0,0,0,0,0,0,0,0,0,0,0,39,40,
0,0,0,0,0,0,0,0,0,0,0,0,0,0,0,0,
0,0,0,0,0,0,0,0,0,0,0,0,0,0,0,0,
0,0,0,0,0,0,0,0,0,0,0,0,0,0,0,0,
0,0,0,0,0,0,0,0,0,0,0,0,0,0,0,0,
0,0,0,0,0,0,0,0,0,0,0,0,0,0,0,0
</chunk>
   <chunk x="96" y="112" width="16" height="16">
0,0,0,0,0,0,0,0,0,0,0,0,0,0,0,0,
0,0,0,0,0,0,0,0,0,0,0,0,0,0,0,0,
0,0,0,0,0,0,0,0,0,0,0,0,0,0,0,0,
0,0,0,0,0,0,0,0,0,0,0,0,0,0,0,0,
0,0,0,0,0,0,0,0,0,0,0,0,0,0,0,0,
0,0,0,0,0,0,0,0,0,0,0,0,0,0,0,0,
0,0,0,0,0,0,0,0,0,0,0,0,0,0,0,0,
0,0,0,0,0,0,0,39,40,0,0,0,0,0,0,0,
0,0,0,0,0,0,0,0,0,0,0,0,0,0,0,0,
0,0,0,0,0,0,0,0,0,0,0,0,0,0,0,0,
0,0,0,0,0,0,0,0,0,0,0,0,0,0,0,0,
0,0,0,0,0,0,0,0,0,0,0,0,0,0,0,0,
0,0,0,0,0,0,0,0,0,0,0,0,0,0,0,0,
0,0,0,0,0,0,0,0,0,0,0,0,0,0,0,0,
0,0,0,0,0,0,0,0,0,0,0,0,0,0,0,0,
0,0,0,0,0,0,0,0,0,0,0,0,0,0,0,0
</chunk>
   <chunk x="112" y="112" width="16" height="16">
0,0,0,0,0,0,0,0,0,0,0,0,0,0,0,0,
0,0,0,0,0,0,0,0,0,0,0,0,0,0,0,0,
0,0,0,0,0,0,0,0,0,0,0,0,0,0,0,0,
0,0,0,0,0,0,0,0,0,0,0,0,0,0,0,0,
0,0,0,0,0,0,0,0,0,0,0,0,0,0,0,0,
0,0,0,0,0,0,0,0,0,0,0,0,0,0,0,0,
0,0,0,0,0,0,0,0,0,0,0,0,0,0,0,0,
0,0,0,0,0,0,0,0,0,0,0,0,0,0,0,0,
0,0,0,0,0,0,0,0,0,0,0,0,0,0,0,0,
0,0,0,0,0,0,0,0,0,0,0,0,0,0,0,0,
0,0,0,0,0,0,0,0,0,0,0,0,0,0,0,0,
0,0,0,0,0,0,0,0,0,0,0,0,0,0,0,0,
0,0,0,0,0,0,0,0,0,0,0,0,0,0,0,0,
0,0,0,0,0,0,0,0,0,0,0,0,0,0,0,0,
0,0,0,0,0,0,0,0,0,0,0,0,0,0,0,0,
0,0,39,40,0,0,0,0,0,39,40,0,0,0,0,0
</chunk>
   <chunk x="0" y="128" width="16" height="16">
0,0,0,0,0,0,0,0,0,0,0,0,0,0,0,0,
0,0,0,0,0,0,0,0,0,0,0,0,0,0,0,0,
0,0,0,0,0,0,0,0,0,0,0,39,40,0,0,0,
0,0,0,0,0,0,0,0,0,0,0,0,0,0,0,0,
0,0,0,0,0,0,0,0,0,0,0,0,0,0,0,0,
0,0,0,0,0,0,0,0,0,0,0,0,0,0,0,0,
0,0,0,0,0,0,0,0,0,0,0,0,0,0,0,0,
0,0,0,0,0,0,0,0,0,0,0,0,0,0,0,0,
0,0,0,0,0,0,0,0,0,0,0,0,0,0,0,0,
0,0,0,0,0,0,0,0,0,0,0,0,0,0,0,0,
0,0,0,0,0,0,0,0,0,0,0,0,0,0,0,0,
0,0,0,0,0,0,0,0,0,0,0,0,0,0,0,0,
0,0,0,0,0,0,0,0,0,0,0,0,0,0,0,0,
0,0,0,0,0,0,0,0,0,0,0,0,0,0,0,0,
0,0,0,0,0,0,0,0,0,0,0,0,0,0,0,0,
0,0,0,0,0,0,0,0,0,0,0,0,0,0,0,0
</chunk>
   <chunk x="16" y="128" width="16" height="16">
0,0,0,0,0,0,0,0,0,0,0,0,0,0,0,0,
39,40,40,0,0,0,0,0,0,0,0,0,0,0,0,0,
0,0,0,0,0,0,0,0,0,0,0,0,0,0,0,0,
0,0,0,0,0,0,0,0,0,0,0,0,0,0,0,0,
0,0,0,0,0,0,0,0,0,0,0,0,0,0,0,0,
0,0,0,0,0,0,0,0,0,0,0,0,0,0,0,0,
0,0,0,0,0,0,0,0,0,0,0,0,0,0,0,0,
0,0,0,0,0,0,0,0,0,0,0,0,0,0,0,0,
0,0,0,0,0,0,0,0,0,0,0,0,0,0,0,0,
0,0,0,0,0,0,0,0,0,0,0,0,0,0,0,0,
0,0,0,0,0,0,0,0,0,0,0,0,0,0,0,0,
0,0,0,0,0,0,39,39,40,0,0,0,0,0,0,0,
0,0,0,0,0,0,0,0,0,0,0,0,0,0,0,39,
0,0,0,0,0,0,0,0,39,40,0,0,0,0,0,0,
0,0,0,0,0,0,0,39,40,40,40,0,0,0,0,0,
0,0,0,0,0,39,40,0,0,0,0,0,0,0,0,0
</chunk>
   <chunk x="32" y="128" width="16" height="16">
0,0,0,0,0,0,0,0,0,0,0,0,0,0,0,0,
0,0,0,0,0,0,0,0,0,0,0,0,0,0,0,0,
0,0,0,0,0,0,0,39,40,0,0,39,40,0,0,0,
0,0,0,0,0,0,0,0,0,0,0,0,0,0,0,0,
0,0,0,0,0,0,0,0,0,0,0,0,0,0,0,0,
0,0,0,0,0,0,0,0,0,0,0,0,0,0,0,0,
0,0,0,0,0,0,0,0,0,0,0,0,0,0,0,0,
0,0,0,0,0,0,0,0,0,0,0,0,0,0,0,0,
0,0,0,0,0,0,0,0,0,0,0,0,0,0,0,0,
0,0,0,0,0,0,0,0,0,0,0,0,0,0,0,0,
0,0,0,0,0,0,0,0,0,0,0,0,0,0,0,0,
0,0,0,0,0,0,0,0,0,0,0,0,0,0,0,0,
39,40,0,0,0,0,0,0,0,0,0,0,0,0,0,0,
0,0,0,0,0,0,0,0,0,0,0,0,0,0,0,0,
0,0,0,0,0,0,0,0,0,0,0,0,0,0,0,39,
0,0,0,0,0,0,0,0,0,0,0,0,0,0,0,0
</chunk>
   <chunk x="48" y="128" width="16" height="16">
0,0,0,0,0,0,0,0,0,0,0,0,0,0,0,0,
0,0,0,0,0,0,0,0,0,0,0,0,0,0,0,0,
0,0,0,0,0,0,0,0,0,0,0,0,0,0,0,0,
0,0,0,0,0,0,0,0,0,0,0,0,0,0,0,0,
0,0,0,0,0,0,0,0,0,0,0,0,0,0,0,0,
0,0,0,0,0,0,0,0,0,0,0,0,0,0,0,0,
0,0,0,0,0,0,0,0,0,0,0,0,0,0,0,0,
0,0,0,0,0,0,0,0,0,0,0,0,0,0,0,0,
0,0,0,0,0,0,0,0,0,0,0,0,0,0,0,0,
0,0,0,0,0,0,0,0,0,0,0,0,0,0,0,0,
0,0,0,0,0,0,0,0,0,0,0,0,0,0,0,0,
0,0,0,0,0,0,0,0,0,0,0,0,0,0,0,0,
0,39,40,0,0,0,0,0,0,0,0,0,0,0,0,0,
0,0,0,0,0,0,0,0,0,0,0,0,0,0,0,0,
40,0,0,0,0,0,0,39,40,40,40,0,0,0,0,0,
0,0,0,0,0,0,0,0,0,0,0,0,0,0,0,0
</chunk>
   <chunk x="64" y="128" width="16" height="16">
0,0,0,0,0,0,0,0,0,39,40,40,0,0,0,0,
0,0,0,0,0,0,0,0,0,0,0,0,0,0,0,0,
0,0,0,39,40,40,0,0,0,0,0,0,0,0,0,39,
0,0,0,0,0,0,0,0,0,0,0,39,40,0,39,40,
0,0,0,0,0,0,0,0,0,0,39,40,0,0,0,0,
0,0,0,0,0,0,0,0,0,0,0,0,0,0,0,0,
0,0,0,0,0,0,0,0,0,0,0,0,0,0,0,0,
0,0,0,0,0,0,0,0,0,0,0,0,0,0,0,0,
0,0,0,0,0,0,0,0,0,0,0,0,0,0,0,0,
0,0,0,0,0,0,0,0,0,0,0,0,0,0,0,0,
0,0,0,0,0,0,0,0,0,0,0,0,39,40,0,0,
0,0,0,0,0,0,0,0,0,0,0,0,0,0,0,0,
0,0,0,0,0,0,0,0,0,0,0,0,0,0,0,0,
0,0,0,0,0,0,0,0,0,0,0,0,0,0,0,0,
0,0,0,0,0,0,0,0,0,0,0,0,0,0,0,0,
0,0,0,0,0,0,0,0,0,0,0,0,0,0,0,0
</chunk>
   <chunk x="80" y="128" width="16" height="16">
0,0,0,0,0,0,0,0,0,0,0,0,0,0,0,0,
0,0,0,0,0,0,0,0,0,0,0,0,0,0,0,0,
40,40,40,40,0,0,0,0,0,0,0,0,0,0,0,0,
40,40,40,0,0,0,0,0,0,0,0,0,0,0,0,0,
0,0,0,0,0,0,0,0,0,0,0,0,0,0,0,0,
0,0,0,0,0,39,40,40,0,0,0,0,0,0,0,0,
39,40,0,0,0,0,0,0,0,0,0,0,0,0,0,0,
0,0,0,39,40,0,0,0,0,0,0,0,0,0,0,0,
0,39,40,40,0,0,0,0,0,0,0,0,0,0,0,0,
0,0,0,0,0,0,0,0,0,0,39,39,40,0,0,0,
0,0,0,0,0,0,0,0,0,0,0,0,0,0,0,0,
0,0,0,0,0,0,0,0,0,0,0,0,0,0,0,0,
0,0,0,0,0,0,0,0,0,0,0,0,0,0,0,0,
0,0,0,0,0,0,0,0,0,0,0,0,39,40,40,0,
0,0,0,0,0,0,0,0,0,0,0,0,39,40,0,0,
0,0,0,0,0,0,0,0,0,0,0,0,0,0,0,0
</chunk>
   <chunk x="96" y="128" width="16" height="16">
0,0,0,0,0,0,0,0,0,0,0,0,0,0,0,0,
0,0,0,0,0,0,0,0,0,0,0,0,0,0,0,0,
0,0,0,0,0,0,0,0,0,0,0,0,0,0,0,0,
0,0,0,0,0,0,0,0,0,0,0,0,0,0,0,0,
0,0,0,0,0,0,0,0,0,0,0,0,0,0,0,0,
0,0,0,0,0,0,0,0,0,0,0,0,0,0,0,39,
0,0,0,0,0,0,0,0,0,0,0,0,0,0,0,0,
0,0,0,0,0,0,0,0,0,0,0,0,0,0,0,0,
0,0,0,0,0,0,0,0,0,0,0,0,0,0,0,0,
0,0,39,39,40,0,0,0,0,0,0,0,0,0,0,0,
0,0,0,0,0,0,0,0,0,0,0,0,0,0,0,0,
0,0,0,0,0,0,0,0,0,0,0,0,0,0,0,0,
0,0,0,0,0,0,0,0,0,0,0,0,0,0,0,0,
0,0,0,0,0,0,0,0,0,0,0,0,0,0,0,0,
0,0,0,0,0,0,0,0,0,0,0,0,0,0,0,0,
0,0,0,0,0,0,0,0,0,0,0,0,0,0,0,0
</chunk>
   <chunk x="112" y="128" width="16" height="16">
0,0,0,0,0,0,0,0,0,0,0,0,0,0,0,0,
39,40,0,0,0,0,39,40,0,0,0,0,0,0,0,0,
0,0,0,0,0,0,0,0,0,0,0,0,0,0,0,0,
0,0,0,0,0,0,0,0,0,0,0,0,0,0,0,0,
0,0,0,0,0,0,0,0,0,0,0,0,0,0,0,0,
40,0,0,0,0,0,0,0,0,0,0,0,0,0,0,0,
0,0,0,0,0,0,0,0,0,0,0,0,0,0,0,0,
0,0,0,0,0,0,0,0,0,0,0,0,0,0,0,0,
0,0,0,0,0,0,0,0,0,0,0,0,0,0,0,0,
0,0,0,0,0,0,29,30,0,0,0,0,0,0,0,0,
0,0,0,0,0,0,0,0,0,0,0,0,0,0,0,0,
0,0,0,0,0,0,0,0,0,0,0,0,0,0,0,0,
0,0,0,0,0,0,0,0,0,0,0,0,29,30,0,0,
0,0,0,0,0,0,0,0,0,0,0,0,0,0,0,0,
0,0,0,0,0,0,0,29,30,0,0,0,29,29,29,30,
0,0,0,0,0,0,0,29,30,0,0,0,29,30,0,0
</chunk>
   <chunk x="128" y="128" width="16" height="16">
0,0,0,0,0,0,0,0,0,0,0,0,0,0,0,0,
0,0,0,0,0,0,0,0,0,0,0,0,0,0,0,0,
0,0,0,0,0,0,0,0,0,0,0,0,0,0,0,0,
0,0,0,0,0,0,0,0,0,0,0,0,0,0,0,0,
0,0,0,0,0,0,0,0,0,0,0,0,0,0,0,0,
0,0,0,0,0,0,0,0,0,0,0,0,0,0,0,0,
0,0,0,0,0,0,0,0,0,0,0,0,0,0,0,0,
0,0,0,29,29,30,351,0,0,0,0,29,30,0,0,0,
0,0,0,0,0,0,0,0,0,0,0,0,0,0,0,0,
0,0,0,0,0,0,29,30,0,0,351,0,0,29,30,0,
0,0,0,351,0,0,0,0,0,0,0,0,0,0,0,0,
0,0,0,0,0,0,0,0,0,0,0,0,0,0,0,0,
0,0,0,0,29,30,0,0,0,0,0,0,0,0,0,0,
0,0,0,0,0,0,0,0,0,0,0,0,0,0,0,0,
29,30,0,0,0,0,29,30,0,0,0,0,0,0,0,0,
0,0,0,0,0,0,29,30,0,0,0,0,0,0,0,0
</chunk>
   <chunk x="0" y="144" width="16" height="16">
0,0,0,0,0,0,0,0,0,0,0,0,0,0,0,0,
0,0,0,0,0,0,0,0,0,0,0,0,0,0,0,0,
0,0,0,0,0,0,0,0,0,0,0,0,0,0,0,0,
0,0,0,0,0,0,0,0,0,0,0,0,0,0,0,0,
0,0,0,0,0,0,0,0,0,0,0,0,0,0,0,0,
0,0,0,0,0,0,0,0,0,0,0,0,0,0,0,0,
0,0,0,0,0,0,0,0,0,0,0,0,0,0,0,0,
0,0,0,0,0,0,0,0,0,0,0,0,0,0,0,0,
0,0,0,0,0,0,0,0,0,0,0,0,0,0,0,0,
0,0,0,0,0,0,0,0,0,0,0,0,0,0,0,0,
0,0,0,0,0,0,0,0,0,0,0,0,0,0,0,0,
0,0,0,0,0,39,40,0,0,0,0,0,0,0,0,0,
0,0,0,0,39,40,40,0,0,0,0,0,0,0,0,0,
0,0,0,0,0,0,0,0,0,0,0,0,0,0,0,0,
0,0,0,39,40,40,40,39,40,0,0,0,0,0,0,0,
0,0,39,40,40,40,0,0,0,0,0,0,0,0,0,0
</chunk>
   <chunk x="16" y="144" width="16" height="16">
0,0,0,0,0,0,0,0,0,0,0,0,0,0,0,0,
0,0,0,0,0,0,0,0,0,0,0,0,0,0,0,0,
0,0,0,0,0,0,0,0,0,0,0,39,40,0,0,0,
0,0,0,39,40,0,0,0,0,0,0,0,0,0,0,0,
0,0,0,0,0,0,0,0,0,0,0,0,0,0,0,0,
0,0,0,0,0,0,0,0,0,0,0,0,0,0,0,0,
0,39,40,0,39,40,0,0,0,0,0,0,0,0,0,0,
0,0,0,0,0,0,0,0,0,0,0,0,0,0,0,0,
0,0,0,0,0,0,0,0,0,0,0,0,0,0,0,0,
0,0,0,0,0,0,0,0,0,0,0,0,0,0,0,0,
0,0,0,0,0,0,0,0,0,0,0,0,0,0,0,0,
0,0,0,0,0,29,29,30,0,0,0,0,0,0,0,0,
0,0,0,0,0,0,0,0,0,0,0,0,0,0,0,0,
0,0,0,0,0,0,0,29,30,30,30,0,0,0,0,0,
0,0,0,0,0,0,0,0,0,29,30,30,0,0,0,0,
0,0,0,0,0,0,0,0,0,0,29,30,0,0,0,0
</chunk>
   <chunk x="32" y="144" width="16" height="16">
0,0,0,0,0,0,0,0,0,0,0,0,0,0,0,0,
0,0,0,0,0,0,0,0,0,0,0,0,0,0,0,0,
0,0,0,0,0,0,0,0,0,0,0,0,0,0,0,0,
0,0,0,0,0,0,0,0,0,0,0,0,0,0,0,0,
0,0,39,40,0,0,0,0,0,0,0,0,0,0,0,0,
0,0,0,0,0,0,0,0,0,0,0,0,0,0,0,0,
0,0,0,0,0,0,0,0,0,0,0,0,0,0,0,0,
0,0,0,0,0,0,0,0,0,0,0,0,0,0,0,0,
0,0,0,0,0,0,0,0,0,0,0,0,0,0,0,0,
0,0,0,0,0,0,0,0,0,0,0,0,0,0,0,0,
0,0,0,0,0,0,0,0,0,0,0,0,0,0,0,0,
0,0,0,0,0,0,0,0,0,0,0,0,0,0,0,0,
0,0,0,0,0,0,0,0,0,0,0,0,0,0,0,0,
0,0,0,0,0,0,0,0,0,0,0,0,0,0,0,0,
0,0,0,0,0,0,0,0,0,0,0,0,0,0,0,0,
0,0,0,0,0,0,0,0,0,0,0,0,0,0,0,0
</chunk>
   <chunk x="48" y="144" width="16" height="16">
0,0,0,0,0,0,0,0,0,0,0,0,0,0,0,39,
0,0,0,0,0,0,0,0,0,0,0,0,0,0,0,0,
0,0,0,0,0,0,0,0,0,0,0,0,0,0,0,0,
0,0,0,0,0,0,0,0,0,0,0,0,0,0,0,0,
0,0,0,0,0,0,0,0,0,0,0,0,0,0,0,0,
0,0,0,0,0,0,0,0,0,0,0,0,0,0,0,0,
0,0,0,0,0,0,0,0,0,0,0,0,0,0,0,0,
0,0,0,0,0,0,0,0,0,0,0,0,0,0,0,0,
0,0,0,0,0,0,0,0,0,0,0,0,0,0,0,0,
0,0,0,0,0,0,0,0,0,0,0,0,0,0,0,0,
0,0,0,0,0,0,0,0,0,0,0,0,0,0,0,0,
0,0,0,0,0,0,0,0,0,0,0,0,0,0,0,0,
0,0,0,0,0,0,0,0,0,0,0,0,0,0,0,0,
0,0,0,0,0,0,0,0,0,0,0,0,0,0,0,0,
0,0,0,0,0,0,0,0,0,0,0,29,30,0,0,0,
0,0,0,0,0,0,0,0,0,0,0,0,0,0,0,0
</chunk>
   <chunk x="64" y="144" width="16" height="16">
40,0,0,0,0,0,0,0,0,0,0,0,0,0,0,0,
0,0,0,0,0,0,0,0,0,0,0,0,0,0,0,0,
0,0,0,0,0,0,0,0,39,40,0,0,0,0,0,0,
0,0,0,0,0,0,0,0,0,0,0,0,0,0,0,0,
0,0,0,0,0,0,0,0,0,0,0,0,0,0,0,0,
0,0,0,39,40,0,0,0,0,0,0,0,0,0,0,0,
0,0,0,0,0,0,39,40,0,0,0,0,0,0,0,0,
0,0,0,0,0,0,0,0,0,0,0,0,0,0,0,0,
0,0,0,0,0,0,0,0,0,0,0,0,0,0,0,0,
0,0,0,0,0,0,0,0,0,0,0,0,0,0,0,0,
0,0,0,0,0,0,0,0,0,0,0,0,0,0,0,0,
0,0,0,0,0,0,0,0,0,0,0,0,0,0,0,0,
0,0,0,0,0,0,0,0,0,0,0,0,0,0,0,0,
0,0,0,0,0,0,0,0,0,0,0,0,0,0,0,0,
0,0,0,0,0,0,0,0,0,0,0,0,0,0,0,0,
0,0,0,0,0,0,0,0,0,0,0,0,0,0,0,0
</chunk>
   <chunk x="80" y="144" width="16" height="16">
0,0,0,0,0,0,0,0,0,0,0,0,0,0,0,0,
0,0,0,0,0,0,0,0,0,0,0,0,0,0,0,0,
0,0,0,0,0,0,0,0,0,0,0,0,0,0,0,0,
0,0,0,0,0,0,0,0,0,0,0,0,0,0,0,0,
0,0,0,0,0,0,0,0,0,0,0,0,0,0,0,0,
0,0,0,0,0,0,0,0,0,0,0,0,0,0,0,0,
0,0,0,0,0,0,0,0,0,0,0,0,0,0,0,0,
0,0,0,0,0,0,0,0,0,0,0,0,0,0,0,0,
0,0,0,0,0,0,0,0,0,0,0,0,0,0,0,0,
0,0,0,0,0,0,0,0,0,0,0,0,0,0,0,0,
0,0,0,0,0,0,0,0,0,0,0,0,0,0,0,0,
0,0,0,0,0,0,0,0,0,0,0,0,0,0,0,0,
0,0,0,0,0,0,0,0,0,0,0,0,0,0,0,0,
0,0,39,40,0,0,0,0,0,0,0,0,0,0,0,0,
0,0,0,0,0,0,0,0,0,0,0,0,0,0,0,0,
0,0,0,0,0,0,0,0,0,0,0,0,0,0,0,29
</chunk>
   <chunk x="96" y="144" width="16" height="16">
0,0,0,0,0,0,0,0,0,0,0,0,0,0,0,0,
0,0,0,0,0,0,0,0,0,0,0,0,0,0,0,0,
0,0,0,0,0,0,0,0,0,0,0,0,0,0,0,0,
0,0,0,0,0,0,0,0,0,0,0,0,0,0,0,0,
0,0,0,0,0,0,0,0,0,0,0,0,0,0,0,0,
0,0,0,0,0,0,0,0,0,0,0,0,0,0,0,0,
0,0,0,0,0,0,0,0,0,29,30,0,0,0,0,0,
0,0,0,0,0,0,0,0,0,0,0,0,0,0,0,0,
0,0,0,0,0,0,0,0,0,0,0,0,0,0,0,0,
29,30,0,0,0,0,0,0,0,0,0,0,0,0,0,0,
0,0,0,0,0,0,0,0,0,0,0,0,0,0,0,0,
0,0,0,0,0,0,0,0,0,0,0,0,0,0,0,0,
0,0,0,0,0,0,0,29,30,30,0,0,0,0,0,0,
0,0,0,0,0,0,0,0,0,0,0,0,0,0,0,0,
0,0,0,0,0,0,0,0,0,0,0,0,0,0,0,0,
30,0,0,0,0,0,0,0,0,0,0,0,0,0,0,0
</chunk>
   <chunk x="112" y="144" width="16" height="16">
0,0,0,0,0,0,0,0,0,0,0,0,0,0,0,0,
0,0,0,0,0,0,0,0,0,0,0,0,0,0,0,0,
0,0,0,0,0,0,0,0,0,0,0,0,0,0,0,0,
0,0,0,0,0,0,0,0,0,0,0,0,0,0,0,0,
0,0,0,0,0,0,0,0,0,0,0,0,0,0,0,0,
0,0,0,0,0,0,0,0,0,0,0,0,0,0,0,0,
0,0,0,0,0,0,0,0,0,0,0,0,0,0,0,0,
0,0,0,0,0,0,0,0,0,0,0,0,0,0,0,0,
0,0,0,0,0,0,0,0,0,0,0,0,0,0,0,0,
0,0,0,0,0,0,0,0,0,0,0,0,0,0,0,0,
0,0,0,0,0,0,0,0,0,0,29,30,0,0,0,0,
0,0,0,0,0,0,0,0,0,0,0,0,0,0,0,0,
0,0,0,0,0,0,0,0,0,0,0,0,0,0,0,0,
0,0,0,0,0,0,0,0,0,0,0,0,0,0,0,0,
0,0,0,0,0,0,0,0,0,0,0,0,0,0,0,0,
0,0,0,0,0,0,0,29,30,0,0,0,0,0,0,0
</chunk>
   <chunk x="128" y="144" width="16" height="16">
0,0,0,0,0,0,0,0,0,29,30,30,30,0,0,0,
0,0,0,0,0,0,0,29,29,30,0,0,0,0,0,0,
0,29,29,30,0,0,0,0,0,0,0,0,0,0,0,0,
0,0,0,0,29,30,0,0,0,0,0,29,30,0,0,0,
0,0,0,0,0,0,0,0,0,0,0,0,0,0,0,0,
0,0,0,0,29,30,29,30,30,0,29,30,0,0,0,0,
0,0,0,0,0,0,0,0,0,0,0,0,0,0,0,0,
0,0,0,29,30,30,30,0,0,0,0,0,0,0,0,0,
29,30,30,0,0,0,0,0,0,0,0,0,0,0,0,0,
0,0,0,0,0,0,0,0,0,0,0,0,0,0,0,0,
0,0,0,0,0,0,0,0,0,0,0,0,0,0,0,0,
0,0,0,0,0,0,0,0,0,0,0,0,0,0,0,0,
0,0,0,0,0,0,0,0,0,0,0,0,0,0,0,0,
0,0,0,0,0,0,0,0,0,0,0,0,0,0,0,0,
0,0,0,0,0,0,0,0,0,0,0,0,0,0,0,0,
0,0,0,0,0,0,0,0,0,0,0,0,0,0,0,0
</chunk>
   <chunk x="0" y="160" width="16" height="16">
0,0,0,0,0,0,0,0,0,0,0,0,0,0,0,0,
0,0,0,0,0,0,0,0,0,0,0,0,0,0,0,0,
0,0,0,0,0,39,40,0,0,0,0,0,0,0,0,0,
0,39,40,40,40,0,0,0,0,0,0,0,0,0,0,0,
0,0,0,0,0,0,0,0,0,0,0,0,0,0,0,0,
0,0,0,0,0,0,0,0,0,0,0,0,29,30,0,29,
0,0,0,0,0,0,0,0,0,0,0,0,0,0,0,0,
0,0,0,0,0,0,0,0,0,0,0,0,0,0,0,0,
0,0,0,0,0,0,0,0,0,0,0,0,0,0,0,0,
0,0,0,0,0,0,0,0,0,0,0,0,0,0,0,0,
0,0,0,0,0,39,40,40,0,0,0,0,0,0,0,0,
0,0,0,0,0,0,0,0,0,0,0,0,0,0,0,0,
0,0,0,0,0,0,0,0,0,0,0,0,0,0,0,0,
0,0,0,0,0,0,0,0,0,0,0,0,0,29,30,0,
0,0,0,0,0,0,0,0,0,0,0,0,0,0,0,0,
0,0,0,0,0,0,0,0,0,0,0,0,0,0,29,30
</chunk>
   <chunk x="16" y="160" width="16" height="16">
39,40,0,0,0,0,0,0,0,0,0,0,0,0,0,0,
0,0,0,0,0,0,0,0,0,29,29,30,0,0,0,0,
0,0,0,0,0,0,0,0,29,29,30,0,29,30,0,0,
0,0,0,0,0,0,0,0,29,30,0,0,29,30,0,0,
0,0,0,0,0,0,0,0,0,0,0,0,0,0,0,0,
30,30,30,0,0,0,0,0,0,0,0,0,0,0,0,0,
0,0,0,0,0,0,0,0,0,0,0,0,0,0,0,0,
0,0,0,0,0,0,0,0,0,0,0,0,0,0,0,0,
0,0,0,0,0,0,0,29,30,0,0,0,0,0,0,0,
0,0,0,0,0,0,0,0,0,0,0,0,0,0,0,0,
0,0,0,0,0,0,0,0,0,0,0,0,0,0,0,0,
0,0,0,0,0,29,30,0,0,0,0,0,0,0,0,0,
0,0,0,0,29,30,0,0,0,0,0,0,0,0,0,0,
0,0,0,29,30,0,0,0,0,0,0,0,0,0,0,0,
0,0,0,0,0,0,0,0,0,0,0,0,0,0,0,0,
30,30,30,0,0,0,0,0,0,0,0,0,0,0,0,0
</chunk>
   <chunk x="32" y="160" width="16" height="16">
0,0,0,0,0,0,0,0,0,0,0,0,0,0,0,0,
0,0,0,0,0,0,0,0,0,0,0,0,0,0,0,0,
0,0,0,0,0,0,0,0,0,0,0,0,0,0,0,0,
0,0,0,0,0,0,0,0,0,0,0,0,0,0,0,0,
0,0,0,0,0,0,0,0,0,0,0,0,0,0,0,0,
0,0,0,0,0,0,0,0,0,0,0,0,0,0,0,0,
0,0,0,0,0,0,0,0,0,0,0,0,0,0,0,0,
0,0,0,0,0,0,0,0,0,0,0,0,0,0,0,0,
0,0,0,0,0,0,0,0,0,0,0,0,0,0,0,0,
0,0,0,0,0,0,0,0,29,30,0,0,0,0,0,0,
0,0,0,0,0,0,0,0,29,30,0,0,0,0,0,0,
0,0,0,0,0,0,0,0,0,0,0,0,0,29,30,30,
0,29,30,0,0,0,0,0,0,0,0,0,0,0,0,0,
0,0,0,0,0,0,0,0,0,0,0,0,0,0,0,0,
0,0,0,0,0,0,0,0,0,0,0,0,0,0,0,0,
0,0,0,0,0,0,0,0,29,30,0,0,0,0,0,0
</chunk>
   <chunk x="48" y="160" width="16" height="16">
0,0,0,0,0,0,0,0,0,0,0,0,0,0,0,0,
0,0,0,0,0,0,0,0,0,0,0,0,0,0,0,0,
0,0,0,0,0,0,0,0,0,0,0,0,0,0,0,0,
0,0,0,0,0,0,0,0,0,0,0,0,0,0,0,0,
0,0,0,0,0,0,0,0,0,0,0,0,0,0,0,29,
0,0,0,0,0,0,29,30,0,0,0,0,0,0,0,0,
0,0,0,0,0,0,0,0,29,30,30,30,30,0,0,0,
29,30,0,0,0,0,0,0,0,0,0,0,0,0,0,0,
0,0,0,0,0,0,0,0,0,0,0,0,0,0,0,0,
0,0,0,0,0,0,0,0,0,0,0,0,0,0,0,0,
0,0,0,0,0,0,0,0,0,29,30,30,30,0,0,0,
30,30,30,0,0,0,0,0,0,0,0,0,0,0,0,0,
0,29,30,30,0,0,0,0,0,0,0,0,0,0,0,0,
0,0,0,0,0,0,0,0,0,0,0,0,0,0,0,0,
0,0,0,0,0,0,0,0,0,0,0,0,0,0,0,0,
0,0,0,0,0,0,0,0,0,0,0,0,0,0,0,0
</chunk>
   <chunk x="64" y="160" width="16" height="16">
0,0,0,0,0,0,0,0,0,0,0,0,0,39,40,40,
29,30,0,0,0,0,0,0,0,0,0,39,40,0,0,0,
0,29,30,0,0,0,29,30,0,0,0,39,40,0,0,0,
0,0,0,0,0,0,0,0,0,0,0,0,0,0,0,0,
29,30,0,0,0,0,0,0,0,0,0,29,30,0,0,0,
0,0,0,0,0,0,0,0,0,0,0,0,29,29,29,30,
0,0,0,0,0,0,0,0,0,0,0,0,0,0,0,0,
0,0,0,0,0,0,0,0,0,0,0,0,0,0,0,0,
0,0,0,0,0,0,0,0,0,0,0,0,0,0,0,0,
0,29,30,0,0,0,0,0,0,0,0,0,0,0,0,0,
0,0,29,30,30,0,0,0,0,0,0,0,0,0,0,0,
0,0,0,0,0,0,0,0,0,0,0,0,0,0,0,0,
0,0,0,29,30,0,0,0,0,0,0,0,0,0,0,0,
0,0,0,0,0,0,0,0,0,0,0,29,30,0,0,0,
0,0,0,0,0,0,0,0,0,0,0,29,30,0,0,0,
0,0,0,0,0,0,0,0,0,0,0,0,0,0,29,29
</chunk>
   <chunk x="80" y="160" width="16" height="16">
0,0,0,0,0,0,0,0,0,0,0,0,0,0,0,0,
0,0,0,0,0,0,0,0,0,0,0,0,0,0,0,0,
0,0,0,0,0,0,0,0,0,0,0,0,0,0,0,0,
0,0,0,0,0,0,0,0,0,0,0,0,0,0,0,0,
0,0,0,0,0,0,0,0,0,0,0,0,0,0,29,30,
0,0,0,0,0,0,0,0,0,0,0,0,0,0,0,0,
0,0,29,29,30,0,0,0,0,0,0,0,0,0,0,0,
0,0,0,29,29,30,0,0,0,0,0,0,29,29,30,0,
0,0,0,0,29,30,0,0,0,0,0,0,0,0,0,0,
0,0,0,0,0,0,0,0,0,0,0,0,0,0,29,30,
0,0,0,0,29,30,0,0,0,0,0,0,0,0,0,0,
0,0,0,0,29,30,0,0,0,0,0,29,30,0,0,0,
0,0,0,0,29,30,0,0,0,0,29,30,0,0,0,0,
0,0,0,0,29,29,29,29,29,30,0,0,0,0,0,0,
29,30,0,0,0,0,0,0,29,30,0,0,0,0,0,0,
30,0,0,0,0,0,0,0,0,0,0,0,0,0,0,0
</chunk>
   <chunk x="96" y="160" width="16" height="16">
0,0,0,0,0,0,0,0,0,0,0,0,0,0,0,0,
0,0,0,0,0,29,30,0,0,0,0,0,0,0,0,0,
0,0,0,0,0,0,0,0,0,0,0,0,0,0,0,0,
0,0,0,0,0,0,0,0,0,0,0,0,0,0,0,0,
0,0,0,0,0,0,0,0,0,0,0,0,0,0,0,0,
0,0,0,0,0,0,0,0,0,0,0,0,0,0,0,0,
0,0,0,0,0,0,0,0,0,0,29,30,0,0,0,0,
0,0,0,0,0,0,0,0,0,0,0,0,0,0,0,0,
0,0,0,0,0,0,0,0,0,0,0,0,0,0,0,0,
0,0,0,0,0,0,0,0,0,0,0,0,0,0,0,29,
0,0,0,0,0,0,0,0,0,0,0,0,0,0,0,0,
0,0,0,0,0,0,0,0,0,0,0,0,0,29,30,30,
0,0,0,0,0,0,0,0,0,0,0,0,0,0,0,0,
0,0,0,0,0,0,0,0,0,0,29,30,0,0,0,0,
0,0,0,0,0,0,0,0,0,0,29,30,0,0,0,0,
0,0,0,0,29,30,0,0,0,0,0,0,0,0,0,0
</chunk>
   <chunk x="112" y="160" width="16" height="16">
0,0,0,0,0,0,0,29,30,0,0,0,0,0,0,0,
0,0,0,0,0,0,0,0,0,0,0,0,0,0,0,0,
0,0,0,0,0,0,0,0,0,0,0,0,29,30,0,0,
0,0,0,0,0,0,0,0,0,0,0,0,0,0,0,0,
0,0,0,0,0,0,0,0,0,0,0,0,0,0,0,0,
0,0,0,0,0,0,0,0,0,0,0,0,0,0,0,0,
0,0,0,0,0,0,0,0,0,0,0,0,0,0,0,0,
0,0,0,0,0,0,0,0,0,0,0,0,29,30,0,0,
0,0,0,0,0,0,0,0,0,0,29,30,30,30,0,0,
30,0,0,0,0,0,0,0,0,0,0,0,0,29,29,29,
0,0,0,0,0,0,0,0,0,0,0,0,0,0,0,0,
30,0,0,0,0,0,0,0,0,0,0,0,0,0,0,0,
0,0,0,0,0,0,0,0,0,0,0,0,0,0,0,0,
0,0,0,0,0,0,0,0,0,0,0,0,0,0,0,0,
0,0,0,0,0,0,0,0,0,0,0,0,0,0,0,0,
0,0,0,0,0,0,0,29,29,29,30,0,0,0,0,0
</chunk>
   <chunk x="128" y="160" width="16" height="16">
0,0,0,0,0,0,0,0,0,0,0,0,0,0,0,0,
0,0,0,0,29,30,30,0,0,0,0,0,0,0,0,0,
0,0,0,0,0,0,0,0,0,0,0,0,0,0,0,0,
0,0,0,0,0,0,0,0,29,29,30,0,0,0,0,0,
0,0,0,0,0,0,0,0,0,29,30,0,0,0,0,0,
0,0,0,0,0,0,0,0,0,0,0,0,29,29,30,0,
0,0,0,0,0,0,0,0,0,0,0,0,29,30,0,0,
0,0,29,30,30,30,0,0,0,0,0,29,29,30,0,0,
0,0,0,0,0,0,0,0,0,29,29,29,30,0,0,0,
29,30,0,0,0,29,29,29,29,29,30,0,0,0,0,0,
0,0,0,0,0,0,0,0,0,0,0,0,0,0,0,0,
0,0,0,0,0,0,0,0,0,0,0,0,0,0,0,0,
0,0,0,0,0,0,0,29,30,30,0,0,29,30,0,0,
0,0,0,0,0,0,0,0,29,30,30,0,0,0,0,0,
0,0,0,0,0,0,0,0,0,0,0,0,0,0,0,0,
0,0,0,0,0,0,0,0,0,0,0,0,0,0,0,0
</chunk>
   <chunk x="0" y="176" width="16" height="16">
0,0,0,0,0,0,0,0,0,0,0,29,30,0,0,0,
0,0,0,0,0,0,0,0,0,0,29,30,30,0,0,0,
0,0,0,0,0,0,29,30,30,29,30,0,0,0,0,0,
0,0,0,0,0,0,29,30,0,0,0,0,0,0,0,0,
0,0,0,0,0,0,0,0,0,0,0,0,0,0,0,0,
0,0,0,0,0,0,0,0,0,0,0,0,0,0,0,0,
0,0,0,0,0,0,0,0,0,0,0,0,0,0,0,0,
0,0,0,0,0,0,0,0,0,0,0,0,0,0,0,0,
0,0,0,0,0,0,0,0,0,0,0,0,0,0,0,0,
0,0,0,0,0,0,0,0,0,0,0,0,0,0,0,0,
0,0,0,0,0,0,0,0,0,0,0,0,0,0,0,0,
0,0,0,0,0,0,0,0,0,0,0,0,0,0,0,0,
0,0,0,0,0,0,0,0,0,0,0,0,0,0,0,0,
0,0,0,0,0,0,0,0,0,0,0,0,0,0,0,0,
0,0,0,0,0,0,0,0,0,0,0,0,0,0,0,0,
0,0,0,0,0,0,0,0,0,0,0,0,0,0,0,0
</chunk>
   <chunk x="16" y="176" width="16" height="16">
0,0,0,0,0,0,0,0,0,0,0,0,0,0,0,0,
0,0,0,0,0,0,0,0,0,0,0,0,29,30,30,0,
0,0,0,0,0,0,0,0,29,30,30,30,30,30,0,0,
0,0,0,0,29,30,30,30,30,0,0,0,0,0,0,0,
0,0,0,0,0,0,0,0,0,0,0,0,0,0,0,0,
0,0,0,0,0,0,0,0,0,0,0,0,0,0,0,0,
0,0,0,0,0,0,0,0,0,0,0,0,0,0,0,0,
0,0,0,0,0,0,0,0,0,0,0,0,0,0,0,0,
0,0,0,0,0,0,0,0,0,0,0,0,0,0,0,0,
0,0,0,0,0,0,0,0,0,0,0,0,0,0,0,0,
0,0,0,0,0,0,0,0,0,0,0,0,0,0,0,0,
0,0,0,0,0,0,0,0,0,0,0,0,0,0,0,0,
0,0,0,0,0,0,0,0,0,0,0,0,0,0,0,0,
0,0,0,0,0,0,0,0,0,0,0,0,0,0,0,0,
0,0,0,0,0,0,0,0,0,0,0,0,0,0,0,0,
0,0,0,0,0,0,0,0,0,0,0,0,0,0,0,0
</chunk>
   <chunk x="32" y="176" width="16" height="16">
0,0,0,0,0,0,0,0,0,0,0,0,0,0,0,0,
0,0,0,0,0,0,0,0,0,0,0,0,0,0,0,0,
0,0,0,0,0,0,0,0,0,0,0,0,0,0,0,0,
0,0,0,0,0,0,0,0,0,0,0,0,0,0,0,29,
29,29,30,0,0,0,0,0,0,0,0,0,0,0,0,0,
0,0,0,0,0,0,0,0,0,0,0,0,0,0,0,0,
0,0,0,0,0,0,0,0,0,0,0,0,0,0,0,0,
0,0,0,0,0,0,0,0,0,0,0,0,0,0,0,0,
0,0,0,0,0,0,0,0,0,0,0,0,0,0,0,0,
0,0,0,0,0,0,0,0,0,0,0,0,0,0,0,0,
0,0,0,0,0,0,0,0,0,0,0,0,0,0,0,0,
0,0,0,0,0,0,0,0,0,0,0,0,0,0,0,0,
0,0,0,0,0,0,0,0,0,0,0,0,0,0,0,0,
0,0,0,0,0,0,0,0,0,0,0,0,0,0,0,0,
0,0,0,0,0,0,0,0,0,0,0,0,0,0,0,0,
0,0,0,0,0,0,0,0,0,0,0,0,0,0,0,0
</chunk>
   <chunk x="48" y="176" width="16" height="16">
29,30,0,0,0,0,0,0,0,0,0,0,0,0,0,0,
0,0,0,0,0,0,0,0,0,0,0,0,0,0,29,30,
29,30,0,0,0,0,0,0,0,0,0,0,0,0,0,0,
30,30,0,0,0,0,0,0,0,0,0,0,0,0,0,0,
0,0,0,0,0,0,0,0,0,29,30,30,0,0,0,0,
0,0,0,0,0,0,0,0,0,0,0,0,0,0,0,0,
0,0,0,0,0,0,0,0,0,0,0,0,0,0,0,0,
0,0,0,0,0,0,0,0,0,0,0,0,0,0,0,0,
0,0,0,0,0,0,0,0,0,0,0,0,0,0,0,0,
0,0,0,0,0,0,0,0,0,0,0,0,0,0,0,0,
0,0,0,0,0,0,0,0,0,0,0,0,0,0,0,0,
0,0,0,0,0,0,0,0,0,0,0,0,0,0,0,0,
0,0,0,0,0,0,0,0,0,0,0,0,0,0,0,0,
0,0,0,0,0,0,0,0,0,0,0,0,0,0,0,0,
0,0,0,0,0,0,0,0,0,0,0,0,0,0,0,0,
0,0,0,0,0,0,0,0,0,0,0,0,0,0,0,0
</chunk>
   <chunk x="64" y="176" width="16" height="16">
0,0,0,0,0,29,30,0,0,0,0,0,0,0,0,0,
0,0,0,0,0,0,0,0,0,0,0,0,0,0,0,0,
0,0,0,0,0,0,0,0,0,0,0,0,0,0,0,0,
0,0,0,0,0,0,0,0,0,0,0,0,0,0,0,0,
0,0,0,0,0,0,0,0,0,0,0,0,0,0,0,0,
0,0,0,0,0,0,0,0,0,0,0,0,0,0,0,0,
0,0,0,0,0,0,0,0,0,0,0,0,0,0,0,0,
0,0,0,0,0,0,0,0,0,0,0,0,0,0,0,0,
0,0,0,0,0,0,0,0,0,0,0,0,0,0,0,0,
0,0,0,0,0,0,0,0,0,0,0,0,0,0,0,0,
0,0,0,0,0,0,0,0,0,0,0,0,0,0,0,0,
0,0,0,0,0,0,0,0,0,0,0,0,0,0,0,0,
0,0,0,0,0,0,0,0,0,0,0,0,0,0,0,0,
0,0,0,0,0,0,0,0,0,0,0,0,0,0,0,0,
0,0,0,0,0,0,0,0,0,0,0,0,0,0,0,0,
0,0,0,0,0,0,0,0,0,0,0,0,0,0,0,0
</chunk>
   <chunk x="80" y="176" width="16" height="16">
0,0,0,0,29,29,30,0,0,0,0,0,0,0,0,29,
0,0,0,0,29,30,30,0,0,0,0,0,0,0,0,29,
0,0,0,0,0,0,0,0,0,0,0,0,0,0,0,0,
0,0,0,0,0,0,0,0,0,0,0,0,0,0,0,0,
0,0,0,0,0,0,0,0,0,0,0,0,0,0,0,0,
0,0,0,0,0,0,0,0,0,0,0,0,0,0,0,0,
0,0,0,0,0,0,0,0,0,0,0,0,0,0,0,0,
0,0,0,0,0,0,0,0,0,0,0,0,0,0,0,0,
0,0,0,0,0,0,0,0,0,0,0,0,0,0,0,0,
0,0,0,0,0,0,0,0,0,0,0,0,0,0,0,0,
0,0,0,0,0,0,0,0,0,0,0,0,0,0,0,0,
0,0,0,0,0,0,0,0,0,0,0,0,0,0,0,0,
0,0,0,0,0,0,0,0,0,0,0,0,0,0,0,0,
0,0,0,0,0,0,0,0,0,0,0,0,0,0,0,0,
0,0,0,0,0,0,0,0,0,0,0,0,0,0,0,0,
0,0,0,0,0,0,0,0,0,0,0,0,0,0,0,0
</chunk>
   <chunk x="96" y="176" width="16" height="16">
30,30,30,30,30,30,30,30,0,0,30,29,30,0,0,0,
30,0,0,0,0,0,0,0,29,30,30,0,0,0,0,0,
0,0,0,0,0,0,0,0,0,0,0,0,0,0,0,0,
0,0,0,0,0,0,0,0,0,0,0,0,0,0,0,0,
0,0,0,0,0,0,0,0,0,0,0,0,0,0,0,0,
0,0,0,0,0,0,0,0,0,0,0,0,0,0,0,0,
0,0,0,0,0,0,0,0,0,0,0,0,0,0,0,0,
0,0,0,0,0,0,0,0,0,0,0,0,0,0,0,0,
0,0,0,0,0,0,0,0,0,0,0,0,0,0,0,0,
0,0,0,0,0,0,0,0,0,0,0,0,0,0,0,0,
0,0,0,0,0,0,0,0,0,0,0,0,0,0,0,0,
0,0,0,0,0,0,0,0,0,0,0,0,0,0,0,0,
0,0,0,0,0,0,0,0,0,0,0,0,0,0,0,0,
0,0,0,0,0,0,0,0,0,0,0,0,0,0,0,0,
0,0,0,0,0,0,0,0,0,0,0,0,0,0,0,0,
0,0,0,0,0,0,0,0,0,0,0,0,0,0,0,0
</chunk>
   <chunk x="112" y="176" width="16" height="16">
0,0,0,0,0,0,0,0,0,0,29,29,29,30,0,29,
0,0,0,0,0,0,0,0,0,29,30,30,0,29,30,0,
0,0,29,30,30,0,0,0,0,0,0,0,0,0,0,0,
0,0,0,0,0,0,0,0,0,0,0,0,0,0,0,0,
0,0,0,0,0,0,0,0,0,0,29,30,0,0,0,0,
0,0,0,0,0,0,0,0,0,0,0,0,0,0,0,0,
0,0,0,0,0,0,0,0,0,0,0,0,0,0,0,0,
0,0,0,0,0,0,0,0,0,0,0,0,0,0,0,0,
0,0,0,0,0,0,0,0,0,0,0,0,0,0,0,0,
0,0,0,0,0,0,0,0,0,0,0,0,0,0,0,0,
0,0,0,0,0,0,0,0,0,0,0,0,0,0,0,0,
0,0,0,0,0,0,0,0,0,0,0,0,0,0,0,0,
0,0,0,0,0,0,0,0,0,0,0,0,0,0,0,0,
0,0,0,0,0,0,0,0,0,0,0,0,0,0,0,0,
0,0,0,0,0,0,0,0,0,0,0,0,0,0,0,0,
0,0,0,0,0,0,0,0,0,0,0,0,0,0,0,0
</chunk>
   <chunk x="128" y="176" width="16" height="16">
29,30,0,0,0,0,0,0,0,0,0,0,0,0,0,0,
29,29,30,0,0,0,0,0,0,0,0,0,0,0,0,0,
0,29,30,0,0,0,0,0,0,0,0,0,0,0,29,30,
0,0,0,0,0,0,0,0,0,0,0,0,0,0,0,0,
0,0,0,29,29,29,30,0,0,0,0,0,0,0,0,0,
0,0,0,0,0,0,0,0,0,0,0,0,0,0,0,0,
0,0,0,0,0,0,0,0,0,0,0,0,0,0,0,0,
0,0,0,0,0,0,0,0,0,0,0,0,0,0,0,0,
0,0,0,0,0,0,0,0,0,0,0,0,0,0,0,0,
0,0,0,0,0,0,0,0,0,0,0,0,0,0,0,0,
0,0,0,0,0,0,0,0,0,0,0,0,0,0,0,0,
0,0,0,0,0,0,0,0,0,0,0,0,0,0,0,0,
0,0,0,0,0,0,0,0,0,0,0,0,0,0,0,0,
0,0,0,0,0,0,0,0,0,0,0,0,0,0,0,0,
0,0,0,0,0,0,0,0,0,0,0,0,0,0,0,0,
0,0,0,0,0,0,0,0,0,0,0,0,0,0,0,0
</chunk>
  </data>
 </layer>
 <layer id="3" name="drzewa" width="144" height="208">
  <data encoding="csv">
   <chunk x="64" y="80" width="16" height="16">
0,0,0,0,0,0,0,0,0,0,0,0,0,0,0,0,
0,0,0,0,0,0,0,0,0,0,0,0,0,0,0,0,
0,0,0,0,0,0,0,0,0,0,0,0,0,0,0,0,
0,0,0,0,0,0,0,0,0,0,0,0,0,0,0,0,
0,0,0,0,0,0,0,0,0,0,0,0,0,0,0,0,
0,0,0,0,0,0,0,0,0,0,0,0,0,0,0,0,
0,0,0,0,0,0,0,0,0,0,0,0,0,0,0,0,
0,0,0,0,0,0,0,0,0,0,0,0,0,0,0,0,
0,0,0,0,0,0,0,0,0,0,0,0,0,0,0,0,
0,0,0,0,0,0,0,0,0,0,0,0,0,0,0,0,
0,0,0,0,0,0,0,0,0,0,0,0,0,0,0,0,
0,0,0,0,0,0,0,0,0,0,0,0,0,0,0,0,
0,0,0,0,0,0,0,0,0,0,0,0,0,0,0,0,
0,0,0,0,0,59,60,0,0,0,0,0,0,0,0,0,
0,0,0,0,0,0,0,0,0,0,338,0,0,0,0,0,
0,0,0,0,0,0,0,0,0,0,0,0,0,0,0,0
</chunk>
   <chunk x="80" y="80" width="16" height="16">
0,0,0,0,0,0,0,0,0,0,0,0,0,0,0,0,
0,0,0,0,0,0,0,0,0,0,0,0,0,0,0,0,
0,0,0,0,0,0,0,0,0,0,0,0,0,0,0,0,
0,0,0,0,0,0,0,0,0,0,0,0,0,0,0,0,
0,0,0,0,0,0,0,0,0,0,0,0,0,0,0,0,
0,0,0,0,0,0,0,0,0,0,0,0,0,0,0,0,
0,0,0,0,0,0,0,0,0,0,0,0,0,0,0,0,
0,0,0,0,0,0,0,0,0,0,0,0,0,0,0,0,
0,0,0,0,0,0,0,0,0,0,0,0,0,0,0,0,
0,0,0,0,0,0,0,0,0,0,0,0,0,0,0,0,
0,0,0,0,0,0,0,0,0,0,0,0,0,0,0,0,
0,0,0,0,0,0,0,0,0,0,0,0,0,0,0,0,
0,0,0,0,0,0,0,0,0,0,0,0,0,0,0,0,
0,0,0,0,0,0,0,0,0,0,0,0,0,0,0,0,
0,0,0,0,0,0,0,0,0,0,0,0,0,0,0,338,
59,60,0,0,0,0,0,0,0,0,0,0,0,0,0,0
</chunk>
   <chunk x="48" y="96" width="16" height="16">
0,0,0,0,0,0,0,0,0,0,0,0,0,0,340,0,
0,0,0,0,0,0,0,0,0,0,0,0,0,0,0,0,
0,0,0,0,0,0,0,0,0,0,0,338,0,39,40,0,
0,0,0,0,0,0,0,0,0,0,0,0,0,59,60,0,
0,0,0,0,0,0,0,0,0,0,0,0,0,0,0,0,
0,0,0,0,0,0,0,0,0,0,0,0,0,0,0,0,
0,0,0,0,0,0,0,0,0,0,0,0,0,0,0,0,
0,0,0,0,0,0,0,0,0,0,0,0,0,0,0,0,
0,0,0,0,0,0,0,0,0,0,0,0,0,0,0,0,
0,0,0,0,0,0,0,0,0,0,0,0,0,0,0,0,
0,0,0,0,0,0,0,0,0,0,0,0,0,0,0,0,
0,0,0,0,0,0,0,0,339,0,0,0,0,0,0,338,
0,0,0,0,0,0,0,0,0,0,0,0,0,0,0,0,
0,0,0,0,0,0,0,0,0,0,0,0,0,0,0,0,
0,0,0,0,0,0,0,0,0,0,0,0,0,0,0,0,
0,0,0,0,0,0,0,0,0,0,0,0,0,0,0,0
</chunk>
   <chunk x="64" y="96" width="16" height="16">
0,0,0,0,0,0,0,0,0,0,0,0,59,60,0,0,
0,0,0,0,0,0,0,0,0,0,0,0,0,0,0,0,
0,0,0,0,0,0,0,0,0,0,0,0,0,0,0,0,
0,0,0,0,0,0,0,0,0,0,0,0,397,398,0,0,
0,0,0,0,0,0,0,0,0,0,0,0,0,0,0,0,
0,0,0,0,0,0,0,0,0,0,0,0,0,0,0,0,
0,0,0,0,0,0,0,0,0,0,0,0,0,0,0,0,
0,0,0,0,0,0,0,0,0,0,0,0,0,584,0,0,
0,0,0,0,0,0,397,398,0,0,0,0,0,0,0,0,
0,0,0,0,0,0,0,0,0,0,0,0,0,0,0,0,
0,0,0,0,0,0,0,0,0,0,0,0,0,0,0,0,
0,0,0,0,0,0,0,0,0,0,0,0,0,0,0,0,
0,0,0,0,0,0,0,0,0,0,0,0,0,0,0,0,
0,0,0,0,0,0,0,0,0,0,0,0,0,0,0,0,
0,0,0,0,0,0,0,0,0,0,0,0,0,0,0,0,
59,60,0,0,0,0,0,0,60,0,2147483989,0,0,0,0,0
</chunk>
   <chunk x="80" y="96" width="16" height="16">
0,0,0,0,0,0,0,0,0,0,0,0,0,0,0,0,
0,0,0,0,0,0,0,0,0,0,0,0,0,0,0,0,
0,339,0,0,0,0,0,59,0,0,0,0,0,0,0,0,
0,0,59,60,0,0,0,0,0,0,0,0,0,0,0,0,
0,0,0,0,0,0,0,0,0,0,0,0,0,0,0,0,
0,0,0,0,0,0,0,0,0,0,0,0,0,0,0,0,
0,0,0,0,0,0,0,0,0,0,0,0,0,0,0,0,
0,0,0,0,0,59,60,0,0,0,0,0,0,0,0,0,
0,0,0,0,0,0,0,0,0,0,0,0,0,0,0,0,
0,0,0,0,335,0,0,0,0,0,0,0,0,0,0,0,
0,0,0,0,0,0,0,0,0,0,0,0,0,0,0,0,
0,0,0,0,0,0,0,0,0,0,0,0,0,0,0,0,
0,0,0,0,0,0,0,0,0,0,0,0,0,0,0,0,
0,338,0,0,0,0,0,0,0,0,0,0,0,0,0,0,
0,0,59,60,0,0,0,0,0,0,0,0,0,0,0,0,
0,0,0,0,0,0,0,0,0,0,0,0,0,0,0,0
</chunk>
   <chunk x="48" y="112" width="16" height="16">
0,0,0,0,0,0,0,0,0,0,0,0,0,0,0,0,
0,0,0,0,0,0,0,0,0,0,0,0,0,0,0,0,
0,0,0,0,0,0,0,0,0,0,0,0,0,0,0,0,
0,0,0,0,0,0,0,0,0,0,0,0,0,0,0,0,
338,0,0,0,0,0,0,0,0,0,0,0,0,0,0,0,
0,0,0,0,0,0,0,0,0,0,0,0,0,0,0,0,
0,0,0,0,0,0,0,0,0,0,0,0,0,0,0,0,
0,0,0,0,0,0,0,0,0,0,0,0,0,0,0,0,
0,0,0,0,0,0,0,0,0,0,0,0,0,0,0,0,
0,0,0,0,0,0,0,0,0,0,0,0,0,0,0,0,
0,0,0,0,0,0,0,0,0,0,0,0,0,0,0,0,
0,0,0,0,0,0,0,0,0,0,0,0,0,0,0,0,
0,0,0,0,0,0,0,0,0,0,0,0,0,0,0,0,
0,0,0,0,0,0,0,0,0,0,0,0,0,0,0,0,
0,0,0,0,0,0,0,0,0,0,0,0,0,0,0,0,
0,0,0,0,0,0,0,0,0,0,0,0,0,0,0,0
</chunk>
   <chunk x="64" y="112" width="16" height="16">
0,0,0,0,0,0,0,0,0,0,0,0,0,0,0,0,
0,0,0,0,0,0,0,0,0,0,59,60,0,0,0,0,
0,0,0,0,0,0,0,0,0,0,0,0,0,0,0,0,
0,0,0,0,0,0,0,0,0,0,0,0,0,0,0,0,
0,0,0,0,0,0,0,0,0,0,0,0,0,0,0,0,
0,0,0,0,0,0,0,0,0,0,0,0,0,0,0,0,
0,0,0,0,0,0,0,0,0,0,0,0,0,0,0,0,
0,0,0,0,0,0,0,0,0,0,0,0,0,0,0,0,
0,0,0,0,0,0,0,0,0,0,0,0,0,0,0,0,
0,0,0,0,0,0,0,0,0,0,0,0,0,0,0,0,
0,0,0,0,0,0,0,0,0,0,0,0,0,0,0,0,
0,0,0,0,0,0,0,0,0,0,0,0,0,0,0,0,
0,0,0,0,0,0,0,0,0,0,0,0,0,0,0,0,
0,0,0,0,0,0,0,0,0,0,0,0,0,0,0,0,
0,0,0,0,0,0,0,0,0,0,0,0,0,0,0,0,
0,0,0,0,0,0,0,0,0,0,0,0,0,0,0,0
</chunk>
   <chunk x="112" y="128" width="16" height="16">
0,0,0,0,0,0,0,0,0,0,0,0,0,0,0,0,
0,0,0,0,0,0,0,0,0,0,0,0,0,0,0,0,
0,0,0,0,0,0,0,0,0,0,0,0,0,0,0,0,
0,0,0,0,0,0,0,0,0,0,0,0,0,0,0,0,
0,0,0,0,0,0,0,0,0,0,0,0,0,0,0,0,
0,0,0,0,0,0,0,0,0,0,0,0,0,0,0,0,
0,0,0,0,0,0,0,0,0,0,0,0,0,0,0,0,
0,0,0,0,0,0,0,0,0,0,0,0,0,0,0,0,
0,0,0,0,0,0,0,0,0,0,0,0,0,0,0,0,
0,0,0,0,0,0,0,0,0,0,0,0,0,0,0,0,
0,0,0,0,0,0,0,0,0,0,0,0,0,0,0,0,
0,0,0,0,0,0,0,0,0,0,0,0,0,0,0,0,
0,0,0,0,0,0,0,0,0,0,0,0,0,0,0,0,
0,0,0,0,0,0,0,0,0,0,0,338,0,0,0,0,
0,0,0,0,0,0,0,0,0,0,0,0,0,0,0,0,
0,0,0,0,0,0,0,0,0,0,0,0,0,0,0,0
</chunk>
   <chunk x="128" y="128" width="16" height="16">
0,0,0,0,0,0,0,0,0,0,0,0,0,0,0,0,
0,0,0,0,0,0,0,0,0,0,0,0,0,0,0,0,
0,0,0,0,0,0,0,0,0,0,0,0,0,0,0,0,
0,0,0,0,0,0,0,0,0,0,0,0,0,0,0,0,
0,0,0,0,0,0,0,0,0,0,0,0,0,0,0,0,
0,0,0,0,0,0,0,0,0,0,0,0,0,0,0,0,
0,0,0,0,0,0,0,0,0,0,0,0,0,0,0,0,
0,0,0,0,0,0,0,0,0,0,0,0,0,0,0,0,
0,0,0,0,0,0,0,0,0,0,0,0,0,0,0,0,
0,0,0,0,0,339,0,0,0,0,0,0,0,0,0,0,
0,0,0,0,0,0,0,0,0,0,0,0,0,0,0,0,
0,0,0,0,0,0,0,0,0,0,0,0,0,0,0,0,
0,0,0,0,0,0,0,0,0,0,0,0,0,0,0,0,
0,0,0,0,0,0,0,0,0,0,0,0,0,0,0,0,
0,0,0,0,0,0,0,0,0,0,0,0,0,0,0,0,
0,0,0,0,0,0,0,0,0,0,0,0,0,0,0,0
</chunk>
   <chunk x="128" y="144" width="16" height="16">
0,0,0,0,0,0,0,0,0,0,0,0,0,0,0,0,
0,0,0,0,0,0,0,0,338,0,0,0,0,0,0,0,
0,0,0,0,0,0,0,0,0,0,0,0,0,0,0,0,
0,0,0,0,0,0,0,0,0,0,1068,0,0,0,0,0,
0,0,0,0,0,0,0,0,0,0,1092,0,0,0,0,0,
0,0,0,0,0,0,0,0,0,0,0,0,0,0,0,0,
0,0,0,0,0,0,0,0,0,0,0,0,0,0,0,0,
0,0,0,0,0,0,0,0,0,0,0,0,0,0,0,0,
0,0,0,0,0,0,0,0,0,0,0,0,0,0,0,0,
0,338,0,0,0,0,0,0,0,0,0,0,0,0,0,0,
0,0,0,0,0,0,0,0,0,0,0,0,0,0,0,0,
0,0,0,0,0,0,0,0,0,0,0,0,0,0,0,0,
0,0,0,0,0,0,0,0,0,0,0,0,0,0,0,0,
0,0,0,0,0,0,0,338,0,0,0,0,0,0,0,0,
0,0,0,0,0,0,0,0,0,0,0,0,0,0,0,0,
0,0,0,0,0,0,0,0,0,0,0,0,0,0,0,0
</chunk>
   <chunk x="64" y="160" width="16" height="16">
0,0,0,0,0,0,0,0,0,0,0,0,0,0,0,0,
0,0,0,0,0,0,0,0,0,0,0,0,0,0,0,0,
0,0,0,0,0,0,0,0,0,0,0,0,0,0,0,0,
0,0,0,0,0,0,0,0,0,0,0,0,0,0,0,0,
0,0,0,0,0,0,0,0,0,0,0,0,0,0,0,0,
0,0,0,0,0,0,0,0,0,0,0,0,0,0,0,0,
0,0,0,0,0,0,0,0,0,0,0,0,0,0,0,0,
0,0,0,0,0,0,0,0,0,0,0,0,0,0,0,0,
0,0,0,0,0,0,0,0,0,0,0,0,0,0,0,0,
0,0,0,0,0,0,0,0,0,0,0,0,0,0,0,0,
0,0,0,0,0,0,0,0,0,0,0,0,0,0,0,0,
0,0,0,0,0,0,0,0,0,0,0,0,0,0,0,0,
0,0,0,0,0,0,0,0,0,0,0,0,0,0,0,0,
0,0,0,0,0,0,0,0,0,0,0,0,0,0,0,0,
0,0,0,0,0,0,0,0,0,0,0,0,0,0,0,0,
0,0,0,0,0,0,0,0,0,0,0,0,0,0,338,0
</chunk>
   <chunk x="80" y="160" width="16" height="16">
0,0,0,0,0,0,0,0,0,0,0,0,0,0,0,0,
0,0,0,0,0,0,0,0,0,0,0,0,0,0,0,0,
0,0,0,0,0,0,0,0,0,0,0,0,0,0,0,0,
0,0,0,0,0,0,0,0,0,0,0,0,0,0,0,0,
0,0,0,0,0,0,0,0,0,0,0,0,0,0,0,0,
0,0,0,0,0,0,0,0,0,0,0,0,0,0,0,0,
0,0,0,0,0,0,0,0,0,0,0,0,0,0,0,0,
0,0,0,0,0,338,0,0,0,0,0,0,0,0,0,0,
0,0,0,0,0,0,0,0,0,0,0,0,0,0,0,0,
0,0,0,0,0,0,0,0,0,0,0,0,0,0,0,0,
0,0,0,0,0,0,0,0,0,0,0,0,0,0,0,0,
0,0,0,0,0,0,0,0,0,0,0,0,0,0,0,0,
0,0,0,0,0,0,0,0,0,0,0,0,0,0,0,0,
0,0,0,0,0,0,0,0,0,0,0,0,0,0,0,0,
0,0,0,0,0,0,0,0,0,0,0,0,0,0,0,0,
0,0,0,0,0,0,0,0,0,0,0,0,0,0,0,0
</chunk>
   <chunk x="96" y="160" width="16" height="16">
0,0,0,0,0,0,0,0,0,0,0,0,0,0,0,0,
0,0,0,0,0,0,0,0,0,0,0,0,0,0,0,0,
0,0,0,0,0,0,338,0,0,0,0,0,0,0,0,0,
0,0,0,0,0,0,0,0,0,0,0,0,0,0,0,0,
0,0,0,0,0,0,0,0,0,0,0,0,0,0,0,0,
0,0,0,0,0,0,0,0,0,0,0,1065,0,0,0,0,
0,0,0,0,0,0,0,0,0,0,0,0,0,0,0,0,
0,0,0,0,0,0,0,0,0,0,0,0,0,0,338,0,
0,0,0,0,0,0,0,0,0,0,0,0,0,0,0,0,
0,0,0,0,0,0,0,0,0,0,0,0,0,0,0,0,
0,0,0,0,0,0,0,0,0,0,0,0,0,0,0,0,
0,0,0,0,0,0,0,0,0,0,0,0,0,0,0,0,
0,0,0,0,0,0,0,0,0,0,0,0,0,0,0,0,
0,0,0,338,0,0,0,0,0,0,0,0,0,0,0,0,
0,0,0,0,0,0,0,0,0,0,0,0,0,0,0,0,
0,0,0,0,0,0,0,0,0,0,0,0,0,0,0,0
</chunk>
   <chunk x="128" y="160" width="16" height="16">
0,0,0,0,0,0,0,0,0,0,0,0,0,0,0,0,
0,0,0,0,0,0,0,0,0,0,0,0,0,0,0,0,
0,0,0,0,0,0,0,0,0,0,0,0,0,0,0,0,
0,0,0,0,0,0,0,0,0,0,0,0,0,0,0,0,
0,0,0,0,0,0,0,0,0,0,0,0,0,0,0,0,
0,0,0,0,0,0,0,0,0,0,0,0,0,0,0,0,
0,0,0,1065,0,339,0,0,0,0,0,0,0,0,0,0,
0,0,0,0,0,0,0,0,0,0,0,0,0,0,0,0,
0,0,0,0,0,0,0,0,0,0,0,0,0,0,0,0,
0,0,0,0,0,0,0,0,0,0,0,0,0,0,0,0,
0,0,0,0,0,0,0,0,0,0,0,0,0,0,0,0,
0,0,0,0,0,0,0,0,0,0,0,0,0,0,0,0,
0,0,0,0,0,0,0,0,0,0,0,0,0,0,0,0,
0,0,0,0,0,0,0,0,0,0,0,0,0,0,0,0,
0,0,0,0,0,0,0,0,0,0,0,0,0,0,0,0,
0,0,0,0,0,0,0,0,0,0,0,0,0,0,0,0
</chunk>
   <chunk x="16" y="176" width="16" height="16">
0,0,0,0,0,0,0,0,0,0,0,0,0,0,0,0,
0,0,0,0,0,0,0,0,338,0,0,0,0,0,0,0,
0,0,0,0,0,0,0,0,0,0,0,0,0,0,0,0,
0,0,0,0,0,0,0,0,0,0,0,0,0,0,0,0,
0,0,0,0,0,0,0,0,0,0,0,0,0,0,0,0,
0,0,0,0,0,0,0,0,0,0,0,0,0,0,0,338,
0,0,0,0,0,0,0,0,0,0,0,0,0,0,0,0,
0,0,0,0,0,0,0,0,0,0,0,0,0,0,0,0,
0,0,0,0,0,0,0,0,0,0,0,0,0,0,0,0,
0,0,0,0,0,0,0,0,0,0,0,0,0,0,0,0,
0,0,0,0,0,0,0,0,0,0,0,0,0,0,0,0,
0,0,0,0,0,0,0,0,0,0,0,0,0,0,0,0,
0,0,0,0,0,0,0,0,0,0,0,0,0,0,0,0,
0,0,0,0,0,0,0,0,0,0,0,0,0,0,0,0,
0,0,0,0,0,0,0,0,0,0,0,0,0,0,0,0,
0,0,0,0,0,0,0,0,0,0,0,0,0,0,0,0
</chunk>
   <chunk x="96" y="176" width="16" height="16">
0,0,0,0,0,0,0,0,0,0,0,0,0,0,0,0,
0,0,0,0,0,0,0,0,0,0,0,0,0,0,0,0,
0,0,0,0,0,0,0,0,0,0,0,0,0,0,0,0,
0,0,0,0,0,0,0,0,0,0,0,0,0,0,0,0,
0,0,0,0,0,0,0,0,0,0,0,0,0,0,339,0,
0,0,0,0,0,0,0,0,0,0,0,0,0,0,0,0,
0,0,0,0,0,0,0,0,0,0,0,0,0,0,0,0,
0,0,0,0,0,0,0,0,0,0,0,0,0,0,0,0,
0,0,0,0,0,0,0,0,0,0,0,0,0,0,0,0,
0,0,0,0,0,0,0,0,0,0,0,0,0,0,0,0,
0,0,0,0,0,0,0,0,0,0,0,0,0,0,0,0,
0,0,0,0,0,0,0,0,0,0,0,0,0,0,0,0,
0,0,0,0,0,0,0,0,0,0,0,0,0,0,0,0,
0,0,0,0,0,0,0,0,0,0,0,0,0,0,0,0,
0,0,0,0,0,0,0,0,0,0,0,0,0,0,0,0,
0,0,0,0,0,0,0,0,0,0,0,0,0,0,0,0
</chunk>
   <chunk x="128" y="176" width="16" height="16">
0,0,0,0,0,0,0,0,0,0,0,0,0,0,0,0,
0,0,0,0,0,0,0,0,0,0,0,0,0,0,0,0,
0,0,0,0,0,0,0,0,0,0,0,0,0,0,0,0,
0,0,0,0,0,0,339,0,0,0,0,0,0,0,0,0,
0,0,0,0,0,0,0,0,0,0,0,0,0,0,0,0,
0,0,0,0,0,0,0,0,0,0,0,0,0,0,0,0,
0,0,0,0,0,0,0,0,0,0,0,0,0,0,0,0,
0,0,0,0,0,0,0,0,0,0,0,0,0,0,0,0,
0,0,0,0,0,0,0,0,0,0,0,0,0,0,0,0,
0,0,0,0,0,0,0,0,0,0,0,0,0,0,0,0,
0,0,0,0,0,0,0,0,0,0,0,0,0,0,0,0,
0,0,0,0,0,0,0,0,0,0,0,0,0,0,0,0,
0,0,0,0,0,0,0,0,0,0,0,0,0,0,0,0,
0,0,0,0,0,0,0,0,0,0,0,0,0,0,0,0,
0,0,0,0,0,0,0,0,0,0,0,0,0,0,0,0,
0,0,0,0,0,0,0,0,0,0,0,0,0,0,0,0
</chunk>
  </data>
 </layer>
 <layer id="10" name="krzaki" width="144" height="208">
  <data encoding="csv">
   <chunk x="64" y="80" width="16" height="16">
0,0,0,0,0,0,0,0,0,0,0,0,0,0,0,0,
0,0,0,0,0,0,0,0,0,0,0,0,0,0,0,0,
0,0,0,0,0,0,0,0,0,0,0,0,0,0,0,0,
0,0,0,0,0,0,0,0,0,0,0,0,0,0,0,0,
0,0,0,0,0,0,0,0,0,0,0,0,0,0,0,0,
0,0,0,0,0,0,0,0,0,0,0,0,0,0,0,0,
0,0,0,0,0,0,0,0,0,0,0,0,0,0,0,0,
0,0,0,0,0,0,0,0,0,0,0,0,0,0,0,0,
0,0,0,0,0,0,0,0,0,0,0,0,0,0,0,0,
0,0,0,0,0,0,0,0,0,0,0,0,0,0,0,0,
0,0,0,0,0,0,0,0,0,0,0,0,0,0,0,0,
0,0,0,0,0,0,0,0,0,0,0,0,0,0,0,0,
0,0,0,0,0,0,0,0,0,0,0,0,0,0,0,0,
0,0,0,0,0,0,0,0,0,0,0,0,0,0,0,0,
0,0,0,0,0,0,0,175,0,0,0,0,0,0,0,0,
0,0,0,0,0,0,0,0,0,0,0,0,0,0,0,0
</chunk>
   <chunk x="80" y="80" width="16" height="16">
0,0,0,0,0,0,0,0,0,0,0,0,0,0,0,0,
0,0,0,0,0,0,0,0,0,0,0,0,0,0,0,0,
0,0,0,0,0,0,0,0,0,0,0,0,0,0,0,0,
0,0,0,0,0,0,0,0,0,0,0,0,0,0,0,0,
0,0,0,0,0,0,0,0,0,0,0,0,0,0,0,0,
0,0,0,0,0,0,0,0,0,0,0,0,0,0,0,0,
0,0,0,0,0,0,0,0,0,0,0,0,0,0,0,0,
0,0,0,0,0,0,0,0,0,0,0,0,0,0,0,0,
0,0,0,0,0,0,0,0,0,0,0,0,0,0,0,0,
0,0,0,0,0,0,0,0,0,0,0,0,0,0,0,0,
0,0,0,0,0,0,0,0,0,0,0,0,0,0,0,0,
0,0,0,0,0,0,0,0,0,0,0,0,0,0,0,0,
0,0,0,0,0,0,0,0,0,175,0,0,0,0,0,0,
0,0,0,0,0,0,0,0,0,0,0,0,0,0,0,0,
0,0,0,0,0,0,0,0,0,0,0,0,0,0,0,0,
0,0,0,0,0,0,0,0,0,0,0,0,0,0,0,0
</chunk>
   <chunk x="64" y="96" width="16" height="16">
0,0,0,0,0,0,0,0,0,0,0,0,0,0,0,0,
0,0,0,0,0,0,0,0,0,0,0,0,0,0,0,0,
0,0,0,0,0,0,0,0,0,0,0,0,0,0,0,0,
0,0,0,0,0,0,0,0,0,0,0,0,0,0,0,0,
0,0,0,0,0,0,0,0,0,0,0,0,0,0,0,0,
0,0,0,0,0,0,0,0,0,0,0,0,0,0,0,0,
0,0,0,0,0,0,0,0,0,0,0,0,0,0,0,0,
0,0,0,0,0,0,0,0,0,0,0,0,0,0,0,0,
0,0,0,0,0,0,0,0,0,0,0,0,0,0,0,0,
0,0,0,0,0,0,0,0,0,0,0,0,0,0,0,0,
0,0,0,0,0,0,0,0,0,0,0,0,0,0,0,0,
0,0,0,0,0,0,0,0,0,0,0,0,0,0,0,0,
0,175,0,0,0,0,0,0,0,0,0,0,0,0,0,0,
0,0,0,0,0,0,0,0,0,0,0,0,0,0,0,0,
0,0,0,0,0,0,0,0,0,0,0,0,0,0,0,0,
0,0,0,0,0,0,0,0,0,0,0,0,0,0,0,0
</chunk>
   <chunk x="96" y="96" width="16" height="16">
0,0,0,0,0,0,0,0,0,0,0,0,0,0,0,0,
0,0,0,0,0,0,0,0,0,0,0,0,0,0,0,0,
0,0,0,0,0,0,0,0,0,0,0,0,0,0,0,0,
0,0,0,0,0,0,0,0,0,0,0,0,0,0,0,0,
0,0,0,0,0,0,0,0,0,0,0,0,0,0,0,0,
0,0,0,0,0,0,0,0,0,0,0,0,0,0,0,0,
0,0,0,0,0,0,0,0,0,0,0,0,0,0,0,0,
0,0,0,0,0,0,0,0,0,0,0,0,0,0,0,0,
0,0,0,0,0,0,0,0,0,0,0,0,0,0,0,0,
0,0,0,0,0,0,0,0,0,0,0,0,0,0,0,0,
0,0,175,0,0,0,0,0,0,0,0,0,0,0,0,0,
0,0,0,0,0,0,0,0,0,0,0,0,0,0,0,0,
0,0,0,0,0,0,0,0,0,0,0,0,0,0,0,0,
0,0,0,0,0,0,0,0,0,0,0,0,0,0,0,0,
0,0,0,0,0,0,0,0,0,0,0,0,0,0,0,0,
0,0,0,0,0,0,0,0,0,0,0,0,0,0,0,0
</chunk>
   <chunk x="48" y="112" width="16" height="16">
0,0,0,0,0,0,0,0,0,0,0,0,0,0,0,0,
0,0,0,0,0,0,0,0,0,0,0,0,0,0,0,0,
0,0,0,0,0,0,0,0,0,0,0,0,0,0,0,0,
0,0,0,0,0,0,0,0,0,0,0,0,0,175,0,0,
0,0,0,0,0,0,0,0,0,0,0,0,0,0,0,0,
0,0,0,0,0,0,0,0,0,0,0,0,0,0,0,0,
0,0,0,0,0,0,0,0,0,0,0,0,0,0,0,0,
0,0,0,0,0,0,0,0,0,0,0,0,0,0,0,0,
0,0,0,0,0,0,0,0,0,0,0,0,0,0,0,0,
0,0,0,0,0,0,0,0,0,0,0,0,0,0,0,0,
0,0,0,0,0,0,0,0,0,0,0,0,0,0,0,0,
0,0,0,0,0,0,0,0,0,0,0,0,0,0,0,0,
0,0,0,0,0,0,0,0,0,0,0,0,0,0,0,0,
0,0,0,0,0,0,0,0,0,0,0,0,0,0,0,0,
0,0,0,0,0,0,0,0,0,0,0,0,0,0,0,0,
0,0,0,0,0,0,0,0,0,0,0,0,0,0,0,0
</chunk>
   <chunk x="64" y="112" width="16" height="16">
0,0,0,0,0,0,0,0,0,0,0,0,0,0,0,0,
0,0,0,0,0,0,0,0,0,0,0,0,0,0,0,0,
0,0,0,0,0,0,0,0,0,0,0,0,0,0,0,0,
0,0,0,0,0,0,0,0,0,0,0,0,0,0,0,0,
0,0,0,0,0,0,0,0,0,0,0,0,0,0,0,0,
0,0,0,0,0,0,0,0,0,0,0,0,0,0,175,0,
0,0,0,0,0,0,0,0,0,0,0,0,0,0,0,0,
0,0,0,0,0,0,0,0,0,0,0,0,0,0,0,0,
0,0,0,0,0,0,0,0,0,0,0,0,0,0,0,0,
0,0,0,0,0,0,0,0,0,0,0,0,0,0,0,0,
0,0,0,0,0,0,0,0,0,0,0,0,0,0,0,0,
0,0,0,0,0,0,0,0,0,0,0,0,0,0,0,0,
0,0,0,0,0,0,0,0,0,0,0,0,0,0,0,0,
0,0,0,0,0,0,0,0,0,0,0,0,0,0,0,0,
0,0,0,0,0,0,0,0,0,0,0,0,0,0,0,0,
0,0,0,0,0,0,0,0,0,0,0,0,0,0,0,0
</chunk>
   <chunk x="112" y="128" width="16" height="16">
0,0,0,0,0,0,0,0,0,0,0,0,0,0,0,0,
0,0,0,0,0,0,0,0,0,0,0,0,0,0,0,0,
0,0,0,0,0,0,0,0,0,0,0,0,0,0,0,0,
0,0,0,0,0,0,0,0,0,0,0,0,0,0,0,0,
0,0,0,0,0,0,0,0,0,0,0,0,0,0,0,0,
0,0,0,0,0,0,0,0,0,0,0,0,0,0,0,0,
0,0,0,0,0,0,0,0,0,0,0,0,0,0,0,0,
0,0,0,0,0,0,0,0,0,0,0,0,0,0,0,0,
0,0,0,0,0,0,0,0,0,0,0,0,0,0,0,0,
0,0,0,0,0,0,0,0,0,0,0,0,0,0,0,0,
0,0,0,0,0,0,0,0,0,0,0,0,0,0,0,0,
0,0,0,0,0,0,0,0,0,0,0,0,0,0,0,0,
0,0,0,0,0,0,0,0,0,0,0,0,0,0,0,0,
0,0,0,0,0,0,0,0,0,0,0,0,0,0,0,0,
0,0,0,0,0,0,0,0,0,0,0,0,175,0,0,0,
0,0,0,0,0,0,0,0,0,0,0,0,0,0,0,0
</chunk>
   <chunk x="128" y="128" width="16" height="16">
0,0,0,0,0,0,0,0,0,0,0,0,0,0,0,0,
0,0,0,0,0,0,0,0,0,0,0,0,0,0,0,0,
0,0,0,0,0,0,0,0,0,0,0,0,0,0,0,0,
0,0,0,0,0,0,0,0,0,0,0,0,0,0,0,0,
0,0,0,0,0,0,0,0,0,0,0,0,0,0,0,0,
0,0,0,0,0,0,0,0,0,0,0,0,0,0,0,0,
0,0,0,0,0,0,0,0,0,0,0,0,0,0,0,0,
0,0,0,0,0,0,0,0,0,0,0,0,0,0,0,0,
0,0,0,0,0,0,0,0,0,0,0,0,0,0,0,0,
0,0,0,0,0,0,0,0,0,0,0,0,0,0,0,0,
0,0,0,0,0,0,0,0,0,0,0,0,0,0,0,0,
0,0,0,0,0,0,0,0,0,0,0,0,0,0,0,0,
0,0,0,0,0,0,0,0,0,0,0,0,0,0,0,0,
0,0,0,0,0,0,0,0,0,0,0,0,0,0,0,0,
0,0,0,0,0,0,0,0,0,0,0,0,0,0,0,0,
0,0,0,0,0,169,170,0,0,0,0,0,0,0,0,0
</chunk>
   <chunk x="64" y="144" width="16" height="16">
0,0,0,0,0,0,0,0,0,0,0,0,0,0,0,0,
0,0,0,0,0,0,0,0,0,0,0,0,0,0,0,0,
0,0,0,0,0,0,0,0,0,0,0,0,0,0,0,0,
0,0,0,0,0,0,0,0,0,0,0,0,0,0,0,0,
0,0,0,0,0,0,0,0,0,0,0,0,0,0,0,0,
0,0,0,0,0,0,0,0,0,0,0,0,0,0,0,0,
0,0,0,0,0,0,0,0,0,0,0,0,0,0,0,0,
0,0,0,0,0,0,0,0,0,0,0,0,0,0,0,0,
0,0,0,0,0,0,0,0,0,0,0,0,0,0,0,0,
0,0,0,0,0,0,0,0,0,0,0,0,0,0,0,0,
0,0,0,0,0,0,0,0,0,0,0,0,0,0,0,0,
0,0,0,0,0,0,0,0,0,0,0,0,0,0,0,0,
0,0,0,0,0,0,0,0,0,0,0,0,0,0,0,0,
0,0,0,0,0,0,0,0,0,0,0,0,0,0,0,0,
175,0,0,0,0,0,0,0,0,0,0,0,0,0,0,0,
0,0,0,0,0,0,0,0,0,0,0,0,0,0,0,0
</chunk>
   <chunk x="96" y="144" width="16" height="16">
0,0,0,0,0,0,0,0,0,0,0,0,0,0,0,0,
0,0,0,0,0,0,0,0,0,0,0,0,0,0,0,0,
0,0,0,0,0,0,0,0,0,0,0,0,0,0,0,0,
0,0,0,0,0,0,0,0,0,0,0,0,0,0,0,0,
0,0,0,0,0,0,0,0,0,0,0,0,0,0,0,0,
0,0,0,0,0,0,0,0,0,0,0,0,0,0,0,0,
0,0,0,0,0,0,0,0,0,0,0,0,0,0,0,0,
0,0,0,0,0,0,0,0,0,0,0,0,0,0,0,0,
0,0,0,0,0,0,0,0,0,0,0,0,0,0,0,0,
0,0,0,0,0,0,0,0,0,0,0,0,0,0,0,0,
0,0,0,0,0,0,0,0,0,0,0,0,0,0,0,0,
0,0,0,0,0,0,0,0,0,0,0,0,0,0,0,0,
0,0,0,0,0,0,0,0,0,0,0,0,0,0,0,0,
0,0,0,0,0,0,0,0,0,0,0,0,0,0,0,0,
0,0,0,0,0,0,0,0,0,0,0,0,0,0,0,0,
0,0,0,0,0,0,0,0,0,0,0,0,169,170,0,0
</chunk>
   <chunk x="128" y="144" width="16" height="16">
0,0,0,0,0,0,0,0,0,0,0,0,0,0,0,0,
0,0,0,0,0,0,0,0,0,0,0,0,0,0,0,0,
0,0,0,0,0,0,0,0,0,0,0,0,0,0,0,0,
0,0,0,0,0,0,0,0,0,0,0,0,0,0,0,0,
0,0,0,0,0,0,0,0,0,0,0,0,0,0,0,0,
0,0,0,0,0,0,0,0,0,0,0,0,0,0,0,0,
0,0,0,0,0,0,0,0,0,0,0,0,0,0,0,0,
0,0,0,0,0,0,0,0,0,0,0,0,0,0,0,0,
0,0,0,0,0,0,0,0,0,0,0,0,0,0,0,0,
0,0,0,0,0,0,0,0,0,0,0,0,0,0,0,0,
0,0,0,0,0,0,0,0,0,0,0,0,0,0,0,0,
0,0,0,0,0,0,0,0,0,0,0,0,0,0,0,0,
0,0,0,0,0,0,0,0,0,0,170,0,0,0,0,0,
0,0,0,0,0,0,0,173,174,0,0,0,0,0,0,0,
0,0,0,0,0,0,0,0,0,0,0,0,0,0,0,0,
0,0,0,0,0,0,0,0,0,0,0,0,0,0,0,0
</chunk>
   <chunk x="48" y="160" width="16" height="16">
0,0,0,0,0,0,0,0,0,0,0,0,0,0,0,0,
0,0,0,0,0,0,0,0,0,0,0,0,0,0,0,0,
0,0,0,0,0,0,0,0,0,0,0,0,0,0,0,0,
0,0,0,0,0,0,0,0,0,0,0,0,0,0,0,0,
0,0,0,0,0,0,0,0,0,0,0,0,0,0,0,0,
0,0,0,0,0,0,0,0,0,0,0,0,0,0,0,0,
0,0,0,0,0,0,0,0,0,0,0,0,0,0,0,0,
0,0,0,0,0,0,0,0,0,0,0,0,0,0,0,0,
0,0,0,0,0,0,0,0,0,0,0,0,0,0,0,0,
0,0,0,0,0,0,0,0,0,0,175,0,0,0,0,0,
0,0,0,0,0,0,0,0,0,0,0,0,0,0,0,0,
0,0,0,0,0,0,0,0,0,0,0,0,0,0,0,0,
0,0,0,0,0,0,0,0,0,0,0,0,0,0,0,0,
0,0,0,0,0,0,0,0,0,0,0,0,0,0,0,0,
0,0,0,0,0,0,0,0,0,0,0,0,0,0,0,0,
0,0,0,0,0,0,0,0,0,0,0,0,0,0,0,0
</chunk>
   <chunk x="64" y="160" width="16" height="16">
0,0,0,0,0,0,0,0,0,0,0,0,0,0,0,0,
0,0,0,0,0,0,0,0,0,0,0,0,0,0,0,0,
0,0,0,0,0,0,0,0,0,0,0,0,0,0,0,0,
0,0,0,0,0,0,0,0,0,0,0,0,0,0,0,0,
0,0,0,0,0,0,0,0,0,0,0,0,0,0,0,0,
0,0,0,0,0,0,0,0,0,0,0,0,0,0,0,0,
0,0,0,0,0,0,0,0,0,0,0,0,0,0,0,0,
0,0,0,0,0,0,0,0,0,0,0,0,0,0,0,0,
0,0,0,0,0,0,0,0,0,0,0,0,0,0,0,0,
0,0,0,0,0,0,0,0,0,0,0,0,0,0,0,0,
0,0,0,0,0,0,0,0,0,0,0,0,0,0,0,0,
0,0,0,0,0,0,0,0,0,0,0,0,0,0,0,0,
0,0,0,0,0,0,0,0,0,0,0,0,0,0,0,0,
0,0,0,0,0,0,0,0,0,0,0,0,0,0,0,0,
0,0,0,0,0,0,0,0,0,0,0,0,0,0,0,0,
0,0,0,0,0,0,0,0,0,0,0,0,0,0,173,0
</chunk>
   <chunk x="80" y="160" width="16" height="16">
0,0,0,0,0,0,0,0,0,0,0,0,0,0,0,0,
0,0,0,0,0,0,0,0,0,0,0,0,0,0,0,0,
0,0,0,0,0,0,0,0,0,0,0,0,0,0,0,0,
0,0,0,0,0,0,0,0,0,0,0,0,0,0,0,0,
0,0,0,0,0,0,0,0,0,0,0,0,0,0,0,0,
0,0,0,0,0,0,0,0,0,0,0,0,0,0,0,0,
0,0,0,0,0,0,0,0,0,0,0,0,0,0,0,0,
0,0,0,0,0,0,0,0,0,0,0,0,0,0,0,0,
0,0,0,0,0,0,0,0,0,0,0,0,0,0,0,0,
0,175,0,0,0,0,0,0,0,0,0,0,0,0,0,0,
0,0,0,0,0,0,0,0,0,0,0,0,0,0,0,0,
0,0,0,0,0,0,0,0,0,0,0,0,0,0,0,0,
0,0,0,0,0,0,0,0,0,0,0,0,0,0,0,0,
0,0,0,0,0,0,0,0,0,0,0,0,0,0,0,0,
0,0,0,0,0,0,0,0,0,0,0,0,0,0,0,0,
0,0,0,0,0,0,0,0,0,0,0,0,0,0,0,0
</chunk>
   <chunk x="128" y="160" width="16" height="16">
0,0,0,0,0,0,0,0,0,0,0,0,0,0,0,0,
0,0,0,0,0,0,0,0,0,0,0,0,0,0,0,0,
0,0,0,0,0,0,0,0,0,0,0,0,169,170,0,0,
0,0,0,0,0,0,0,0,0,0,0,0,0,0,0,0,
0,0,0,0,0,0,0,0,0,0,0,0,0,0,0,0,
0,0,0,0,0,0,0,0,0,0,0,0,0,0,0,0,
0,0,0,0,0,0,0,0,0,0,0,0,0,0,0,0,
0,0,0,0,0,0,0,0,0,0,0,0,0,0,0,0,
0,0,0,0,0,0,0,0,0,0,0,0,0,0,0,0,
0,0,0,0,0,0,0,0,0,0,0,0,0,0,0,0,
0,0,0,0,0,0,0,0,0,0,0,0,0,0,0,0,
0,0,0,0,0,0,0,0,0,0,0,170,0,169,170,0,
0,0,0,0,0,0,0,0,0,0,0,0,0,0,0,0,
0,0,0,0,0,0,0,0,0,0,0,0,0,0,0,0,
0,0,0,0,0,0,0,0,0,0,0,0,0,0,0,0,
0,0,0,0,0,0,0,0,0,0,0,0,0,0,0,0
</chunk>
   <chunk x="0" y="176" width="16" height="16">
0,0,0,0,0,0,0,0,0,0,0,0,0,0,0,0,
0,0,0,0,0,0,0,0,0,0,0,0,0,0,0,0,
0,0,0,0,0,0,0,0,0,0,0,0,0,0,0,0,
0,0,0,0,0,0,0,0,0,0,0,175,0,0,0,0,
0,0,0,0,0,0,0,0,0,0,0,0,0,0,0,0,
0,0,0,0,0,0,0,0,0,0,0,0,0,0,0,0,
0,0,0,0,0,0,0,0,0,0,0,0,0,0,0,0,
0,0,0,0,0,0,0,0,0,0,0,0,0,0,0,0,
0,0,0,0,0,0,0,0,0,0,0,0,0,0,0,0,
0,0,0,0,0,0,0,0,0,0,0,0,0,0,0,0,
0,0,0,0,0,0,0,0,0,0,0,0,0,0,0,0,
0,0,0,0,0,0,0,0,0,0,0,0,0,0,0,0,
0,0,0,0,0,0,0,0,0,0,0,0,0,0,0,0,
0,0,0,0,0,0,0,0,0,0,0,0,0,0,0,0,
0,0,0,0,0,0,0,0,0,0,0,0,0,0,0,0,
0,0,0,0,0,0,0,0,0,0,0,0,0,0,0,0
</chunk>
   <chunk x="16" y="176" width="16" height="16">
0,0,0,0,0,0,0,0,0,0,0,0,0,0,0,0,
0,0,0,0,0,0,0,0,0,0,0,0,0,0,0,0,
0,0,0,0,0,0,0,0,0,0,175,0,0,0,0,0,
0,0,0,0,0,0,0,0,0,0,0,0,0,0,0,0,
0,0,0,0,0,0,0,0,0,0,0,0,0,0,0,0,
0,0,0,0,0,0,0,0,0,0,0,0,0,0,0,0,
0,0,0,0,0,0,0,0,0,0,0,0,0,0,0,0,
0,0,0,0,0,0,0,0,0,0,0,0,0,0,0,0,
0,0,0,0,0,0,0,0,0,0,0,0,0,0,0,0,
0,0,0,0,0,0,0,0,0,0,0,0,0,0,0,0,
0,0,0,0,0,0,0,0,0,0,0,0,0,0,0,0,
0,0,0,0,0,0,0,0,0,0,0,0,0,0,0,0,
0,0,0,0,0,0,0,0,0,0,0,0,0,0,0,0,
0,0,0,0,0,0,0,0,0,0,0,0,0,0,0,0,
0,0,0,0,0,0,0,0,0,0,0,0,0,0,0,0,
0,0,0,0,0,0,0,0,0,0,0,0,0,0,0,0
</chunk>
   <chunk x="112" y="176" width="16" height="16">
0,0,0,0,0,0,0,0,0,0,0,0,0,0,0,0,
0,0,0,0,0,0,0,0,0,0,0,0,0,0,0,0,
0,0,0,0,0,0,0,0,0,0,0,0,0,0,0,0,
0,0,0,0,0,0,0,0,0,0,0,0,0,0,0,0,
0,0,0,0,0,0,0,0,0,0,0,0,173,0,170,0,
0,0,0,0,0,0,0,0,0,0,0,0,0,0,0,0,
0,0,0,0,0,0,0,0,0,0,0,0,0,0,0,0,
0,0,0,0,0,0,0,0,0,0,0,0,0,0,0,0,
0,0,0,0,0,0,0,0,0,0,0,0,0,0,0,0,
0,0,0,0,0,0,0,0,0,0,0,0,0,0,0,0,
0,0,0,0,0,0,0,0,0,0,0,0,0,0,0,0,
0,0,0,0,0,0,0,0,0,0,0,0,0,0,0,0,
0,0,0,0,0,0,0,0,0,0,0,0,0,0,0,0,
0,0,0,0,0,0,0,0,0,0,0,0,0,0,0,0,
0,0,0,0,0,0,0,0,0,0,0,0,0,0,0,0,
0,0,0,0,0,0,0,0,0,0,0,0,0,0,0,0
</chunk>
   <chunk x="128" y="176" width="16" height="16">
0,0,0,0,0,0,0,0,0,0,0,0,0,0,0,0,
0,0,0,0,0,0,0,0,0,0,0,0,0,0,0,0,
0,0,0,0,0,0,0,0,0,0,0,0,0,0,0,0,
0,0,0,0,0,0,0,0,0,0,0,0,0,0,0,0,
0,0,0,0,0,0,0,0,0,0,0,0,0,0,0,0,
0,0,0,169,170,0,0,0,0,0,0,0,0,0,0,0,
0,0,0,0,0,0,0,0,0,0,0,0,0,0,0,0,
0,0,0,0,0,0,0,0,0,0,0,0,0,0,0,0,
0,0,0,0,0,0,0,0,0,0,0,0,0,0,0,0,
0,0,0,0,0,0,0,0,0,0,0,0,0,0,0,0,
0,0,0,0,0,0,0,0,0,0,0,0,0,0,0,0,
0,0,0,0,0,0,0,0,0,0,0,0,0,0,0,0,
0,0,0,0,0,0,0,0,0,0,0,0,0,0,0,0,
0,0,0,0,0,0,0,0,0,0,0,0,0,0,0,0,
0,0,0,0,0,0,0,0,0,0,0,0,0,0,0,0,
0,0,0,0,0,0,0,0,0,0,0,0,0,0,0,0
</chunk>
  </data>
 </layer>
 <layer id="7" name="kaktusy" width="144" height="208">
  <data encoding="csv">
   <chunk x="16" y="0" width="16" height="16">
0,0,0,0,0,0,0,0,0,0,0,0,0,0,0,0,
0,0,0,0,0,0,0,0,0,0,0,0,0,0,0,0,
0,0,0,0,0,0,0,0,0,0,0,0,0,0,0,0,
0,0,0,0,0,0,0,0,0,0,0,0,0,0,0,0,
0,0,0,0,0,0,0,0,0,0,0,0,0,0,0,0,
0,0,0,0,0,0,0,0,0,348,0,0,0,0,0,0,
0,0,0,0,0,0,0,0,0,0,0,0,0,0,0,0,
0,0,0,0,0,0,0,0,0,0,0,0,0,0,0,0,
0,0,0,0,0,0,0,0,0,0,0,0,0,0,0,0,
0,0,0,0,0,0,0,0,0,0,0,0,0,0,0,0,
0,0,0,0,0,0,0,0,0,0,0,0,0,0,0,0,
0,0,0,0,0,0,0,0,0,0,0,0,0,0,0,0,
0,0,0,0,0,0,0,0,0,0,0,0,0,0,0,0,
0,0,0,0,0,0,0,0,0,0,0,0,0,0,0,0,
0,0,0,0,0,0,0,0,0,0,0,0,0,0,0,0,
0,0,0,0,0,0,0,0,0,0,0,0,0,0,0,0
</chunk>
   <chunk x="32" y="0" width="16" height="16">
0,0,0,0,0,0,0,0,0,0,0,0,0,0,0,0,
0,0,0,0,0,0,0,0,0,0,0,0,0,0,0,0,
0,0,0,0,0,0,0,0,0,0,0,0,0,0,0,0,
0,0,0,0,353,0,0,0,0,0,0,0,0,0,0,0,
0,0,0,0,0,0,0,0,0,0,0,0,0,0,0,0,
0,0,0,0,0,0,0,0,0,0,0,0,0,0,0,0,
0,0,0,0,0,0,0,0,0,0,0,0,0,0,0,0,
0,0,0,0,0,0,0,0,0,0,0,0,0,0,0,0,
0,0,0,0,0,0,0,0,0,0,0,0,0,0,0,0,
0,0,0,0,0,0,0,0,0,0,0,0,0,0,0,0,
0,0,0,0,0,0,0,0,0,0,0,0,0,0,0,0,
0,0,0,0,0,0,0,0,0,0,0,0,0,0,0,0,
0,0,0,0,0,0,0,0,0,0,0,0,0,0,0,0,
0,0,0,0,0,0,0,0,0,0,0,0,0,0,0,0,
0,0,0,0,0,0,0,0,0,0,0,0,0,0,0,0,
0,0,0,0,0,0,0,0,0,0,0,0,0,0,0,0
</chunk>
   <chunk x="48" y="0" width="16" height="16">
0,0,0,0,0,0,0,0,0,0,0,0,0,0,0,0,
0,0,0,0,0,0,0,0,0,0,0,0,0,0,0,0,
0,0,0,0,0,0,0,0,0,0,0,0,0,0,0,0,
0,0,0,0,0,0,0,350,0,0,0,0,0,0,0,353,
0,0,0,0,0,0,0,0,0,0,0,0,0,0,0,0,
0,0,0,0,0,0,0,0,0,0,0,0,0,0,0,0,
0,0,0,0,0,0,0,0,0,0,0,0,0,0,0,0,
0,0,0,0,0,0,0,0,0,0,0,0,0,0,0,0,
0,0,0,0,0,0,0,0,0,0,0,0,0,0,0,0,
0,0,0,0,0,0,0,0,0,0,0,0,0,0,0,0,
0,0,0,0,0,0,0,0,0,0,0,0,0,0,0,0,
0,0,0,0,0,0,0,0,0,0,0,0,0,0,0,0,
0,0,0,0,0,0,0,0,0,0,0,0,0,0,0,0,
0,0,0,0,0,0,0,0,0,0,0,0,0,0,0,350,
0,0,0,0,0,0,0,0,0,0,0,0,0,0,0,0,
0,0,0,0,0,0,0,0,0,0,0,0,0,0,0,0
</chunk>
   <chunk x="96" y="0" width="16" height="16">
0,0,0,0,0,0,0,0,0,0,0,0,0,0,0,0,
0,0,0,0,0,0,0,0,0,0,0,0,0,0,0,0,
0,0,0,0,0,0,0,0,0,0,0,0,0,0,0,0,
0,0,0,0,0,0,0,0,0,0,0,0,0,350,0,0,
0,0,0,0,0,0,0,353,0,0,0,0,0,0,0,0,
0,0,0,0,0,0,0,0,0,0,0,0,0,0,0,0,
0,0,0,0,0,0,0,0,0,0,0,0,0,0,0,0,
0,0,0,0,0,0,0,0,0,0,0,0,0,0,0,0,
0,0,0,0,0,0,0,0,0,0,0,0,0,0,0,0,
0,0,0,0,0,0,0,0,0,0,0,0,0,0,0,0,
0,0,0,0,0,0,0,0,0,0,0,0,0,0,0,0,
0,0,0,0,0,0,0,0,0,0,0,0,0,0,0,0,
0,0,0,0,0,0,0,0,0,0,0,0,0,0,0,0,
0,0,0,0,0,0,0,0,0,0,0,0,0,0,0,0,
0,0,0,0,0,0,0,0,0,0,0,0,0,0,0,0,
0,0,0,0,0,0,0,0,0,0,0,0,0,0,0,0
</chunk>
   <chunk x="112" y="0" width="16" height="16">
0,0,0,0,0,0,0,0,0,0,0,0,0,0,0,0,
0,0,0,0,0,0,0,0,0,0,0,0,0,0,0,0,
353,0,0,0,0,0,0,0,0,0,0,0,0,0,0,0,
0,0,0,0,0,0,0,0,0,0,353,0,0,0,0,0,
0,0,0,0,0,0,0,0,0,0,0,0,0,0,0,0,
0,0,0,0,0,0,0,0,0,0,0,0,0,0,0,0,
0,0,0,0,0,0,0,0,0,0,0,0,0,0,0,0,
0,0,0,0,0,0,0,0,0,0,0,0,0,0,0,0,
0,0,0,0,0,0,0,0,0,0,0,0,0,0,0,0,
0,0,0,0,0,0,0,0,0,0,0,0,0,0,0,0,
0,0,0,0,0,0,0,0,0,0,0,0,0,0,0,0,
0,0,0,0,0,0,0,0,0,0,0,0,0,0,0,0,
0,0,0,0,0,0,0,0,0,0,0,0,0,0,0,0,
0,0,0,0,0,0,0,0,0,0,0,0,0,0,0,0,
0,0,0,0,0,0,0,0,0,0,0,0,0,0,0,353,
0,0,0,0,0,0,0,0,0,0,0,0,0,0,0,0
</chunk>
   <chunk x="128" y="0" width="16" height="16">
0,0,0,0,0,0,0,0,0,0,0,0,0,0,0,0,
0,0,0,0,0,0,0,0,0,0,0,0,0,0,0,0,
0,0,0,0,0,0,0,0,0,0,0,0,0,0,0,0,
0,0,0,0,0,0,0,0,0,0,0,0,0,0,0,0,
0,0,0,0,0,0,0,0,0,0,0,0,0,0,0,0,
0,0,0,0,0,348,349,0,0,0,0,0,0,0,0,0,
0,0,0,0,0,0,0,0,0,0,0,0,0,0,0,0,
0,0,0,0,353,0,0,0,0,0,0,0,0,0,0,0,
0,0,0,0,0,0,0,0,0,0,0,0,0,0,0,0,
0,0,0,0,0,0,0,0,0,0,0,0,0,0,0,0,
0,0,0,0,0,0,0,0,0,0,0,0,0,0,0,0,
0,0,0,0,0,0,0,0,0,0,0,0,0,0,0,0,
0,0,0,0,0,0,0,0,0,0,0,0,0,0,0,0,
0,0,0,0,0,0,0,0,0,0,0,0,0,0,0,0,
0,0,0,0,0,0,0,0,0,0,0,0,0,0,0,0,
0,0,0,0,0,0,0,0,0,0,0,0,0,0,0,0
</chunk>
   <chunk x="112" y="32" width="16" height="16">
0,0,0,0,0,0,0,0,0,0,0,0,0,0,0,0,
0,0,0,0,0,0,0,0,0,0,0,0,0,0,0,0,
0,0,0,0,0,0,0,0,0,0,0,0,0,0,0,0,
0,0,0,0,0,0,0,0,0,0,0,0,0,0,0,0,
0,0,0,0,0,0,0,0,0,0,0,0,0,0,0,0,
0,0,0,0,0,0,0,0,0,0,0,0,0,0,0,0,
0,0,0,0,0,0,0,0,0,0,0,0,0,0,0,0,
0,0,0,0,0,0,0,0,0,0,0,0,0,0,0,0,
0,0,0,0,0,0,0,0,0,0,0,0,0,0,0,0,
0,0,0,0,0,0,0,0,0,0,0,0,0,0,0,0,
0,0,0,0,0,0,0,0,0,0,0,0,0,0,0,0,
0,0,0,0,0,0,0,0,0,0,0,0,0,0,0,0,
0,0,0,0,0,0,0,0,0,0,0,0,0,0,0,0,
0,0,0,0,0,0,0,0,0,0,0,0,0,0,0,0,
0,0,0,0,0,0,0,0,0,0,0,0,0,0,0,0,
0,0,0,0,0,0,0,0,0,0,0,0,348,0,0,0
</chunk>
   <chunk x="128" y="32" width="16" height="16">
0,0,0,0,0,0,0,0,0,0,0,0,0,0,0,0,
0,0,0,0,0,0,0,0,0,0,0,0,0,0,0,0,
0,0,0,0,0,0,0,0,0,0,0,0,0,0,0,0,
0,0,0,0,0,0,0,0,0,0,0,0,0,0,0,0,
0,0,0,0,0,0,0,0,0,0,0,0,0,0,0,0,
0,0,0,0,0,0,0,0,0,0,0,0,0,0,0,0,
0,0,0,0,0,0,0,0,0,0,0,0,0,0,0,0,
0,0,0,0,0,0,0,0,0,0,0,349,0,0,0,0,
0,0,0,0,0,0,0,0,0,0,0,0,0,0,0,0,
0,0,0,0,0,0,0,0,0,0,0,0,0,0,0,0,
0,0,0,0,0,0,0,0,0,0,0,0,0,0,0,0,
0,0,0,0,0,0,0,0,0,0,0,0,0,0,0,0,
0,0,0,0,0,0,0,0,0,0,0,0,0,0,0,0,
0,0,0,0,0,0,0,0,0,0,0,0,0,0,0,0,
0,0,0,0,0,0,0,0,0,0,0,0,0,0,0,0,
0,0,0,0,0,0,0,0,0,0,0,0,0,0,0,0
</chunk>
   <chunk x="96" y="48" width="16" height="16">
0,0,0,0,0,0,0,0,0,0,0,0,0,0,0,0,
0,0,0,0,0,0,0,0,0,0,0,0,0,0,0,0,
0,0,0,0,0,0,0,0,0,0,0,0,0,0,0,0,
0,0,0,0,0,0,0,0,0,0,0,0,0,0,0,0,
0,0,0,0,0,0,0,0,0,0,0,0,0,353,0,0,
0,0,0,0,0,0,0,0,0,0,0,0,0,0,0,0,
0,0,0,0,0,0,0,0,0,0,0,0,0,0,0,0,
0,0,0,0,0,0,0,0,0,0,0,0,0,0,0,0,
0,0,0,0,0,0,0,0,0,0,0,0,0,0,0,0,
0,0,0,0,0,0,0,0,0,0,0,0,0,0,0,0,
0,0,0,0,0,0,0,0,0,0,0,0,0,0,0,0,
0,0,0,0,0,0,0,0,0,0,0,0,0,0,0,0,
0,0,0,0,0,0,0,0,0,0,0,0,0,0,0,0,
0,0,0,0,0,0,0,0,0,0,0,0,0,0,0,0,
0,0,0,0,0,0,0,0,0,0,0,0,0,0,0,0,
0,0,0,0,0,0,0,0,0,0,0,0,0,0,0,0
</chunk>
   <chunk x="112" y="48" width="16" height="16">
0,0,0,0,0,0,0,0,0,0,0,0,0,0,0,0,
0,0,0,0,0,0,0,0,0,0,0,0,0,0,0,0,
0,0,0,0,0,0,0,0,0,350,0,0,0,0,0,0,
0,0,0,0,0,0,0,0,0,0,0,0,0,0,0,0,
0,0,0,0,0,0,0,0,0,0,0,0,0,0,0,0,
0,0,0,0,0,0,0,0,0,0,0,0,0,0,0,0,
0,0,0,0,0,0,0,0,0,0,0,0,0,0,0,0,
0,0,0,0,0,0,0,0,0,0,0,0,0,0,0,0,
0,0,0,0,0,0,0,0,0,0,0,0,0,0,0,0,
0,0,0,0,0,0,0,0,0,0,0,0,0,0,0,0,
0,0,0,0,0,0,0,0,0,0,0,0,0,0,0,0,
0,0,0,0,0,0,0,0,0,0,0,0,0,0,0,0,
0,0,0,0,0,0,0,0,0,0,0,0,0,0,0,0,
0,0,0,0,0,0,0,0,0,0,0,0,0,0,0,0,
0,0,0,0,0,0,0,0,0,0,0,0,0,0,0,0,
0,0,0,0,0,0,0,0,0,0,0,0,0,0,0,0
</chunk>
   <chunk x="128" y="48" width="16" height="16">
0,0,0,0,0,0,0,0,0,0,0,0,0,0,0,0,
0,0,0,0,0,0,0,0,0,0,0,0,0,0,0,0,
0,0,0,0,0,0,0,0,0,0,0,0,0,0,0,0,
0,0,0,0,0,0,0,0,0,0,0,0,0,0,0,0,
0,0,0,0,0,0,0,0,0,0,0,0,0,0,0,0,
0,0,0,0,0,0,0,0,0,0,0,0,0,0,0,0,
0,0,0,0,0,0,0,0,0,0,0,0,0,0,0,0,
0,0,0,0,0,0,0,0,0,0,0,0,0,0,0,0,
0,0,0,0,0,0,0,0,0,0,0,0,0,0,0,0,
0,0,0,0,0,0,0,0,0,0,0,0,0,0,0,0,
0,0,0,0,0,0,0,0,348,0,0,0,0,0,0,0,
0,0,0,0,0,0,0,0,0,0,0,0,0,0,0,0,
0,0,0,0,0,0,0,0,0,0,0,0,0,0,0,0,
0,0,0,0,0,0,0,0,0,0,0,0,0,0,0,0,
0,0,0,0,0,0,0,0,0,0,0,350,0,0,0,0,
0,0,0,0,0,0,0,0,0,0,0,0,0,0,0,0
</chunk>
   <chunk x="80" y="64" width="16" height="16">
0,0,0,0,0,0,0,0,0,0,0,353,0,0,0,0,
0,0,0,0,0,0,0,0,0,0,0,0,0,0,0,0,
0,0,0,0,0,0,0,0,0,0,0,0,0,0,0,0,
0,0,0,0,0,0,0,0,0,0,0,0,0,0,0,0,
0,0,0,0,0,0,0,0,0,0,0,0,0,0,0,0,
0,0,0,0,0,0,0,0,0,0,0,0,0,0,0,0,
0,0,0,0,0,0,0,0,0,0,0,0,0,0,0,0,
0,0,0,0,0,0,0,0,0,0,0,0,0,0,0,0,
0,0,0,0,0,0,0,0,0,0,0,0,0,0,0,0,
0,0,0,0,0,0,0,0,0,0,0,0,0,0,0,0,
0,0,0,0,0,0,0,0,0,0,0,0,0,0,0,0,
0,0,0,0,0,0,0,0,0,0,0,0,0,0,0,0,
0,0,0,0,0,0,0,0,0,0,0,0,0,0,0,0,
0,0,0,0,0,0,0,0,0,0,0,0,0,0,0,0,
0,0,0,0,0,0,0,0,0,0,0,0,0,0,0,0,
0,0,0,0,0,0,0,0,0,0,0,0,0,0,0,0
</chunk>
   <chunk x="96" y="64" width="16" height="16">
0,0,0,0,0,0,0,0,0,0,0,0,0,0,0,0,
0,0,0,0,0,0,0,0,0,0,0,0,0,0,0,0,
0,0,0,0,0,0,0,0,0,0,0,0,0,0,0,0,
0,0,0,0,0,0,0,0,0,0,0,0,0,0,0,0,
0,0,0,0,0,0,0,0,0,0,0,0,0,0,0,0,
0,0,0,0,0,0,0,0,0,0,0,0,0,0,0,0,
0,0,0,0,0,0,0,0,0,0,0,0,0,0,0,0,
0,0,0,0,0,0,0,0,0,0,0,0,0,0,0,0,
0,0,0,0,0,0,0,0,0,0,0,0,0,0,0,0,
0,0,0,0,0,0,0,0,0,0,0,0,0,0,0,0,
0,0,0,0,0,0,0,0,0,0,0,0,0,0,0,0,
0,0,0,0,0,0,0,0,0,0,0,0,0,0,0,0,
0,0,0,0,0,0,0,353,0,0,0,0,0,0,0,0,
0,0,0,0,0,0,0,0,0,0,0,0,0,0,0,0,
0,0,0,0,0,0,0,0,0,0,0,0,0,0,0,0,
0,0,0,0,0,0,0,0,0,0,0,0,0,0,0,0
</chunk>
   <chunk x="128" y="64" width="16" height="16">
0,0,0,0,0,0,0,0,0,0,0,0,0,0,0,0,
0,0,0,0,0,0,0,0,0,0,0,0,0,0,0,0,
0,0,0,0,0,0,0,0,0,0,0,0,0,0,0,0,
0,0,0,0,0,0,0,0,0,0,0,0,0,0,0,0,
0,0,0,0,0,0,0,0,0,0,0,0,0,0,0,0,
0,0,0,0,0,0,0,0,0,0,0,0,0,0,0,0,
353,0,0,0,0,0,0,0,0,0,0,0,0,0,0,0,
0,0,0,0,0,0,0,0,0,0,0,0,0,0,0,0,
0,0,0,0,0,0,0,0,0,0,0,0,0,0,0,0,
0,0,0,0,0,0,0,0,0,0,0,353,0,0,0,0,
0,0,0,0,0,0,0,0,0,0,0,0,0,0,0,0,
0,0,0,0,0,0,0,0,0,0,0,0,0,0,0,0,
0,0,0,0,0,0,0,0,0,0,0,0,0,0,0,0,
0,0,0,0,0,0,0,0,0,0,0,0,0,0,0,0,
0,0,0,0,0,0,0,0,0,0,0,0,0,0,0,0,
0,0,0,0,0,0,0,0,0,0,0,0,0,0,0,0
</chunk>
   <chunk x="0" y="80" width="16" height="16">
0,0,0,0,0,0,0,0,0,0,0,0,0,0,0,0,
0,0,0,0,0,0,0,0,0,0,0,0,0,0,0,0,
0,0,0,0,0,0,0,0,0,0,0,0,0,0,0,0,
0,0,0,0,0,0,0,0,0,0,0,0,0,0,0,0,
0,0,0,0,0,0,0,0,0,0,0,0,350,0,0,0,
0,0,0,0,0,0,0,0,0,0,0,0,0,0,0,0,
0,0,0,0,0,0,0,0,0,0,0,0,0,0,0,0,
0,0,0,0,0,0,0,0,0,0,0,0,0,0,0,0,
0,0,0,0,0,0,0,0,0,353,0,0,0,0,0,0,
0,0,0,0,0,0,0,0,0,0,0,0,0,0,0,0,
0,0,0,0,0,0,0,0,0,0,0,0,0,0,0,0,
0,0,0,0,0,0,0,0,0,0,0,0,0,0,0,0,
0,0,0,0,0,0,0,0,0,0,0,0,0,0,0,0,
0,0,0,0,0,0,0,0,0,0,0,0,0,0,0,0,
0,0,0,0,0,0,0,0,0,0,0,0,0,0,0,0,
0,0,0,0,0,0,0,0,0,0,0,0,0,0,0,0
</chunk>
   <chunk x="32" y="80" width="16" height="16">
0,0,0,0,0,0,0,0,0,0,0,0,0,0,0,0,
0,0,0,0,0,0,0,0,0,0,0,0,0,0,0,0,
0,0,0,0,0,0,0,0,0,0,0,0,0,0,0,0,
0,0,0,0,0,0,0,0,0,0,0,0,0,0,0,0,
0,0,0,0,0,0,0,0,0,0,0,0,0,0,0,0,
0,0,0,0,0,0,0,0,0,0,0,0,0,0,0,0,
0,0,0,0,0,0,0,0,0,0,0,0,0,0,0,0,
0,0,0,0,0,0,0,0,0,0,0,0,0,0,0,0,
0,0,0,0,0,0,0,0,0,0,0,0,0,0,0,0,
0,0,0,0,0,0,0,0,0,0,0,0,0,0,0,0,
0,0,0,0,0,0,0,0,0,0,0,0,0,0,0,0,
0,0,0,0,0,0,0,0,0,0,0,0,0,0,0,0,
0,0,0,0,0,0,0,0,0,0,0,0,0,0,0,0,
0,0,0,0,0,0,0,0,0,348,0,0,0,0,0,0,
0,0,0,0,0,0,0,0,0,0,0,0,0,0,349,0,
0,0,0,0,0,0,0,0,0,0,0,0,0,0,0,0
</chunk>
   <chunk x="48" y="80" width="16" height="16">
0,0,0,0,0,0,0,0,0,0,0,0,0,0,0,0,
0,0,0,0,0,0,0,0,0,0,0,0,0,0,0,0,
0,0,0,0,0,0,0,0,0,0,0,0,0,0,0,0,
0,0,0,0,0,0,0,0,0,0,0,0,0,0,0,0,
0,0,0,0,0,0,0,0,0,0,0,0,0,0,0,0,
0,0,0,0,0,0,0,0,0,0,0,0,0,0,0,0,
0,0,0,0,0,0,0,0,0,0,0,0,0,0,0,0,
0,0,339,0,0,0,0,0,0,0,0,0,0,0,0,0,
0,0,0,0,0,0,0,0,0,0,0,0,0,0,0,0,
0,0,0,0,0,0,0,0,0,0,0,0,0,0,0,0,
0,0,0,0,0,0,0,0,0,0,0,0,0,0,0,0,
0,0,0,0,0,0,0,0,0,0,0,0,0,0,0,0,
0,0,0,0,0,0,0,0,0,0,0,0,0,0,0,0,
0,0,0,0,0,0,0,0,0,0,0,0,0,0,0,0,
0,0,0,0,0,0,0,0,0,0,0,0,0,0,0,0,
0,0,0,0,0,0,0,0,0,0,0,0,0,0,0,0
</chunk>
   <chunk x="112" y="80" width="16" height="16">
0,0,0,0,0,0,0,0,0,0,0,0,0,0,0,0,
0,0,0,0,0,0,0,0,353,0,0,0,0,0,0,0,
0,0,0,0,0,0,0,0,0,0,0,0,0,0,0,0,
0,0,0,0,0,0,0,0,0,0,0,0,0,0,0,0,
0,0,0,0,0,0,0,0,0,0,0,0,0,0,0,0,
0,0,0,0,0,0,0,0,0,0,0,0,0,0,0,0,
0,0,0,0,0,0,0,0,0,0,0,0,0,0,0,0,
0,0,0,0,0,0,0,0,0,0,0,0,0,0,0,0,
0,0,0,0,0,0,0,0,0,0,0,0,0,0,0,0,
0,0,0,0,0,0,0,0,0,0,0,0,0,0,0,0,
0,0,0,0,0,0,0,0,0,0,0,0,0,0,0,0,
0,0,0,0,0,0,0,0,0,0,0,0,0,0,0,0,
0,0,0,0,0,0,0,0,0,0,0,0,0,0,0,0,
0,0,0,0,0,0,0,0,0,0,0,0,0,0,0,0,
0,0,0,0,0,0,0,0,0,0,0,0,0,0,0,0,
0,0,0,0,0,0,0,0,0,0,0,0,0,0,0,0
</chunk>
   <chunk x="128" y="80" width="16" height="16">
0,0,0,0,0,0,0,0,0,0,0,0,0,0,0,0,
0,0,0,0,0,0,0,0,0,0,0,0,0,0,0,0,
0,0,0,0,0,0,0,0,0,350,0,0,0,0,0,0,
0,0,0,0,0,0,0,0,0,0,0,0,0,0,0,0,
0,0,0,0,0,0,0,0,0,0,0,0,0,0,0,0,
0,0,0,0,0,0,0,0,0,0,0,0,0,0,0,0,
0,0,0,0,0,0,0,0,0,0,0,0,0,0,0,0,
0,0,0,0,0,0,0,0,0,0,0,350,0,0,0,0,
0,0,0,0,0,0,0,0,0,0,0,0,0,0,0,0,
0,0,0,0,0,0,0,0,353,0,0,0,0,0,0,0,
0,0,0,0,0,0,0,0,0,0,0,0,0,0,0,0,
0,0,0,0,0,0,0,0,0,0,0,0,0,0,0,0,
0,0,0,0,0,0,0,0,0,0,0,0,0,0,0,0,
0,0,0,0,0,0,0,0,0,0,0,0,0,0,0,0,
0,0,0,0,0,0,0,0,0,0,0,0,0,0,0,0,
0,0,0,0,0,0,0,0,0,0,0,0,0,0,0,0
</chunk>
   <chunk x="112" y="96" width="16" height="16">
0,0,0,0,0,0,0,0,0,0,0,0,0,0,0,0,
0,0,0,0,0,0,0,0,0,0,0,0,0,0,0,0,
0,0,0,0,0,0,0,0,0,0,0,0,0,0,0,0,
0,0,0,0,0,0,0,0,0,0,0,0,0,0,0,0,
0,0,0,0,0,0,0,0,0,0,0,0,0,350,0,0,
0,0,0,0,0,0,0,0,0,0,0,0,0,0,0,0,
0,0,0,0,0,0,0,0,0,0,0,0,0,0,0,0,
0,0,0,0,0,0,0,0,0,0,0,0,0,0,0,0,
0,0,0,0,0,0,0,0,0,0,0,0,0,0,0,0,
0,0,0,0,0,0,0,0,0,0,0,0,0,0,0,0,
0,0,0,0,0,0,0,0,0,0,0,0,0,0,0,0,
0,0,0,0,0,0,0,0,0,0,0,0,0,0,0,0,
0,0,0,0,0,0,0,0,0,0,0,0,0,0,0,0,
0,0,0,0,0,0,0,0,0,0,0,0,0,0,0,0,
0,0,0,0,0,0,0,0,0,0,0,0,0,0,0,0,
0,0,0,0,0,0,0,0,0,0,0,0,0,0,0,0
</chunk>
   <chunk x="128" y="96" width="16" height="16">
0,0,0,0,0,0,0,0,0,0,0,0,0,0,0,0,
0,0,0,0,0,0,0,0,0,0,0,0,0,0,0,0,
0,0,0,0,0,0,0,0,0,0,0,0,0,0,0,0,
0,0,0,0,0,0,0,0,0,0,0,0,0,0,0,0,
0,0,0,0,0,0,0,0,0,0,0,0,0,0,0,0,
0,0,0,0,0,0,0,0,0,0,0,0,0,0,0,0,
0,0,0,0,0,0,0,0,0,0,0,0,0,0,0,0,
0,0,0,0,0,0,0,0,0,0,0,0,0,0,0,0,
0,0,0,0,0,0,0,0,0,0,0,0,0,0,0,0,
0,0,0,0,0,0,0,0,0,0,0,0,0,0,0,0,
0,0,0,0,0,0,0,0,0,0,0,0,0,0,0,0,
0,0,0,0,0,0,0,0,0,0,0,0,0,0,0,0,
0,0,0,0,0,0,0,0,0,0,0,0,0,0,0,0,
0,0,0,348,0,0,0,0,0,0,0,0,0,0,0,0,
0,0,0,0,0,0,0,0,0,0,0,0,0,0,0,0,
353,0,0,0,0,0,0,0,0,0,0,0,0,0,0,0
</chunk>
   <chunk x="0" y="112" width="16" height="16">
0,0,0,0,0,0,0,0,0,353,0,0,0,0,0,0,
0,0,0,0,0,0,0,0,0,0,0,0,0,0,0,0,
0,0,0,0,0,0,0,0,0,0,0,0,0,0,0,0,
0,0,0,0,0,0,0,0,0,0,0,0,0,0,0,0,
0,0,0,0,0,0,0,0,0,0,0,0,0,0,0,0,
0,0,0,0,0,0,0,0,0,0,0,0,0,0,0,0,
0,0,0,0,0,0,0,0,0,0,0,0,0,0,0,0,
0,0,0,0,0,0,0,0,0,0,0,0,0,0,0,0,
0,0,0,0,0,0,0,0,0,0,0,0,0,0,0,0,
0,0,0,0,0,0,0,0,0,0,0,0,0,0,0,0,
0,0,0,348,0,0,0,0,0,0,0,0,0,0,0,0,
0,0,0,0,0,0,0,0,0,0,0,0,0,0,0,0,
0,0,0,0,0,0,0,0,0,0,0,0,0,0,0,0,
0,0,0,0,0,0,0,0,0,0,0,0,0,0,0,0,
0,0,0,0,0,0,0,0,0,0,0,0,0,0,0,0,
0,0,0,0,0,0,0,0,0,0,0,0,0,0,0,0
</chunk>
   <chunk x="16" y="112" width="16" height="16">
0,0,0,0,0,0,0,0,0,0,0,0,0,350,0,0,
0,0,0,0,0,0,0,0,0,0,0,0,0,0,0,0,
0,0,0,0,0,0,0,0,0,0,0,0,0,0,0,0,
0,0,0,0,0,0,0,0,0,0,0,0,0,0,0,0,
0,0,0,0,0,0,0,0,0,0,0,0,0,0,0,0,
0,0,0,0,0,0,0,0,0,0,348,0,0,0,0,0,
0,0,0,0,0,0,0,0,0,0,0,0,0,0,0,0,
0,0,0,0,0,0,0,0,0,0,0,0,0,0,0,0,
0,0,0,0,0,0,0,0,0,0,0,0,0,0,0,0,
0,0,0,0,0,0,0,0,0,0,0,0,0,0,0,0,
0,0,0,0,0,0,0,0,0,0,0,0,0,0,0,0,
0,0,0,0,0,0,0,0,0,0,0,0,0,0,0,0,
0,0,0,0,0,0,0,0,0,0,0,0,0,0,0,0,
0,0,0,0,0,0,0,0,0,0,0,0,0,0,0,0,
0,0,0,0,0,0,0,0,0,0,0,0,0,0,0,0,
0,0,0,0,0,0,0,0,0,0,0,0,0,0,0,0
</chunk>
   <chunk x="80" y="112" width="16" height="16">
0,0,0,0,0,0,0,0,0,0,0,0,353,0,0,0,
0,0,0,0,0,0,0,0,0,0,0,0,0,0,0,0,
0,0,0,0,0,0,0,0,0,0,0,0,0,0,0,0,
0,0,0,0,0,0,0,0,0,0,0,0,0,0,0,0,
0,0,0,0,0,0,0,0,0,0,0,0,0,0,0,0,
0,0,0,0,0,0,0,0,0,0,0,0,0,0,0,0,
0,0,0,0,0,0,0,0,0,0,0,0,0,0,0,0,
0,0,0,0,0,0,0,0,0,0,0,0,0,0,0,0,
0,0,0,0,0,0,0,0,0,0,0,0,0,0,0,0,
0,0,0,0,0,0,0,0,0,0,0,0,0,0,0,0,
0,0,0,0,0,0,0,0,0,0,0,0,0,0,0,0,
0,0,0,0,0,0,0,0,0,0,0,0,0,0,0,0,
0,0,0,0,0,0,0,0,0,0,0,0,0,0,0,0,
0,0,0,0,0,0,0,0,0,0,0,0,0,0,0,0,
0,0,0,0,0,0,0,0,0,0,0,0,0,0,0,0,
0,0,0,0,0,0,0,0,0,0,0,0,0,0,0,0
</chunk>
   <chunk x="96" y="112" width="16" height="16">
0,0,0,0,0,0,0,0,0,0,0,0,0,0,0,0,
0,0,0,0,0,0,0,0,0,0,0,0,0,0,0,0,
0,0,0,0,0,0,0,0,0,0,0,0,0,0,0,0,
0,0,0,0,0,0,0,0,0,0,0,0,0,0,0,0,
0,0,0,0,0,0,0,0,0,0,0,0,0,0,0,0,
0,0,0,0,0,0,0,0,0,0,0,0,0,0,0,0,
0,0,0,0,350,0,0,0,0,0,0,0,0,0,0,0,
0,0,0,0,0,0,0,0,0,0,0,0,0,0,0,0,
0,0,0,0,0,0,0,0,0,0,0,0,0,0,0,0,
0,0,0,0,0,0,0,0,0,0,0,0,0,0,0,0,
0,0,0,0,0,0,0,0,0,0,0,0,0,0,0,0,
0,0,0,0,0,0,0,0,0,0,0,0,0,0,0,0,
0,0,0,0,0,0,0,0,0,0,0,0,0,0,0,0,
0,0,0,0,0,0,0,0,0,0,0,0,0,0,0,0,
0,0,0,0,0,0,0,0,0,0,0,0,0,0,0,0,
0,0,0,0,0,0,0,0,0,0,0,0,0,0,0,0
</chunk>
   <chunk x="0" y="128" width="16" height="16">
0,0,0,353,0,0,0,0,0,0,0,0,0,0,0,0,
0,0,0,0,0,0,0,0,0,0,0,0,0,0,0,0,
0,0,0,0,0,0,0,0,0,0,0,0,0,0,0,0,
0,0,0,0,0,0,0,0,0,0,0,0,0,0,0,0,
0,0,0,0,0,0,0,0,0,0,0,0,0,0,0,0,
0,0,0,0,0,0,0,0,0,0,0,0,0,0,0,0,
0,0,0,0,0,0,0,0,0,0,0,0,0,0,0,0,
0,0,0,0,0,0,0,0,0,0,0,0,0,0,0,0,
0,0,0,0,0,0,0,0,0,0,0,0,0,0,0,0,
0,0,0,0,0,0,0,0,0,0,0,0,0,0,0,0,
0,0,0,0,0,0,0,0,0,0,0,0,0,0,0,0,
0,0,0,0,0,0,0,0,0,0,0,0,0,0,0,0,
0,0,0,0,0,0,0,0,0,0,0,0,0,0,0,0,
0,0,0,0,0,0,0,0,0,0,0,0,0,0,0,0,
0,0,0,0,0,0,0,0,0,0,0,0,0,0,0,0,
0,0,0,0,0,0,0,0,0,0,0,0,0,0,0,0
</chunk>
   <chunk x="16" y="128" width="16" height="16">
0,0,0,0,0,0,0,0,0,0,0,0,0,0,0,0,
0,0,0,0,0,0,0,0,0,0,0,0,0,0,0,0,
0,0,0,0,0,0,0,0,0,0,0,0,0,0,0,0,
0,0,0,0,0,0,0,0,0,0,0,0,0,0,0,0,
0,0,0,0,0,0,0,0,0,0,0,0,0,0,0,0,
0,0,0,0,0,0,0,0,0,0,0,0,0,0,0,0,
0,0,0,0,0,0,0,0,0,0,0,0,0,0,0,0,
0,0,0,0,0,0,0,0,0,0,0,0,0,0,0,0,
0,0,0,0,0,0,0,0,0,0,0,0,0,0,0,0,
0,0,0,0,0,0,0,0,0,0,0,0,0,0,0,0,
0,0,0,0,0,0,0,0,0,0,0,0,0,0,0,0,
0,0,0,0,0,0,0,0,0,0,0,0,0,0,0,0,
0,0,0,0,0,0,0,0,0,348,0,0,0,0,0,0,
0,0,0,0,0,0,0,0,0,0,0,0,0,0,0,0,
0,0,0,0,0,0,0,0,0,0,0,0,0,0,0,0,
0,0,0,0,0,0,0,0,0,0,0,0,0,0,0,0
</chunk>
   <chunk x="48" y="128" width="16" height="16">
0,0,0,0,0,0,0,0,0,0,0,0,0,0,0,0,
0,0,0,0,0,0,0,0,0,0,0,0,0,0,0,0,
0,0,0,0,0,0,0,0,0,0,0,0,0,0,0,0,
0,0,0,0,0,0,0,0,0,0,0,0,0,0,0,0,
0,0,0,0,0,0,0,0,0,0,0,0,0,0,0,0,
0,0,0,0,0,0,0,0,0,0,0,0,0,0,0,0,
0,0,0,0,0,0,0,0,0,0,0,0,0,0,0,0,
0,0,0,0,0,0,0,0,0,0,0,0,0,0,0,0,
0,0,0,0,0,0,0,0,0,0,0,0,0,0,0,0,
0,0,0,0,0,0,0,0,0,0,0,0,0,0,0,0,
0,0,0,0,0,0,0,0,0,0,0,0,0,0,0,0,
0,0,0,0,0,0,0,0,0,0,0,0,0,0,0,0,
0,0,0,0,0,0,0,0,0,0,0,0,0,0,0,0,
0,0,0,0,0,0,0,0,0,0,0,0,0,0,0,0,
0,0,0,0,0,0,0,0,0,348,0,0,0,0,0,0,
0,0,0,0,0,0,0,0,0,0,0,0,0,0,0,0
</chunk>
   <chunk x="112" y="128" width="16" height="16">
0,0,0,0,0,0,353,0,0,0,0,0,0,0,0,0,
0,0,0,0,0,0,0,0,0,0,0,0,0,0,0,0,
0,0,0,0,0,0,0,0,0,0,0,0,0,0,0,0,
0,0,0,0,0,0,0,0,0,0,0,0,0,0,0,0,
0,0,0,0,0,0,0,0,0,0,0,0,0,0,0,0,
0,0,0,0,0,0,0,0,0,0,0,0,0,0,0,0,
0,0,0,0,0,0,0,0,0,0,0,0,0,0,0,0,
0,0,0,0,0,0,0,0,0,0,0,0,0,0,0,0,
0,0,0,0,0,0,0,0,0,0,0,0,0,0,0,0,
0,0,0,0,0,0,0,0,0,0,0,0,0,0,0,0,
0,0,0,0,0,0,0,0,0,0,0,0,0,0,0,0,
0,0,0,0,0,0,0,0,0,0,0,0,0,0,0,0,
0,0,0,0,0,0,0,0,0,0,0,0,0,0,0,0,
0,0,0,0,0,0,0,0,0,0,0,0,0,0,0,0,
0,0,0,0,0,0,0,0,0,0,0,0,0,0,0,0,
0,0,0,0,0,0,0,0,0,0,0,0,0,0,0,0
</chunk>
   <chunk x="0" y="144" width="16" height="16">
0,0,0,0,0,0,0,0,0,0,0,0,0,0,0,0,
0,0,0,0,0,0,0,0,0,0,0,0,0,0,0,0,
0,0,0,0,0,0,0,0,0,0,0,0,0,0,0,0,
0,0,0,0,0,0,0,0,0,0,0,0,0,0,0,0,
0,0,0,0,0,0,0,0,0,0,0,0,0,0,0,0,
0,0,0,0,0,0,0,0,0,0,0,0,0,0,0,0,
0,0,0,0,0,0,0,0,0,0,0,0,0,0,0,0,
0,0,0,0,0,0,0,0,0,0,0,0,0,0,0,0,
0,0,0,0,0,0,0,0,0,0,0,0,0,0,0,0,
0,0,0,0,0,0,0,0,0,0,0,0,0,0,0,0,
0,0,0,0,0,0,0,0,0,0,0,0,0,0,0,0,
0,0,0,0,0,0,0,0,0,0,0,0,0,0,0,0,
0,0,0,0,0,0,0,0,0,0,0,0,0,0,0,0,
0,0,0,0,0,0,348,0,0,0,0,0,0,0,0,0,
0,0,0,0,0,0,0,0,0,0,0,0,0,0,0,0,
0,0,0,0,0,0,0,0,0,0,0,0,0,0,0,0
</chunk>
   <chunk x="16" y="144" width="16" height="16">
0,0,0,0,0,0,0,0,0,0,0,0,0,0,350,0,
0,0,0,0,0,0,0,0,0,0,0,0,0,0,0,0,
0,0,0,0,0,0,0,0,0,0,0,0,0,0,0,0,
0,0,0,0,0,0,0,0,0,0,0,0,0,0,0,0,
0,0,0,0,0,0,0,0,0,0,0,0,0,0,0,0,
0,0,0,0,0,0,0,0,0,0,0,0,0,0,0,0,
0,0,0,0,0,0,0,0,0,0,0,0,0,0,0,0,
0,0,0,0,0,0,0,0,0,0,0,0,0,0,0,0,
0,0,0,0,0,0,0,0,0,0,0,0,0,0,0,0,
0,0,0,0,0,0,0,0,0,0,0,0,0,0,0,0,
0,0,0,0,0,0,0,0,0,0,0,0,0,0,0,0,
0,0,0,0,0,0,0,0,0,0,0,0,0,0,0,0,
0,0,0,0,0,0,0,0,0,0,0,0,0,0,0,0,
0,0,0,0,0,0,0,0,0,0,0,0,0,0,0,0,
0,0,0,0,0,0,0,0,0,0,0,0,0,0,0,0,
0,0,0,0,0,0,0,0,0,0,0,0,0,0,0,0
</chunk>
   <chunk x="48" y="144" width="16" height="16">
0,0,0,0,0,0,353,0,0,0,0,0,0,0,0,0,
0,0,0,0,0,0,0,0,0,0,0,0,0,0,0,0,
0,0,0,0,0,0,0,0,0,0,0,0,0,0,0,0,
0,0,0,0,0,0,0,0,0,0,0,0,0,0,0,0,
0,0,0,0,0,0,0,0,0,0,0,0,0,0,0,0,
0,0,0,0,0,0,0,0,0,0,0,0,0,0,0,0,
0,0,0,0,0,0,0,0,0,0,0,0,0,0,0,0,
0,0,0,0,0,0,0,0,0,0,0,0,0,0,0,0,
0,0,0,0,0,0,0,0,0,0,0,0,0,0,0,0,
0,0,0,0,0,0,0,0,0,0,0,0,0,0,0,0,
0,0,0,0,0,0,0,0,0,0,0,0,0,0,0,0,
0,0,0,0,0,0,0,0,0,0,0,0,0,0,0,0,
0,0,0,0,0,0,0,0,0,0,0,0,0,0,0,0,
0,0,0,0,0,0,0,0,0,0,0,0,0,0,0,0,
0,0,0,0,0,0,0,0,0,0,0,0,0,0,0,0,
0,0,0,0,0,0,0,0,0,0,0,0,0,0,0,0
</chunk>
   <chunk x="64" y="144" width="16" height="16">
0,0,0,0,0,0,0,0,0,0,0,0,0,0,0,0,
0,0,0,0,0,0,0,0,0,0,0,0,0,0,0,0,
0,0,0,0,0,0,0,0,0,0,0,0,0,0,0,0,
0,0,0,0,0,0,0,0,0,0,0,0,0,0,0,0,
0,0,0,0,0,0,353,0,0,0,0,0,0,0,0,0,
0,0,0,0,0,0,0,0,0,0,0,0,0,0,0,0,
0,0,0,0,0,0,0,0,0,0,0,0,0,0,0,0,
0,0,0,0,0,0,0,0,0,0,0,0,0,0,0,0,
0,0,0,0,0,0,0,0,0,0,0,0,0,0,0,0,
0,0,0,0,0,0,0,0,0,0,0,0,0,0,0,0,
0,0,0,0,0,0,0,0,0,0,0,0,0,0,0,0,
0,0,0,0,0,0,0,0,0,0,0,0,0,0,0,0,
0,0,0,0,0,0,0,0,0,0,0,0,0,0,0,0,
0,0,0,0,0,0,0,0,0,0,0,0,0,0,0,0,
0,0,0,0,0,0,0,0,0,0,0,0,0,0,0,0,
0,0,0,0,0,0,0,0,0,0,0,0,0,0,0,0
</chunk>
   <chunk x="0" y="160" width="16" height="16">
0,0,0,0,0,0,0,0,0,0,0,0,0,0,0,0,
0,0,0,350,0,0,0,0,0,0,0,0,0,0,0,0,
0,0,0,0,0,0,0,0,0,0,0,0,0,0,0,0,
0,0,0,0,0,0,0,0,0,0,0,0,0,0,0,0,
0,0,0,0,0,0,0,0,0,0,0,0,0,0,0,0,
0,0,0,0,0,0,0,0,0,0,0,0,0,0,0,0,
0,0,0,0,0,0,0,0,0,0,0,0,0,0,0,0,
0,0,0,0,0,0,0,0,0,0,0,0,0,0,0,0,
0,0,0,0,0,0,0,0,0,0,0,0,0,0,0,0,
0,0,0,0,353,0,0,0,0,0,0,0,0,0,0,0,
0,0,0,0,0,0,0,0,0,0,0,0,0,0,0,0,
0,0,0,0,0,0,0,0,0,0,0,0,0,0,0,0,
0,0,0,0,0,0,0,0,0,0,0,0,0,0,0,0,
0,0,0,0,0,0,0,0,0,0,0,0,0,0,0,0,
0,0,0,0,0,0,0,0,0,0,0,0,0,0,0,0,
0,0,0,0,0,0,0,0,0,0,0,0,0,0,0,0
</chunk>
   <chunk x="32" y="160" width="16" height="16">
353,0,0,0,0,0,0,0,0,0,0,0,0,0,0,0,
0,0,0,0,0,0,0,0,0,0,0,0,0,0,0,0,
0,0,0,0,0,0,0,0,0,0,0,0,0,0,0,0,
0,0,0,0,0,0,0,0,0,0,0,0,0,0,0,0,
0,0,0,0,0,0,0,0,0,0,0,0,0,0,0,0,
0,0,0,0,0,0,0,0,0,0,0,0,0,0,0,0,
0,0,0,0,0,0,0,0,0,0,0,0,0,0,0,0,
0,0,0,0,0,0,0,0,0,0,0,0,0,0,0,0,
0,0,0,0,0,0,0,0,0,0,0,0,0,0,0,0,
0,0,0,0,0,0,0,0,0,0,0,0,0,0,0,0,
0,0,0,0,0,0,0,0,0,0,0,0,0,0,0,0,
0,0,0,0,0,0,0,0,0,0,0,0,0,0,0,0,
0,0,0,0,0,0,0,0,0,0,0,0,0,0,0,0,
0,0,0,0,0,0,0,0,0,0,0,0,0,0,0,0,
0,0,0,0,0,0,0,0,0,0,0,0,0,0,0,0,
0,0,0,0,0,0,0,0,0,0,0,0,0,0,0,0
</chunk>
   <chunk x="64" y="160" width="16" height="16">
0,0,0,0,0,0,0,0,0,0,0,0,0,0,352,0,
0,0,0,0,0,0,0,0,0,0,0,0,0,0,0,0,
0,0,0,0,0,0,0,0,0,0,0,0,0,0,0,0,
0,0,0,0,0,0,0,0,0,0,0,0,0,0,0,0,
0,0,0,0,0,0,0,0,0,0,0,0,0,0,0,0,
0,0,0,0,0,0,0,0,0,0,0,0,0,0,0,0,
0,0,0,0,0,0,0,0,0,0,0,0,0,0,0,0,
0,0,0,0,0,0,0,0,0,0,0,0,0,0,0,0,
0,0,0,0,0,0,0,0,0,0,0,0,0,0,0,0,
0,0,0,0,0,0,0,0,0,0,0,0,0,0,0,0,
0,0,0,0,0,0,0,0,0,0,0,0,0,0,0,0,
0,0,0,0,0,0,0,0,0,0,0,0,0,0,0,0,
0,0,0,0,0,0,0,0,0,0,0,0,0,0,0,0,
0,0,0,0,0,0,0,0,0,0,0,0,0,0,0,0,
0,0,0,0,0,0,0,0,0,0,0,0,0,0,0,0,
0,0,0,0,0,0,0,0,0,0,0,0,0,0,0,0
</chunk>
   <chunk x="80" y="160" width="16" height="16">
0,0,0,0,0,0,0,0,0,0,0,0,0,0,0,0,
0,0,0,0,0,0,0,0,0,0,0,0,0,0,0,0,
0,353,0,0,0,0,0,0,0,0,0,0,0,0,0,0,
0,0,0,0,0,0,0,0,0,0,0,0,0,0,0,0,
0,0,0,0,0,0,0,0,0,0,0,0,0,0,0,0,
0,0,0,0,0,0,0,0,0,0,0,0,0,0,0,0,
0,0,0,0,0,0,0,0,0,0,0,0,0,0,0,0,
0,0,0,0,0,0,0,0,0,0,0,0,0,0,0,0,
0,0,0,0,0,0,0,0,0,0,0,0,0,0,0,0,
0,0,0,0,0,0,0,0,0,0,0,0,0,0,0,0,
0,0,0,0,0,0,0,0,0,0,0,0,0,0,0,0,
0,0,0,0,0,0,0,0,0,0,0,0,0,0,0,0,
0,0,0,0,0,0,0,0,0,0,0,0,0,0,0,0,
0,0,0,0,0,0,0,0,0,0,0,0,0,0,0,0,
0,0,0,0,0,0,0,0,0,0,0,0,0,0,0,0,
0,0,0,0,0,0,0,0,0,0,0,0,0,0,0,0
</chunk>
  </data>
 </layer>
 <layer id="11" name="wielka skała" width="144" height="208">
  <data encoding="csv">
   <chunk x="32" y="144" width="16" height="16">
0,0,0,0,0,0,0,1000,1001,1002,1003,1004,1005,0,0,0,
0,0,0,0,0,0,0,1008,1009,1010,1011,1012,1013,0,0,0,
0,0,0,0,0,0,0,1016,1017,1018,1019,1020,1021,0,0,0,
0,0,0,0,0,0,0,1024,1025,1026,1027,1028,1029,0,936,937,
0,0,0,0,0,0,0,0,0,0,0,0,0,0,944,945,
0,0,0,0,0,0,0,0,0,0,0,0,0,0,952,953,
0,0,0,0,0,0,0,0,0,936,937,938,939,940,953,954,
0,0,0,0,0,1006,1007,0,0,944,945,953,954,955,961,962,
0,0,0,0,0,1014,1015,0,936,953,954,955,955,963,969,970,
0,0,0,0,0,1022,1023,0,944,961,962,963,963,971,955,955,
0,0,0,0,0,1030,1031,0,976,953,954,955,971,963,963,953,
0,0,0,0,0,0,0,0,984,961,962,953,953,954,955,953,
0,0,0,0,0,0,0,0,992,969,970,961,961,962,963,961,
0,0,0,0,0,0,0,0,0,976,977,969,969,970,971,969,
0,0,0,0,0,0,0,0,0,984,985,976,977,978,979,980,
0,0,0,0,0,0,0,0,0,992,993,984,985,986,987,988
</chunk>
   <chunk x="48" y="144" width="16" height="16">
0,0,0,0,0,0,0,0,0,0,0,0,0,0,0,0,
0,0,0,0,0,0,0,0,0,0,0,0,0,0,0,0,
0,0,0,0,0,0,0,0,0,0,0,0,0,0,0,0,
938,939,940,941,0,0,0,0,0,0,0,0,0,0,0,0,
946,947,948,949,0,0,0,0,0,0,0,0,0,0,0,0,
954,955,956,957,0,0,0,0,0,0,0,0,0,0,0,0,
953,953,954,955,937,938,939,940,941,0,0,0,0,0,0,0,
961,961,962,963,953,954,955,948,949,0,0,0,0,0,0,0,
969,969,970,953,953,954,955,980,981,1006,1007,0,0,0,963,0,
955,955,955,961,961,962,963,988,989,1014,1015,0,0,0,971,0,
954,955,963,969,969,970,971,996,997,1022,1023,0,0,0,0,0,
953,954,953,954,955,980,981,0,0,1030,1031,0,0,0,0,0,
961,962,961,962,963,988,989,0,0,0,0,0,0,0,0,0,
969,970,969,970,971,996,997,0,0,0,0,0,0,0,0,0,
977,978,979,980,981,0,0,0,0,0,0,0,0,0,0,0,
985,986,987,988,989,0,0,0,0,0,0,0,0,0,0,0
</chunk>
   <chunk x="32" y="160" width="16" height="16">
0,0,0,0,0,0,0,0,0,0,0,992,993,994,995,996,
0,0,0,0,0,0,0,0,0,0,0,0,0,0,0,0,
0,0,0,0,0,0,0,0,0,0,0,0,0,0,0,0,
0,0,0,0,0,0,0,0,0,0,0,0,0,0,0,0,
0,0,0,0,0,0,0,0,0,0,0,0,0,0,0,0,
0,0,0,0,0,0,0,0,0,0,0,0,0,0,0,0,
0,0,0,0,0,0,0,0,0,0,0,0,0,0,0,0,
0,0,0,0,0,0,0,0,0,0,0,0,0,0,0,0,
0,0,0,0,0,0,0,0,0,0,0,0,0,0,0,0,
0,0,0,0,0,0,0,0,0,0,0,0,0,0,0,0,
0,0,0,0,0,0,0,0,0,0,0,0,0,0,0,0,
0,0,0,0,0,0,0,0,0,0,0,0,0,0,0,0,
0,0,0,0,0,0,0,0,0,0,0,0,0,0,0,0,
0,0,0,0,0,0,0,0,0,0,0,0,0,0,0,0,
0,0,0,0,0,0,0,0,0,0,0,0,0,0,0,0,
0,0,0,0,0,0,0,0,0,0,0,0,0,0,0,0
</chunk>
   <chunk x="48" y="160" width="16" height="16">
993,994,995,996,997,0,0,0,0,0,0,0,0,0,0,0,
0,0,0,0,0,0,0,0,0,0,0,0,0,0,0,0,
0,0,0,0,0,0,0,0,0,0,0,0,0,0,0,0,
0,0,0,0,0,0,0,0,0,0,0,0,0,0,0,0,
0,0,0,0,0,0,0,0,0,0,0,0,0,0,0,0,
0,0,0,0,0,0,0,0,0,0,0,0,0,0,0,0,
0,0,0,0,0,0,0,0,0,0,0,0,0,0,0,0,
0,0,0,0,0,0,0,0,0,0,0,0,0,0,0,0,
0,0,0,0,0,0,0,0,0,0,0,0,0,0,0,0,
0,0,0,0,0,0,0,0,0,0,0,0,0,0,0,0,
0,0,0,0,0,0,0,0,0,0,0,0,0,0,0,0,
0,0,0,0,0,0,0,0,0,0,0,0,0,0,0,0,
0,0,0,0,0,0,0,0,0,0,0,0,0,0,0,0,
0,0,0,0,0,0,0,0,0,0,0,0,0,0,0,0,
0,0,0,0,0,0,0,0,0,0,0,0,0,0,0,0,
0,0,0,0,0,0,0,0,0,0,0,0,0,0,0,0
</chunk>
  </data>
 </layer>
 <layer id="16" name="wielka skała - 2 warstwa" width="144" height="208">
  <data encoding="csv">
   <chunk x="32" y="144" width="16" height="16">
0,0,0,0,0,0,0,0,0,0,0,0,0,0,0,0,
0,0,0,0,0,0,0,0,0,0,0,0,0,0,0,0,
0,0,0,0,0,0,0,0,0,0,0,0,0,0,0,0,
0,0,0,0,0,0,0,0,0,0,0,0,0,0,0,0,
0,0,0,0,0,0,0,0,0,0,0,0,0,0,0,0,
0,0,0,0,0,0,0,0,0,0,0,0,0,0,0,0,
0,0,0,0,0,0,0,0,0,0,0,0,0,0,0,0,
0,0,0,0,0,0,0,0,0,0,0,1000,1001,1002,1003,1004,
0,0,0,0,0,0,0,0,0,0,0,1008,0,0,1006,1007,
0,0,0,0,0,0,0,0,0,0,0,976,0,0,1014,1015,
0,0,0,0,0,0,0,0,0,0,0,984,0,0,1022,1023,
0,0,0,0,0,0,0,0,0,968,0,992,976,977,978,979,
0,0,0,0,0,0,0,0,0,976,0,0,984,985,986,987,
0,0,0,0,0,0,0,0,0,0,0,0,992,993,994,995,
0,0,0,0,0,0,0,0,0,0,0,0,0,0,0,0,
0,0,0,0,0,0,0,0,0,0,0,0,0,0,0,0
</chunk>
   <chunk x="48" y="144" width="16" height="16">
0,0,0,0,0,0,0,0,0,0,0,0,0,0,0,0,
0,0,0,0,0,0,0,0,0,0,0,0,0,0,0,0,
0,0,0,0,0,0,0,0,0,0,0,0,0,0,0,0,
0,0,0,0,0,0,0,0,0,0,0,0,0,0,0,0,
1006,1007,0,0,0,0,0,0,0,0,0,0,0,0,0,0,
1014,1015,0,0,0,0,0,0,0,0,0,0,0,0,0,0,
1022,1023,0,0,0,0,0,0,0,0,0,0,0,0,0,0,
1003,1006,1007,1003,1004,1005,0,0,0,0,0,0,0,0,0,0,
0,1014,1015,0,0,1015,0,0,0,0,0,0,0,0,0,0,
0,1022,1023,0,0,1023,0,0,0,0,0,0,0,970,971,0,
0,0,0,0,1015,1031,0,0,0,0,0,0,0,0,0,0,
980,1011,1012,1013,1023,1039,0,0,0,0,0,0,0,0,0,0,
988,1019,1020,1021,1031,0,0,0,0,0,0,0,0,0,0,0,
996,1027,1028,1029,0,0,0,0,0,0,0,0,0,0,0,0,
0,0,0,0,0,0,0,0,0,0,0,0,0,0,0,0,
0,0,0,0,0,0,0,0,0,0,0,0,0,0,0,0
</chunk>
  </data>
 </layer>
 <layer id="8" name="kamienie" width="144" height="208">
  <data encoding="csv">
   <chunk x="0" y="0" width="16" height="16">
0,0,0,0,0,0,0,0,0,0,0,0,0,0,0,0,
0,0,0,0,0,0,0,0,0,0,0,0,0,0,0,0,
0,0,0,0,0,0,0,0,0,0,0,0,0,0,0,0,
0,362,0,0,0,0,0,0,0,0,0,0,0,0,0,0,
0,0,0,0,0,0,0,0,0,0,0,0,0,0,0,0,
0,0,0,0,0,0,0,0,0,0,0,0,0,0,0,0,
0,0,0,0,0,0,0,0,0,0,0,0,0,0,0,0,
0,0,0,0,0,0,0,0,0,0,0,0,0,0,0,0,
0,0,0,0,0,0,0,0,0,0,0,0,0,0,0,0,
0,0,0,0,0,0,0,0,0,0,0,0,0,0,0,0,
0,0,0,0,0,0,0,0,0,0,0,0,0,0,0,0,
0,0,0,0,0,0,0,0,0,0,0,0,0,0,0,0,
0,0,0,0,0,0,0,0,0,0,0,0,0,0,0,0,
0,0,0,0,0,0,0,0,0,362,0,0,0,0,0,0,
0,0,0,0,0,0,0,0,0,0,0,0,0,0,0,0,
0,0,0,0,0,0,0,0,0,0,0,0,0,0,0,0
</chunk>
   <chunk x="16" y="0" width="16" height="16">
0,0,0,0,0,0,0,0,0,0,0,0,0,0,0,0,
0,0,0,0,0,0,0,0,0,0,0,0,0,0,0,0,
0,0,0,0,0,0,0,0,0,0,0,0,0,0,0,0,
0,0,0,0,0,0,0,0,0,0,0,0,0,0,0,0,
0,0,361,362,0,0,0,0,0,0,0,0,0,0,0,0,
0,0,0,0,0,0,0,0,0,0,0,0,0,0,0,0,
0,0,0,0,0,0,0,0,0,0,0,0,0,0,0,0,
0,0,0,0,0,0,0,0,0,0,0,0,0,0,0,0,
0,0,0,0,0,0,0,0,0,0,0,0,0,0,0,0,
0,0,0,0,0,0,0,0,0,0,0,0,0,0,0,0,
0,0,0,0,0,358,0,0,0,0,0,0,0,0,0,0,
0,0,0,0,0,0,0,0,0,0,0,0,0,0,0,0,
0,0,0,0,0,0,0,0,0,0,0,0,0,0,0,0,
0,0,0,0,0,0,0,0,0,0,0,0,0,0,0,0,
0,0,0,0,0,0,0,0,0,0,0,0,0,0,0,0,
0,0,0,0,0,0,0,0,0,0,0,0,0,0,0,0
</chunk>
   <chunk x="32" y="0" width="16" height="16">
0,0,0,0,0,0,0,0,0,0,0,0,0,0,0,0,
0,0,0,0,0,0,0,0,0,0,0,0,0,0,0,0,
0,0,0,0,0,0,0,0,0,0,0,0,0,0,0,0,
0,0,0,0,0,0,0,0,0,362,0,0,0,0,0,0,
0,0,0,0,0,0,0,0,0,0,0,0,0,0,0,0,
0,0,0,0,0,0,0,0,0,0,0,0,0,0,0,0,
0,0,0,0,0,0,0,0,0,0,0,360,0,0,0,0,
0,0,0,0,0,0,0,0,0,0,0,0,0,0,0,0,
0,362,0,0,0,0,0,0,0,0,0,0,0,0,0,0,
0,0,0,0,0,0,0,0,0,0,0,0,0,0,0,0,
0,0,0,0,0,0,0,0,0,0,0,0,0,0,0,0,
0,0,0,0,0,0,0,0,0,0,0,0,0,0,0,0,
0,0,0,0,0,0,0,0,0,0,0,0,0,0,0,0,
0,0,0,0,0,0,0,0,0,0,0,0,0,0,0,0,
0,0,0,0,0,0,0,0,0,0,0,0,0,0,0,0,
0,0,0,0,0,0,0,0,0,0,0,0,0,0,0,0
</chunk>
   <chunk x="48" y="0" width="16" height="16">
0,0,0,0,0,0,0,0,0,0,0,0,0,0,0,0,
0,0,0,0,0,0,0,0,0,0,0,0,0,172,0,0,
0,0,0,0,0,0,0,0,0,0,0,0,0,0,0,0,
0,0,0,0,0,0,0,0,0,0,0,0,171,0,0,0,
0,0,0,0,0,0,0,0,0,0,0,0,0,0,0,0,
0,0,0,0,0,0,0,0,0,0,0,0,0,0,0,0,
0,0,0,0,0,0,0,0,0,0,0,0,0,0,171,172,
0,0,0,0,0,0,0,0,0,0,0,0,171,0,0,0,
0,0,0,0,0,0,0,0,0,0,0,0,0,0,0,0,
0,0,0,0,0,0,0,0,0,0,0,0,0,0,0,0,
0,0,0,0,0,0,0,0,0,0,0,0,0,0,0,0,
0,0,0,0,0,0,0,0,0,0,0,0,0,0,0,0,
0,0,0,0,0,0,0,0,0,0,0,0,0,0,0,0,
0,0,0,0,0,0,0,0,0,0,0,0,0,0,0,0,
0,0,0,0,0,0,0,0,0,0,0,0,0,0,0,0,
0,0,0,0,0,0,0,0,0,0,0,0,0,0,0,0
</chunk>
   <chunk x="64" y="0" width="16" height="16">
0,0,0,0,0,0,0,0,0,0,0,0,0,0,0,0,
0,0,0,0,0,0,171,0,0,171,172,0,0,0,0,0,
0,390,0,0,0,0,0,0,0,0,0,0,0,0,0,0,
0,0,0,0,0,0,0,0,0,0,168,0,0,0,0,0,
0,168,0,0,0,0,0,0,0,0,0,0,0,0,0,0,
0,0,172,0,0,0,0,0,0,0,0,0,0,359,0,0,
0,0,0,0,0,0,0,0,0,0,0,0,0,0,0,0,
0,0,0,357,0,0,0,0,0,0,0,0,0,0,172,0,
0,0,0,0,0,0,0,0,358,0,0,0,0,0,0,0,
0,358,0,0,0,0,0,0,0,0,0,0,0,0,0,0,
0,0,0,171,172,0,0,0,0,0,0,0,0,360,0,0,
0,0,0,0,0,0,0,0,390,0,0,0,0,0,0,0,
0,0,0,0,0,0,0,0,0,0,0,0,360,0,0,0,
0,0,0,0,0,0,0,0,0,0,0,0,0,0,0,0,
0,0,0,0,168,0,0,0,0,0,0,0,0,0,0,0,
0,171,0,0,0,172,0,0,0,0,0,0,0,0,0,0
</chunk>
   <chunk x="80" y="0" width="16" height="16">
0,0,0,0,0,0,0,0,0,0,0,0,0,0,0,0,
0,0,0,0,0,0,0,0,0,0,0,0,172,0,0,168,
0,0,0,390,0,0,0,171,172,0,0,0,0,0,0,0,
0,0,0,0,0,0,171,0,0,168,0,0,0,0,0,0,
0,0,0,0,0,0,0,0,0,0,0,0,0,0,0,0,
0,390,0,0,0,0,0,0,0,0,0,0,0,0,0,0,
0,0,0,0,0,0,0,0,0,0,0,0,0,0,0,0,
0,171,172,0,0,0,362,0,0,0,0,0,0,0,0,0,
0,0,168,0,0,0,0,0,0,0,171,172,0,0,0,0,
0,0,0,0,0,0,0,0,0,0,0,0,0,0,0,0,
0,0,0,0,0,0,0,0,0,0,0,0,0,0,0,0,
0,0,0,0,0,0,0,0,0,0,0,0,0,0,0,0,
0,360,0,0,0,0,0,0,0,0,0,0,0,0,0,0,
0,0,0,0,0,0,0,0,0,0,0,0,0,0,0,0,
0,172,0,0,0,0,0,0,0,0,0,0,0,0,0,0,
0,0,0,0,0,0,0,0,0,0,0,0,0,0,0,0
</chunk>
   <chunk x="96" y="0" width="16" height="16">
0,0,0,0,0,0,0,0,0,0,0,0,0,0,0,0,
0,0,0,0,0,0,0,0,0,0,0,0,0,0,0,0,
0,0,0,0,0,0,0,0,0,0,0,0,0,0,0,0,
0,0,0,0,0,0,0,0,0,0,0,0,0,0,0,0,
0,0,0,0,0,0,0,0,0,0,0,0,0,0,0,0,
0,0,0,0,0,0,0,0,0,0,0,0,171,172,0,0,
0,0,0,0,0,0,0,0,0,0,0,0,0,0,0,0,
0,0,0,0,0,0,0,0,0,0,0,0,0,0,0,0,
0,0,0,0,0,0,0,0,0,0,0,0,0,0,0,0,
0,0,0,0,0,0,0,0,0,0,0,0,0,0,0,0,
0,0,0,0,0,0,0,0,0,0,0,0,0,0,0,0,
0,0,0,0,0,0,0,0,0,0,0,0,0,0,0,0,
0,0,0,0,0,0,0,0,0,0,0,0,0,0,0,0,
0,0,0,0,0,0,0,0,0,0,0,0,0,0,0,0,
0,0,0,0,0,0,0,0,0,0,0,0,0,0,0,0,
0,0,0,0,0,0,0,0,0,0,0,0,0,0,0,0
</chunk>
   <chunk x="128" y="0" width="16" height="16">
0,0,0,0,0,0,0,0,0,0,0,0,0,0,0,0,
0,0,0,0,0,0,0,0,0,0,0,0,0,0,0,0,
0,0,0,0,0,0,0,0,0,0,0,0,0,0,0,0,
0,0,0,0,0,0,0,0,0,0,0,0,0,0,0,0,
0,0,171,172,0,0,0,0,0,0,0,0,0,0,0,0,
0,0,0,0,0,0,0,0,0,0,0,0,0,0,0,0,
0,0,0,0,0,0,0,0,0,0,0,0,0,0,0,0,
0,0,0,0,0,0,0,0,0,0,0,0,0,0,0,0,
0,0,0,0,0,0,171,172,0,0,0,0,0,0,0,0,
0,0,0,0,0,0,0,0,0,0,0,0,0,0,0,0,
0,0,0,0,0,0,0,0,0,0,0,0,0,0,0,0,
0,0,0,0,0,0,0,0,0,0,0,0,0,0,0,0,
0,0,0,0,0,0,0,0,0,0,0,0,0,0,0,0,
0,0,0,0,0,0,0,0,0,0,0,0,0,0,0,0,
0,0,0,0,0,0,0,0,0,0,0,0,0,0,0,0,
0,0,0,0,0,0,0,0,0,0,0,0,0,0,0,0
</chunk>
   <chunk x="0" y="16" width="16" height="16">
0,0,0,0,0,0,0,0,0,0,0,0,0,0,0,0,
0,0,0,0,0,0,0,0,0,0,0,0,0,0,0,0,
0,0,0,0,0,0,0,0,0,0,0,0,0,0,358,0,
0,0,0,0,0,0,0,0,0,0,0,0,0,0,0,0,
0,0,0,0,0,0,0,0,0,0,0,0,0,0,0,0,
0,0,390,0,0,0,0,0,0,0,0,0,0,0,0,0,
0,0,0,0,0,0,0,0,0,0,0,0,0,0,0,0,
0,0,0,0,0,0,0,0,0,0,0,0,0,0,0,0,
0,0,0,0,0,0,0,0,0,0,0,0,0,0,0,0,
0,0,0,0,0,0,0,0,0,0,0,0,0,0,0,0,
0,0,0,0,0,0,0,0,0,0,0,0,0,0,0,0,
0,358,0,0,0,0,0,0,171,172,0,0,0,0,0,0,
0,0,0,0,0,0,0,0,0,0,0,0,0,0,0,0,
0,0,0,0,0,0,0,0,0,0,0,0,0,0,0,0,
0,0,0,0,0,0,0,0,0,0,0,0,0,0,0,0,
0,0,0,0,0,0,0,0,0,0,0,0,0,0,0,0
</chunk>
   <chunk x="48" y="16" width="16" height="16">
0,0,0,0,0,0,0,0,0,0,0,0,0,0,0,0,
0,0,0,0,0,0,0,0,0,0,0,0,0,0,0,0,
0,0,0,0,0,0,0,0,0,0,0,0,0,0,0,0,
0,0,0,0,0,0,0,0,0,0,0,0,0,171,362,0,
0,0,0,0,0,0,0,0,0,0,0,0,172,0,0,0,
0,0,0,0,0,0,0,0,0,0,0,0,0,0,0,0,
0,0,0,0,0,0,0,0,0,0,0,0,0,0,0,0,
0,0,0,0,0,0,0,0,0,0,0,0,0,0,0,0,
0,0,0,0,0,0,0,0,0,0,0,0,0,0,0,0,
0,0,0,0,0,0,0,0,0,0,0,0,0,0,0,0,
0,0,0,0,0,0,0,0,0,0,0,0,0,0,0,0,
0,0,0,0,0,0,0,0,0,0,0,0,0,0,0,0,
0,0,0,0,0,0,0,0,0,0,0,0,0,0,0,0,
0,0,0,0,0,0,0,0,0,0,0,0,0,0,0,0,
0,0,0,0,0,0,0,0,0,0,0,0,0,0,0,0,
0,0,0,0,0,0,0,0,0,0,0,0,0,0,0,0
</chunk>
   <chunk x="64" y="16" width="16" height="16">
172,0,0,0,0,0,0,0,0,357,0,0,0,0,0,0,
0,0,0,0,0,0,359,0,0,0,360,0,0,0,0,362,
0,0,0,0,0,0,0,0,0,0,0,0,0,171,172,0,
0,0,0,168,0,0,0,0,360,0,0,0,171,0,0,0,
0,0,0,168,0,0,0,0,0,0,0,0,0,0,168,0,
172,0,0,0,0,0,172,0,0,0,0,0,0,0,0,0,
0,0,0,0,0,0,0,0,0,0,0,0,0,0,0,0,
0,0,0,0,0,0,0,0,0,0,0,0,0,0,0,0,
0,0,0,0,0,0,0,0,0,0,0,0,0,0,0,0,
0,0,0,0,0,0,0,0,0,0,0,0,0,0,0,0,
0,0,0,0,0,0,0,0,0,0,0,0,0,0,0,0,
0,0,0,0,0,0,0,0,0,0,0,0,0,0,0,0,
0,0,0,0,0,0,0,0,0,0,0,0,0,0,0,0,
0,0,0,0,0,0,0,0,0,0,0,0,0,0,0,0,
0,0,0,0,0,0,0,0,0,0,0,0,0,0,0,0,
0,0,0,0,0,0,0,0,0,0,0,0,0,0,0,0
</chunk>
   <chunk x="128" y="16" width="16" height="16">
0,171,172,0,0,0,0,0,0,0,0,0,0,0,0,0,
0,0,0,0,0,0,0,0,0,0,0,0,0,0,0,0,
0,0,0,0,0,0,0,0,0,0,0,0,0,0,0,0,
0,0,0,0,0,0,0,0,0,0,0,0,0,0,0,0,
0,0,0,0,0,0,0,0,0,0,0,0,0,0,0,0,
0,0,0,0,0,0,0,0,0,0,0,0,0,0,0,0,
0,0,0,0,0,0,0,0,0,0,0,0,0,0,0,0,
0,0,0,0,0,0,0,0,0,0,0,0,0,0,0,0,
0,0,0,0,0,0,0,0,0,0,0,0,0,0,0,0,
0,0,0,0,0,0,0,0,0,0,0,0,0,0,0,0,
0,0,0,0,0,0,0,0,0,0,0,0,0,0,0,0,
0,0,0,0,0,0,0,0,0,0,0,0,0,0,0,0,
0,0,0,0,0,0,0,0,0,0,0,0,0,0,0,0,
0,0,0,0,0,0,0,0,0,0,0,0,0,0,0,0,
0,0,0,0,0,0,0,0,0,0,0,0,0,0,0,0,
0,0,0,0,0,0,0,0,0,0,0,0,0,0,0,0
</chunk>
   <chunk x="0" y="32" width="16" height="16">
0,0,0,0,0,0,0,0,0,0,0,0,0,0,0,0,
0,0,0,0,0,0,0,0,0,0,0,0,0,0,0,0,
0,0,0,0,0,0,168,0,0,0,0,0,0,0,0,0,
0,0,0,0,0,0,0,0,0,0,0,0,0,0,0,0,
0,0,0,0,0,0,0,0,0,0,0,0,0,0,0,0,
0,0,0,0,0,0,0,0,0,0,0,0,0,0,0,0,
0,0,0,0,0,0,0,0,0,0,0,0,0,0,0,0,
0,0,0,0,0,0,0,0,0,0,0,0,0,0,0,0,
0,0,0,0,0,0,0,0,0,0,0,0,0,0,0,0,
0,0,0,0,0,0,0,0,0,0,0,0,0,0,0,0,
0,0,0,0,0,0,0,0,0,0,0,0,0,0,0,0,
0,0,0,0,0,0,0,0,0,0,0,0,0,0,0,0,
0,0,0,0,0,0,0,0,0,0,0,0,0,0,0,0,
0,0,0,0,0,0,0,0,0,0,0,0,0,0,0,0,
0,362,0,0,0,0,0,0,0,0,0,0,0,0,0,0,
0,0,0,0,0,0,0,0,0,0,0,0,0,0,0,0
</chunk>
   <chunk x="16" y="32" width="16" height="16">
0,0,0,0,0,0,171,172,0,0,0,0,0,0,0,0,
0,0,0,0,0,0,0,0,0,0,0,0,0,0,0,0,
0,0,0,0,0,0,0,0,0,0,0,0,0,0,0,0,
0,0,0,0,0,168,0,0,0,0,0,0,0,0,0,0,
0,0,0,0,0,0,0,0,0,0,0,0,0,0,0,0,
0,0,0,0,0,0,0,0,0,0,0,0,0,0,0,0,
0,0,0,0,0,0,0,0,0,0,0,0,0,0,0,0,
0,0,0,0,0,0,0,0,0,0,0,0,0,0,0,0,
0,0,0,0,0,0,0,0,0,0,0,0,0,0,0,0,
0,0,0,0,0,0,0,0,0,0,0,0,0,0,0,0,
0,0,0,0,0,0,0,0,0,0,0,0,0,0,0,0,
0,0,0,0,0,0,0,0,0,0,0,0,0,0,0,0,
0,0,0,0,0,0,0,0,0,0,0,0,0,0,0,0,
0,0,0,0,0,0,0,0,0,0,0,0,0,0,0,0,
0,0,0,0,0,0,0,0,0,0,0,0,0,0,0,0,
0,0,0,0,0,0,0,0,0,0,0,0,0,0,0,0
</chunk>
   <chunk x="0" y="48" width="16" height="16">
0,0,0,0,0,0,0,0,0,0,0,0,0,0,0,0,
0,0,0,0,0,0,0,0,0,0,0,0,0,0,0,0,
0,0,0,0,0,0,0,0,0,0,0,0,0,0,0,0,
0,0,0,0,0,0,0,0,0,0,0,0,0,0,0,0,
0,0,0,0,0,0,0,0,0,0,0,0,0,0,0,0,
0,0,0,0,0,0,0,0,0,0,0,0,0,0,0,0,
0,0,0,0,0,0,0,0,0,0,0,0,0,0,0,0,
0,0,0,0,0,0,0,0,0,0,0,0,0,0,0,0,
0,0,171,172,0,0,0,0,0,0,0,0,0,0,0,0,
0,0,0,0,0,0,0,0,0,0,0,0,0,0,0,0,
0,0,0,0,0,0,0,0,0,0,0,0,0,0,0,0,
0,0,0,0,0,0,0,0,0,0,0,0,0,0,0,0,
0,0,0,0,0,0,0,0,0,0,0,0,0,0,0,0,
0,0,0,0,0,0,0,0,0,0,0,0,0,0,0,0,
0,0,0,0,0,0,0,0,0,0,0,0,0,0,0,0,
0,0,0,0,0,0,0,0,0,0,0,0,0,0,0,0
</chunk>
   <chunk x="0" y="64" width="16" height="16">
0,0,0,0,0,0,0,0,0,0,0,0,0,0,0,0,
0,359,0,0,0,0,0,0,0,0,0,0,0,0,0,0,
0,0,0,0,0,0,0,360,0,0,0,0,0,0,0,0,
0,0,0,0,0,0,0,0,0,0,0,0,0,0,0,0,
0,0,0,0,0,0,0,0,0,0,0,0,0,0,0,0,
0,0,0,0,0,0,0,0,0,0,0,0,0,0,0,0,
0,0,0,0,0,0,0,0,0,0,0,0,0,0,0,0,
0,0,0,0,0,0,0,0,0,0,0,0,0,0,0,0,
0,0,0,0,0,0,0,0,0,0,0,0,0,0,0,0,
0,0,0,0,0,0,0,0,0,0,0,0,0,0,0,0,
0,0,0,0,0,0,0,0,0,0,0,0,0,0,0,0,
0,0,0,0,0,0,0,0,0,0,0,0,0,0,0,0,
0,0,0,0,0,0,0,0,0,0,0,0,0,0,0,0,
0,0,0,0,0,0,0,0,0,0,0,0,0,0,0,0,
0,0,0,0,0,0,0,0,0,0,0,0,0,0,0,0,
0,0,0,0,0,0,0,0,0,0,0,0,0,0,0,0
</chunk>
   <chunk x="16" y="64" width="16" height="16">
0,0,0,0,0,0,0,0,0,0,0,0,0,0,0,0,
0,0,0,0,0,0,168,0,0,0,0,0,0,0,0,0,
0,0,0,0,0,0,0,0,0,0,0,0,0,0,0,0,
0,0,0,0,0,0,0,0,0,0,0,0,0,0,0,0,
0,0,0,0,0,0,0,0,0,0,0,0,0,0,0,0,
0,0,0,0,0,0,0,0,0,0,0,0,0,0,0,0,
0,0,0,0,0,0,0,0,0,0,0,0,0,0,0,0,
0,0,0,0,0,0,0,0,0,0,0,0,0,0,0,0,
0,0,0,0,0,0,0,0,0,0,0,0,0,0,0,0,
0,0,0,0,0,0,0,0,0,0,0,0,0,0,0,0,
0,0,0,0,0,0,0,0,0,0,0,0,0,0,0,0,
0,0,0,0,0,0,0,0,0,0,0,0,0,0,0,0,
0,0,0,0,0,0,0,0,0,0,0,0,0,0,0,0,
0,0,0,0,0,0,0,0,0,0,0,0,0,0,0,0,
0,0,0,0,0,0,0,0,0,0,0,0,0,0,0,0,
0,0,0,0,0,0,0,0,0,0,0,0,0,0,0,0
</chunk>
   <chunk x="64" y="64" width="16" height="16">
0,0,0,0,0,0,0,0,0,0,0,0,0,0,0,0,
0,0,0,0,0,0,0,0,0,0,0,0,0,0,0,0,
0,0,0,0,0,0,0,0,0,0,0,0,0,0,0,0,
0,0,0,0,0,0,0,0,0,0,0,0,0,0,0,0,
0,0,0,0,0,0,0,0,0,0,0,0,0,0,0,0,
0,0,0,0,0,0,0,0,0,0,0,0,0,0,0,0,
0,0,0,0,0,0,0,0,0,0,0,0,0,0,0,0,
0,0,0,0,0,0,0,0,0,0,0,0,0,168,0,0,
0,0,0,0,0,0,0,0,0,0,0,0,0,0,0,0,
0,0,0,0,0,0,0,0,0,0,0,0,0,0,0,0,
0,0,0,0,0,0,0,0,0,0,0,0,0,0,0,0,
0,0,0,0,0,0,0,0,0,0,0,0,0,0,0,0,
0,0,0,0,0,0,0,0,0,0,0,0,0,0,0,0,
0,0,0,0,0,0,0,0,0,0,0,0,0,0,0,0,
0,0,0,0,0,0,0,0,0,0,0,0,0,0,0,0,
0,0,0,0,0,0,0,0,0,0,0,0,0,0,0,0
</chunk>
   <chunk x="80" y="64" width="16" height="16">
0,0,0,0,0,0,0,0,0,0,0,0,0,0,0,0,
0,0,0,0,0,0,0,0,0,0,0,0,0,0,0,0,
0,0,0,0,0,0,0,0,0,0,0,0,0,0,0,0,
0,0,0,0,0,0,0,0,0,0,0,0,0,0,0,0,
0,168,0,0,0,0,0,0,0,0,0,0,0,0,0,0,
0,0,0,0,0,0,0,0,0,172,0,0,0,0,0,0,
390,0,0,359,0,0,0,0,0,0,0,0,0,0,0,0,
0,0,0,0,0,0,0,0,0,0,0,0,0,0,0,0,
0,0,0,0,0,0,0,0,0,0,0,0,0,0,0,0,
0,0,0,0,0,0,0,362,0,0,0,0,0,0,0,0,
0,0,0,0,0,0,168,0,0,0,0,0,0,0,0,0,
0,0,0,0,0,0,0,0,0,0,0,0,0,0,0,0,
0,0,0,0,0,0,0,0,0,0,0,0,0,0,0,0,
0,0,0,0,0,0,0,0,0,0,0,0,0,0,0,0,
0,0,0,0,0,0,0,0,0,0,0,0,0,0,0,0,
0,0,0,0,0,0,0,0,0,0,0,0,0,0,0,0
</chunk>
   <chunk x="0" y="80" width="16" height="16">
0,0,0,0,0,358,0,0,0,0,0,0,0,0,0,0,
0,0,0,0,0,0,0,0,0,0,0,0,0,0,0,0,
0,0,0,0,0,0,0,0,0,0,0,0,0,0,0,0,
0,0,0,0,0,0,0,0,0,0,0,0,0,0,0,0,
0,0,0,0,0,0,0,0,171,172,0,0,0,0,0,0,
0,0,0,0,0,0,0,0,0,0,0,0,0,0,0,0,
0,360,0,0,0,0,0,0,0,0,0,0,0,0,0,0,
0,0,0,0,0,0,0,0,0,0,0,0,0,0,0,0,
0,0,0,0,0,0,0,0,0,0,0,0,0,0,362,0,
0,0,0,0,0,0,0,0,0,0,0,0,0,0,0,0,
0,0,0,0,0,0,0,0,0,0,0,0,0,0,0,0,
0,0,0,0,0,0,0,0,0,0,0,0,0,0,0,0,
0,0,0,0,0,0,0,0,0,0,0,0,0,0,0,0,
0,0,0,0,0,0,0,0,0,0,0,0,0,0,0,0,
0,0,0,0,0,0,0,0,0,0,0,0,0,0,0,0,
0,0,0,0,0,0,0,0,0,0,0,0,0,0,0,0
</chunk>
   <chunk x="32" y="80" width="16" height="16">
0,0,0,0,0,0,0,0,0,0,0,0,0,0,0,0,
0,0,0,0,0,0,0,0,0,0,0,0,0,0,0,0,
0,0,0,0,0,0,0,0,0,0,0,0,0,0,0,0,
0,0,0,0,0,0,0,0,0,0,0,0,0,0,0,0,
0,0,0,0,0,0,0,0,0,0,0,0,0,0,0,0,
0,0,0,0,0,0,0,0,0,0,0,0,0,0,0,0,
0,0,0,0,0,0,0,0,0,0,0,0,0,0,0,0,
0,0,0,0,0,0,0,0,0,0,0,0,0,0,0,0,
0,0,0,0,0,0,0,0,0,0,0,0,0,0,0,0,
0,0,0,0,0,0,0,0,0,0,0,0,0,0,0,0,
0,0,0,0,0,0,0,0,0,0,0,0,0,0,0,0,
0,0,0,0,0,0,0,0,0,0,0,0,0,0,0,0,
0,0,0,0,0,0,0,0,0,0,0,0,0,0,0,0,
0,0,0,0,0,0,171,172,0,0,0,0,0,0,0,0,
0,0,0,0,0,0,0,0,0,0,0,0,0,0,0,0,
0,0,0,0,0,0,0,0,0,0,0,0,0,0,0,0
</chunk>
   <chunk x="48" y="80" width="16" height="16">
0,0,0,0,0,0,0,0,0,0,0,0,0,0,0,0,
0,0,0,0,0,0,0,0,0,0,0,0,0,0,0,0,
0,0,0,0,0,0,0,0,0,0,0,0,0,0,0,0,
0,0,0,0,0,0,0,0,0,0,0,0,0,0,0,0,
0,0,0,0,0,0,0,0,0,0,0,0,0,0,0,0,
0,0,0,0,0,0,0,0,0,0,0,0,0,0,0,0,
0,0,0,0,0,0,0,0,0,0,0,0,0,0,0,0,
0,0,0,0,0,0,0,0,0,0,0,0,0,0,0,0,
0,0,0,0,0,0,0,0,0,0,0,0,0,0,0,0,
0,0,0,0,0,0,0,0,0,0,0,0,0,0,0,0,
0,0,0,0,0,0,0,0,0,0,0,0,0,0,0,0,
0,0,0,0,0,0,0,0,0,0,0,0,0,0,0,0,
0,0,0,0,0,0,0,0,0,0,0,0,0,0,0,0,
0,0,0,0,0,0,0,0,0,0,0,0,0,0,0,0,
0,0,0,0,0,0,0,0,0,0,0,0,0,0,0,0,
168,0,0,0,0,0,0,0,0,0,0,0,0,0,0,0
</chunk>
   <chunk x="96" y="80" width="16" height="16">
0,0,0,0,0,0,0,0,0,0,0,0,0,0,0,0,
0,0,0,0,0,0,0,0,0,0,0,0,0,0,0,0,
0,0,0,0,0,0,0,0,0,0,0,0,0,0,0,0,
0,0,0,0,0,0,0,0,0,0,0,0,0,0,0,0,
0,0,0,0,0,0,0,0,0,0,0,0,0,0,0,0,
0,0,0,0,0,0,0,0,0,0,0,0,0,0,0,0,
0,0,0,0,0,0,0,0,0,0,0,0,0,0,0,0,
0,0,0,0,0,0,0,0,0,0,0,0,0,0,0,0,
0,0,0,0,0,0,0,0,0,0,0,0,0,0,0,0,
0,0,0,0,0,0,0,0,0,0,0,0,0,0,0,0,
0,0,0,0,0,0,0,0,0,0,0,0,0,0,0,0,
0,0,0,0,0,0,0,0,0,0,0,0,0,0,0,0,
0,0,0,0,0,0,0,0,0,0,0,0,0,0,0,0,
0,0,0,0,0,0,0,0,0,0,0,0,0,0,0,0,
0,0,0,0,0,0,0,0,0,0,0,0,0,0,0,0,
0,0,0,172,0,0,0,0,0,0,0,0,0,0,0,0
</chunk>
   <chunk x="0" y="96" width="16" height="16">
0,0,0,0,0,0,0,0,0,0,0,0,0,0,0,0,
0,0,0,0,0,0,0,0,0,0,0,0,0,0,0,0,
0,0,0,0,0,0,0,0,0,0,0,0,0,0,0,0,
0,0,0,0,0,0,0,0,0,0,0,0,0,0,0,0,
0,0,0,0,0,0,0,0,0,0,0,0,0,0,0,0,
0,0,0,0,0,0,0,0,0,0,0,0,0,0,0,0,
0,0,0,0,0,0,0,0,0,0,0,0,0,0,0,0,
0,0,0,0,0,0,0,0,0,0,0,0,0,0,0,0,
0,0,0,0,0,0,0,0,0,0,0,0,0,0,0,0,
0,0,0,0,0,0,0,0,0,0,0,0,0,0,0,0,
0,0,0,0,0,0,0,0,0,0,0,0,0,0,0,0,
0,0,0,0,0,0,0,0,0,0,0,0,0,0,0,0,
0,0,0,0,0,0,0,0,0,0,0,0,0,0,0,0,
0,0,0,0,0,0,0,0,0,0,0,0,0,0,0,0,
0,0,0,0,0,0,0,0,0,0,0,0,0,0,0,0,
0,0,0,0,171,172,0,0,0,0,0,0,0,0,0,0
</chunk>
   <chunk x="32" y="96" width="16" height="16">
0,0,0,0,0,0,0,0,0,0,0,0,0,0,0,172,
0,0,0,0,0,0,0,0,0,0,0,0,0,0,0,0,
0,0,0,0,0,0,0,0,0,0,0,0,0,0,0,0,
0,0,0,0,0,0,0,0,0,0,0,0,0,0,0,0,
0,0,0,0,0,0,0,0,0,0,0,0,0,0,0,0,
0,0,0,0,0,0,0,0,0,0,0,0,0,0,0,0,
0,0,0,0,0,0,0,0,0,0,0,0,0,0,0,0,
0,0,0,0,0,0,0,0,0,0,0,0,0,0,0,0,
0,0,0,0,0,0,0,0,0,0,0,0,0,0,0,0,
0,0,0,0,0,0,0,0,0,0,0,0,0,0,0,0,
0,0,0,0,0,0,0,0,0,0,0,0,0,0,0,0,
0,0,0,0,0,0,0,0,0,0,0,0,0,0,0,0,
0,0,0,0,0,0,0,0,0,0,0,0,0,0,0,0,
0,0,0,0,0,0,0,0,0,0,0,0,0,0,0,0,
0,0,0,0,0,0,0,0,0,0,0,0,0,0,0,0,
0,0,0,0,0,0,0,0,0,0,0,0,0,0,0,0
</chunk>
   <chunk x="80" y="96" width="16" height="16">
0,0,0,0,0,0,0,0,0,0,0,0,0,0,0,0,
0,0,0,0,0,0,0,0,0,0,0,0,0,0,0,0,
0,0,0,0,0,0,0,0,0,0,0,0,0,0,0,0,
0,0,0,0,0,0,0,0,0,0,0,0,0,0,0,0,
0,0,0,0,0,0,0,0,0,0,0,0,0,0,0,0,
0,0,0,0,0,0,0,0,0,0,0,0,0,0,0,0,
0,0,0,0,0,0,0,0,0,0,0,0,0,0,0,0,
0,0,0,0,0,0,0,0,0,0,0,0,0,0,0,0,
0,0,0,0,0,0,0,0,0,0,0,0,0,0,0,0,
0,0,0,0,0,0,0,0,172,0,0,0,0,0,0,0,
0,0,0,0,0,0,0,0,0,0,0,0,0,0,0,0,
0,0,0,0,0,0,0,0,0,0,0,0,0,0,0,0,
0,0,0,0,0,0,0,0,0,0,0,0,0,0,0,0,
0,0,0,0,0,0,0,0,0,0,0,0,0,0,0,0,
0,0,0,0,0,0,0,0,0,0,0,0,0,0,0,0,
0,0,0,0,0,0,0,0,0,0,0,0,0,0,0,0
</chunk>
   <chunk x="112" y="96" width="16" height="16">
0,0,0,0,0,0,0,0,0,0,0,0,0,0,0,0,
0,0,0,0,0,0,0,0,0,0,0,0,0,0,0,0,
0,0,0,0,0,0,0,0,0,0,0,0,0,0,0,0,
0,0,0,0,0,0,0,0,0,0,0,0,0,0,0,0,
0,0,0,0,0,0,0,0,0,0,0,0,0,0,0,0,
0,0,0,0,0,0,0,0,0,0,0,0,0,0,0,0,
0,0,0,0,0,0,0,0,0,0,0,171,172,0,0,0,
0,0,0,0,0,0,0,0,0,0,0,0,0,0,0,0,
0,0,0,0,0,0,0,0,0,0,0,0,0,0,0,0,
0,0,0,0,0,0,0,0,0,0,0,0,0,0,0,0,
0,0,0,0,0,0,0,0,0,0,0,0,0,0,0,0,
0,0,0,0,0,0,0,0,0,0,0,0,0,0,0,0,
0,0,0,0,0,0,0,0,0,0,0,0,0,0,0,0,
0,0,0,0,0,0,0,0,0,0,0,0,0,0,0,0,
0,0,0,0,0,0,0,0,0,0,0,0,0,0,0,0,
0,0,0,0,0,0,0,0,0,0,0,0,0,0,0,0
</chunk>
   <chunk x="128" y="96" width="16" height="16">
0,0,0,0,0,0,0,0,0,0,0,0,0,0,0,0,
0,0,0,0,0,0,0,0,0,0,0,0,0,0,0,0,
0,0,0,0,0,0,0,0,0,0,0,0,0,0,0,0,
0,0,360,0,0,0,0,0,0,0,0,0,0,0,0,0,
0,0,0,0,0,0,0,0,0,0,0,0,0,0,0,0,
0,0,0,0,0,390,0,0,0,0,0,0,0,0,0,0,
0,0,0,0,0,0,0,0,0,0,0,0,0,0,0,0,
0,0,0,0,0,0,0,0,0,0,0,0,0,0,0,0,
0,0,0,0,0,0,0,0,0,0,0,0,0,0,0,0,
0,0,0,0,0,0,0,0,0,0,0,0,0,0,0,0,
0,0,0,0,0,0,0,0,0,0,0,0,0,0,0,0,
0,0,0,0,0,0,0,0,0,0,0,0,0,0,0,0,
0,0,0,0,0,0,0,0,0,0,0,0,0,0,0,0,
0,0,0,0,0,0,0,0,0,0,0,0,0,0,0,0,
0,0,0,0,171,172,0,0,0,0,0,0,0,0,0,0,
0,0,0,0,0,0,0,0,0,0,0,0,0,0,0,0
</chunk>
   <chunk x="0" y="112" width="16" height="16">
0,0,0,0,0,0,0,0,0,0,0,0,0,0,0,0,
0,0,0,0,0,0,0,0,0,0,0,0,0,0,0,0,
0,0,0,0,0,0,0,0,0,0,0,0,0,0,0,0,
0,0,0,0,0,0,0,0,0,0,0,0,0,0,0,0,
0,0,0,0,0,0,0,0,0,0,0,0,0,0,0,0,
0,0,0,0,0,0,0,0,362,0,0,0,0,0,0,0,
0,0,0,0,0,0,0,0,0,0,0,0,0,0,0,0,
0,0,0,0,0,0,0,0,0,0,0,0,0,0,0,0,
0,0,0,0,0,0,0,0,0,0,0,0,0,0,0,0,
0,0,0,0,0,0,0,0,0,0,0,0,0,0,0,0,
0,0,0,0,0,0,0,0,0,0,0,0,0,0,0,0,
0,0,0,0,0,0,0,0,0,0,0,0,0,0,0,0,
0,0,0,0,0,0,0,0,0,0,0,0,0,0,0,0,
0,0,0,0,0,0,0,0,0,0,0,0,0,0,0,0,
0,0,0,0,0,0,0,0,0,0,0,0,0,0,0,0,
0,0,0,0,0,0,0,0,0,0,0,0,0,0,0,0
</chunk>
   <chunk x="64" y="112" width="16" height="16">
0,0,0,0,0,0,0,0,0,0,0,0,0,0,0,168,
0,0,0,0,0,0,0,0,0,0,0,0,0,0,0,0,
0,0,0,0,0,0,0,0,0,0,0,0,0,0,0,0,
0,0,0,0,0,0,0,0,0,0,0,0,0,0,0,0,
0,0,0,0,0,0,0,0,0,0,0,0,0,0,0,0,
0,0,0,0,0,0,0,0,0,0,0,0,0,0,0,0,
0,0,0,0,0,0,0,0,0,0,0,0,0,0,0,0,
0,0,0,0,0,0,0,0,0,0,0,0,0,0,0,0,
0,0,0,0,0,0,0,0,0,0,0,0,0,0,0,0,
0,0,0,0,0,0,0,0,0,0,0,0,0,0,0,0,
0,0,0,0,0,0,0,0,0,0,0,0,0,0,0,0,
0,0,0,0,0,0,0,0,0,0,0,0,0,0,0,0,
0,0,0,0,0,0,0,0,0,0,0,0,0,0,0,0,
0,0,0,0,0,0,0,0,0,0,0,0,0,0,0,0,
0,0,0,0,0,0,0,0,0,0,0,0,0,0,0,0,
0,0,0,0,0,0,0,0,0,0,0,0,0,0,0,0
</chunk>
   <chunk x="80" y="112" width="16" height="16">
0,0,0,0,0,0,0,0,0,0,0,0,0,0,0,0,
0,0,0,0,0,0,0,0,0,0,0,0,0,0,0,0,
0,0,0,0,0,0,0,0,0,0,0,0,0,0,0,0,
0,0,0,0,0,0,0,0,0,0,0,0,0,0,0,0,
0,0,0,0,0,0,0,0,0,0,0,0,0,0,0,0,
0,0,29,30,0,0,0,0,0,0,0,0,0,0,0,0,
0,0,0,0,0,0,0,0,0,0,0,0,0,0,0,0,
0,0,0,0,0,0,0,0,0,0,0,0,0,0,0,0,
0,0,0,0,0,0,0,0,0,0,0,0,29,30,0,0,
0,0,0,0,0,0,0,0,0,0,0,29,30,0,0,0,
0,0,0,0,0,0,0,0,0,0,0,0,0,0,0,0,
0,0,0,0,29,30,0,360,0,0,0,0,0,0,0,0,
0,0,0,0,0,0,0,0,0,0,0,0,0,0,0,0,
0,0,0,0,0,0,0,0,0,0,390,0,0,0,0,0,
0,0,0,0,0,0,0,0,0,0,0,0,0,0,0,0,
0,0,0,0,0,0,0,0,0,0,0,0,0,0,0,0
</chunk>
   <chunk x="96" y="112" width="16" height="16">
0,0,0,0,0,0,0,0,0,0,0,0,0,0,0,0,
0,0,0,0,0,0,0,0,0,0,0,0,0,0,0,0,
0,0,0,0,0,0,0,0,0,0,0,0,0,0,0,0,
0,0,0,0,0,0,0,0,0,0,0,0,0,0,0,0,
0,0,0,0,0,0,0,0,0,0,0,0,0,0,0,0,
0,0,0,0,0,0,0,0,0,0,0,0,0,0,0,0,
0,0,29,30,29,30,30,0,0,0,0,0,0,0,0,0,
0,0,0,0,0,0,0,0,0,0,0,0,0,0,0,0,
0,0,0,0,0,0,0,0,0,0,0,0,0,0,0,0,
0,0,0,0,0,0,0,0,0,0,0,0,0,0,0,0,
0,0,0,0,0,0,0,0,0,0,0,0,0,0,0,0,
0,0,0,0,0,0,0,0,0,0,0,0,0,0,0,0,
0,0,0,0,0,0,0,0,0,0,0,0,0,0,0,0,
0,0,0,0,0,0,0,0,0,0,0,0,0,0,0,0,
0,0,0,0,0,0,0,0,0,0,0,0,0,0,0,0,
0,0,0,0,0,0,0,0,0,0,0,0,0,0,0,0
</chunk>
   <chunk x="16" y="144" width="16" height="16">
0,0,0,0,0,0,0,0,0,0,0,0,0,0,0,0,
0,0,0,0,0,0,0,0,0,0,0,0,0,0,0,0,
0,0,0,0,0,0,0,0,0,0,0,0,0,0,0,0,
0,0,0,0,0,0,0,0,0,0,0,0,0,0,0,0,
0,0,0,0,0,0,0,0,0,0,0,0,0,0,0,0,
0,0,0,0,0,0,0,0,0,0,0,0,0,0,0,0,
0,0,0,0,0,0,0,0,0,0,0,0,0,0,0,0,
0,0,0,0,0,0,0,359,0,0,0,0,0,0,0,0,
0,0,0,0,0,0,0,0,172,0,0,0,0,0,0,0,
0,0,0,0,0,0,0,0,0,0,358,0,0,0,0,0,
0,0,0,0,0,0,0,0,0,0,0,0,0,0,0,171,
0,0,0,0,0,0,0,0,0,0,0,0,0,0,0,0,
0,0,0,0,0,168,0,0,0,0,0,0,0,0,0,0,
0,0,0,0,0,0,0,0,0,0,0,0,0,0,0,0,
0,362,0,0,0,0,0,0,0,0,0,0,0,0,0,0,
171,172,0,0,0,0,0,0,0,0,0,0,0,0,0,0
</chunk>
   <chunk x="32" y="144" width="16" height="16">
0,0,0,0,0,0,0,0,0,0,0,0,0,0,0,0,
0,0,0,0,0,0,0,0,0,171,172,0,0,0,0,0,
0,0,0,0,0,0,0,0,0,0,0,0,0,390,0,0,
0,0,0,0,0,171,0,0,0,0,0,0,0,0,0,0,
0,0,0,171,0,0,0,171,172,0,0,0,0,0,0,0,
0,0,0,0,0,172,0,0,0,0,0,0,171,0,0,0,
0,0,168,0,0,0,0,0,0,0,0,0,0,0,0,0,
0,0,0,0,0,0,0,172,0,0,0,0,0,0,0,0,
0,0,0,0,0,0,0,0,0,0,0,171,0,0,0,0,
0,0,0,0,0,0,0,0,0,0,0,0,0,0,0,0,
172,0,0,0,0,0,0,0,172,0,0,0,0,0,0,0,
0,0,0,0,0,0,0,0,0,0,0,0,0,0,0,0,
0,0,0,0,0,0,0,0,0,0,0,0,0,0,0,0,
0,0,0,0,0,0,0,0,0,0,171,0,0,0,0,0,
0,358,0,0,0,0,0,0,0,0,0,0,0,0,172,0,
0,0,0,0,362,0,0,0,0,0,0,0,0,0,0,0
</chunk>
   <chunk x="48" y="144" width="16" height="16">
0,0,0,0,0,0,0,0,0,0,0,0,0,0,0,0,
0,0,0,168,0,0,0,0,0,0,0,0,0,0,0,0,
0,172,0,0,0,0,0,0,0,0,0,0,0,0,0,0,
0,0,0,0,0,0,172,172,0,0,0,0,0,0,0,0,
0,0,0,0,0,0,0,0,0,0,0,0,0,0,0,0,
0,0,172,0,0,0,0,0,0,0,0,0,0,0,0,0,
0,0,0,0,0,0,0,168,0,0,0,171,172,0,0,0,
0,0,0,0,0,171,172,0,0,0,168,0,0,0,0,0,
0,0,0,0,0,0,0,0,0,0,0,0,0,0,0,0,
0,0,0,0,0,0,0,0,0,0,0,0,0,0,0,0,
171,172,0,0,0,0,0,0,0,0,0,0,359,0,0,0,
0,0,0,0,0,171,0,0,0,0,0,0,0,0,0,0,
0,0,0,0,0,0,0,171,0,0,0,0,0,0,0,0,
0,0,0,0,0,0,0,0,0,0,0,0,0,0,168,0,
0,172,0,0,0,171,172,0,0,362,0,0,0,0,0,0,
0,0,0,0,0,0,171,0,0,0,0,0,0,0,0,0
</chunk>
   <chunk x="64" y="144" width="16" height="16">
0,0,0,0,0,0,0,0,0,0,0,0,0,0,0,0,
0,0,0,0,0,0,0,0,0,0,0,0,0,0,0,0,
0,0,0,0,0,0,0,0,0,0,0,0,0,0,0,0,
0,0,0,0,0,0,0,0,0,0,0,0,0,0,0,0,
0,0,0,0,0,0,0,0,0,0,0,0,0,0,0,0,
0,0,0,0,0,0,0,0,0,0,0,0,0,0,0,0,
0,0,0,0,0,0,0,0,0,0,0,0,0,0,0,0,
0,0,0,0,0,0,0,0,0,0,0,0,0,0,0,0,
0,0,0,0,0,0,0,0,0,0,0,0,0,0,0,0,
0,0,0,0,0,0,0,0,0,0,0,0,0,0,0,0,
0,0,0,0,0,0,0,0,0,0,0,0,0,0,0,0,
390,0,0,0,0,0,0,0,0,0,0,0,0,0,0,0,
0,0,0,0,0,0,0,0,0,0,0,0,0,0,0,0,
0,0,0,0,0,0,0,0,0,0,0,0,0,0,0,0,
0,0,0,0,0,0,0,0,0,0,0,0,0,0,0,0,
0,0,0,0,0,0,0,0,0,0,0,0,0,0,0,0
</chunk>
   <chunk x="128" y="144" width="16" height="16">
0,0,0,0,0,0,0,0,0,0,0,0,0,0,0,0,
0,0,0,0,0,0,0,0,0,0,0,0,0,0,0,0,
0,0,0,0,0,0,0,0,0,0,0,0,0,0,0,0,
0,0,0,0,0,0,0,0,0,0,0,0,0,0,0,0,
0,0,0,0,0,0,0,0,0,0,0,0,0,0,0,0,
0,0,0,0,0,0,0,0,0,0,0,0,0,0,0,0,
0,0,0,0,0,0,0,0,0,0,0,0,0,0,0,0,
0,0,0,0,0,0,0,0,0,0,0,171,172,0,0,0,
0,0,0,0,0,0,0,0,0,0,0,0,0,0,0,0,
0,0,0,0,0,0,171,0,0,0,0,0,0,168,0,0,
0,0,0,0,0,0,0,0,0,0,0,0,0,0,0,0,
0,0,0,0,0,0,0,0,0,0,0,0,0,0,0,0,
0,0,0,0,0,0,0,0,0,0,0,0,0,0,0,0,
0,0,0,0,0,0,0,0,0,0,0,0,0,0,0,0,
0,0,0,0,0,0,0,0,0,0,0,0,0,0,0,0,
0,0,0,0,0,0,0,0,0,0,0,0,0,0,0,0
</chunk>
   <chunk x="32" y="160" width="16" height="16">
0,0,0,171,172,0,0,0,0,0,0,0,0,0,0,0,
0,0,0,0,0,0,0,0,0,0,0,0,0,0,0,0,
0,0,0,0,0,0,0,0,0,0,171,172,194,0,0,0,
0,0,0,0,0,0,0,0,0,0,0,0,0,0,0,0,
0,0,0,0,0,0,0,0,0,0,0,0,0,0,0,0,
0,0,0,0,0,0,172,0,0,0,0,0,0,0,0,0,
0,0,0,0,0,0,0,0,0,0,0,0,0,0,0,0,
0,0,0,0,0,0,0,0,0,0,0,0,0,0,0,0,
0,0,0,0,0,0,0,0,0,0,0,0,0,0,0,0,
0,0,0,0,0,0,0,0,0,0,0,0,0,0,0,0,
0,0,0,0,0,0,0,0,0,0,0,0,0,0,0,0,
0,0,0,0,0,0,0,0,0,0,0,0,0,0,0,0,
0,0,0,0,0,0,0,0,0,0,0,0,0,0,0,0,
0,0,0,0,0,0,0,0,0,0,0,0,0,0,0,0,
0,0,0,0,0,0,0,0,0,0,0,0,0,0,0,0,
0,0,0,0,0,0,0,0,0,0,0,0,0,0,0,0
</chunk>
   <chunk x="48" y="160" width="16" height="16">
0,0,0,0,0,0,0,0,0,0,0,0,171,172,0,0,
0,0,0,0,171,168,0,172,0,0,0,0,0,0,0,0,
0,0,0,0,0,0,0,0,171,0,0,0,0,0,0,0,
0,0,0,0,0,0,0,0,0,0,0,0,0,0,0,0,
0,0,0,0,0,0,0,0,0,0,0,0,0,0,0,0,
0,0,0,0,0,0,0,0,0,0,0,0,0,0,0,0,
0,0,0,0,0,0,0,0,0,0,0,0,0,0,0,0,
0,0,0,0,0,0,0,0,0,0,0,0,0,0,0,0,
0,0,0,0,0,0,0,0,0,0,0,0,0,0,0,0,
0,0,0,0,0,0,0,0,0,0,0,0,0,0,0,0,
0,0,0,0,0,0,0,0,0,0,0,0,0,0,0,0,
0,0,0,0,0,0,0,0,0,0,0,0,0,0,0,0,
0,0,0,0,0,0,0,0,0,0,0,0,0,0,0,0,
0,0,0,0,0,0,0,0,0,0,0,0,0,0,0,0,
0,0,0,0,0,0,0,0,0,0,0,0,0,0,0,0,
0,0,0,0,0,0,0,0,0,0,0,0,0,0,0,0
</chunk>
   <chunk x="96" y="160" width="16" height="16">
0,0,0,0,0,0,0,0,0,0,0,0,0,0,0,0,
0,0,0,0,0,0,0,0,0,0,0,0,0,0,0,0,
0,0,0,0,0,0,0,0,0,0,0,0,0,0,0,0,
0,0,0,0,0,0,0,0,0,0,0,0,0,0,0,0,
0,0,0,0,0,0,0,0,0,0,0,0,0,0,0,0,
0,0,0,0,0,0,0,0,0,0,0,0,0,0,0,0,
0,0,0,0,0,0,0,0,0,0,0,0,0,0,0,0,
0,0,0,0,0,0,0,0,0,0,0,0,0,0,0,0,
0,0,0,0,0,0,0,0,171,172,0,0,0,0,0,0,
0,0,0,0,0,0,0,0,0,0,0,0,0,0,0,0,
0,0,0,0,0,0,0,0,168,0,0,0,0,0,0,0,
0,0,0,0,0,0,0,0,0,0,0,0,0,0,0,0,
0,0,0,0,0,0,0,0,0,0,0,0,0,0,0,0,
0,0,0,0,0,0,0,0,0,0,0,0,0,0,0,0,
0,0,0,0,0,0,0,0,0,0,0,0,0,0,0,0,
0,0,0,0,0,0,0,0,0,0,0,0,0,0,0,0
</chunk>
   <chunk x="112" y="160" width="16" height="16">
0,0,0,0,0,0,0,0,0,0,0,0,0,0,0,0,
0,0,0,0,0,0,0,0,0,0,0,0,0,0,0,0,
0,0,0,0,171,0,0,0,0,0,0,0,0,0,0,0,
0,0,0,0,0,0,0,0,0,0,0,0,0,0,0,0,
0,0,0,0,168,0,0,0,0,0,0,0,0,0,0,0,
0,0,0,171,0,0,0,0,0,0,0,0,0,0,0,0,
0,0,0,0,0,0,0,0,0,0,0,0,0,0,0,0,
0,0,0,0,0,0,0,0,0,0,0,0,0,0,0,0,
0,0,0,0,0,0,0,0,0,0,0,0,0,0,0,0,
0,0,0,0,0,0,0,0,0,0,0,0,0,0,0,0,
0,0,0,0,0,0,0,0,0,0,0,0,0,0,0,0,
0,0,0,0,0,0,0,0,0,0,0,0,0,0,0,0,
0,0,0,0,0,0,0,0,0,0,0,0,0,0,0,0,
0,0,0,0,0,0,0,0,0,168,0,0,0,0,0,0,
0,0,0,0,0,0,0,0,0,0,0,171,0,0,0,0,
0,0,0,0,0,0,0,0,0,0,0,0,0,0,0,0
</chunk>
   <chunk x="128" y="160" width="16" height="16">
0,0,0,0,0,0,0,0,0,0,0,0,0,0,0,0,
0,0,0,0,0,0,0,0,0,0,0,0,0,0,0,0,
0,0,0,0,0,0,0,0,0,0,0,0,0,0,0,0,
0,0,0,0,0,0,0,0,0,0,0,0,0,0,0,0,
0,0,0,0,0,0,0,0,0,0,0,0,0,0,0,0,
0,0,0,0,0,0,0,0,0,0,0,0,0,0,0,0,
0,0,0,0,0,0,0,0,0,0,0,0,0,0,0,0,
0,0,0,0,0,0,0,0,0,0,0,0,0,0,0,0,
0,0,0,0,0,0,0,0,0,0,0,0,0,0,0,0,
0,0,0,0,0,0,0,0,0,0,0,0,0,0,0,0,
0,0,0,0,0,0,0,0,0,0,0,0,0,0,0,0,
0,0,0,0,0,0,0,0,0,0,0,0,0,0,0,0,
0,0,0,0,0,0,0,0,0,0,0,0,0,0,0,0,
0,0,0,0,0,0,0,0,0,0,0,0,0,0,171,0,
0,0,0,0,0,0,0,0,0,0,0,0,0,0,0,0,
0,0,0,0,0,0,0,0,0,0,0,0,0,171,172,0
</chunk>
   <chunk x="16" y="176" width="16" height="16">
0,0,0,0,0,0,0,0,0,0,0,0,0,0,171,172,
0,0,0,0,0,0,0,0,0,0,0,0,0,0,0,0,
0,0,0,0,0,0,0,0,0,0,0,0,0,0,0,0,
0,0,0,0,0,0,0,0,0,0,0,0,0,0,0,0,
0,0,0,0,0,0,0,0,0,0,0,0,0,0,0,0,
0,0,0,0,0,0,0,0,0,0,0,0,0,0,0,0,
0,0,0,0,0,0,0,0,0,0,0,0,0,0,0,0,
0,0,0,0,0,0,0,0,0,0,0,0,0,0,0,0,
0,0,0,0,0,0,0,0,0,0,0,0,0,0,0,0,
0,0,0,0,0,0,0,0,0,0,0,0,0,0,0,0,
0,0,0,0,0,0,0,0,0,0,0,0,0,0,0,0,
0,0,0,0,0,0,0,0,0,0,0,0,0,0,0,0,
0,0,0,0,0,0,0,0,0,0,0,0,0,0,0,0,
0,0,0,0,0,0,0,0,0,0,0,0,0,0,0,0,
0,0,0,0,0,0,0,0,0,0,0,0,0,0,0,0,
0,0,0,0,0,0,0,0,0,0,0,0,0,0,0,0
</chunk>
   <chunk x="48" y="176" width="16" height="16">
0,0,0,0,0,0,0,0,0,0,0,0,0,0,0,0,
0,0,0,0,0,0,0,0,0,0,0,0,0,0,0,0,
0,0,0,0,0,0,0,0,0,0,0,0,0,0,0,0,
0,0,0,0,0,0,0,0,0,0,0,0,0,0,0,0,
0,0,0,0,0,0,0,0,0,0,0,0,0,0,0,0,
0,0,0,0,0,0,0,0,0,0,0,0,0,171,172,0,
0,0,0,0,0,0,0,0,0,0,0,0,0,0,0,0,
0,0,0,0,0,0,0,0,0,0,0,0,0,0,0,0,
0,0,0,0,0,0,0,0,0,0,0,0,0,0,0,0,
0,0,0,0,0,0,0,0,0,0,0,0,0,0,0,0,
0,0,0,0,0,0,0,0,0,0,0,0,0,0,0,0,
0,0,0,0,0,0,0,0,0,0,0,0,0,0,0,0,
0,0,0,0,0,0,0,0,0,0,0,0,0,0,0,0,
0,0,0,0,0,0,0,0,0,0,0,0,0,0,0,0,
0,0,0,0,0,0,0,0,0,0,0,0,0,0,0,0,
0,0,0,0,0,0,0,0,0,0,0,0,0,0,0,0
</chunk>
   <chunk x="64" y="176" width="16" height="16">
0,0,0,0,0,0,0,0,0,0,0,0,0,0,0,0,
0,0,0,0,0,0,0,0,0,0,0,0,0,0,0,0,
0,0,0,0,0,0,0,0,0,0,0,0,0,0,0,0,
0,0,0,0,0,0,0,0,0,0,0,0,0,0,0,0,
0,0,0,0,0,359,0,0,0,0,0,0,0,0,0,0,
0,0,358,0,0,0,0,0,0,0,0,0,0,0,0,0,
0,0,0,0,0,0,0,0,0,0,0,0,0,0,0,0,
0,0,0,0,0,0,0,0,0,0,0,0,0,0,0,0,
0,0,0,0,0,0,0,0,0,0,0,0,0,0,0,0,
0,0,0,0,0,0,0,0,0,0,0,0,0,0,0,0,
0,0,0,0,0,0,0,0,0,0,0,0,0,0,0,0,
0,0,0,0,0,0,0,0,0,0,0,0,0,0,0,0,
0,0,0,0,0,0,0,0,0,0,0,0,0,0,0,0,
0,0,0,0,0,0,0,0,0,0,0,0,0,0,0,0,
0,0,0,0,0,0,0,0,0,0,0,0,0,0,0,0,
0,0,0,0,0,0,0,0,0,0,0,0,0,0,0,0
</chunk>
   <chunk x="80" y="176" width="16" height="16">
0,0,0,0,0,0,0,0,0,0,0,0,0,0,0,0,
0,0,0,0,0,0,0,0,0,0,0,0,0,0,0,0,
0,0,0,0,0,0,0,0,0,0,0,0,0,0,171,0,
0,0,0,0,0,0,0,0,0,0,0,0,0,0,0,0,
0,0,0,0,0,0,0,0,0,0,0,0,0,0,0,0,
0,0,0,0,0,0,0,0,0,0,0,0,0,0,0,0,
0,0,0,0,0,0,0,0,0,0,0,0,0,0,0,0,
0,0,0,0,0,0,0,0,0,0,0,0,0,0,0,0,
0,0,0,0,0,0,0,0,0,0,0,0,0,0,0,0,
0,0,0,0,0,0,0,0,0,0,0,0,0,0,0,0,
0,0,0,0,0,0,0,0,0,0,0,0,0,0,0,0,
0,0,0,0,0,0,0,0,0,0,0,0,0,0,0,0,
0,0,0,0,0,0,0,0,0,0,0,0,0,0,0,0,
0,0,0,0,0,0,0,0,0,0,0,0,0,0,0,0,
0,0,0,0,0,0,0,0,0,0,0,0,0,0,0,0,
0,0,0,0,0,0,0,0,0,0,0,0,0,0,0,0
</chunk>
   <chunk x="112" y="176" width="16" height="16">
0,0,0,0,0,0,0,0,0,0,0,0,0,0,0,0,
0,0,0,0,0,171,172,0,0,0,0,0,0,0,0,0,
0,0,0,0,0,0,0,0,0,0,0,0,0,0,0,0,
0,0,0,0,0,0,0,0,0,0,0,0,0,0,0,0,
0,0,0,0,0,0,0,0,0,0,0,0,0,0,0,0,
0,0,0,0,0,0,0,0,0,0,0,0,0,0,0,0,
0,0,0,0,0,0,0,0,0,0,0,0,0,0,0,0,
0,0,0,0,0,0,0,0,0,0,0,0,0,0,0,0,
0,0,0,0,0,0,0,0,0,0,0,0,0,0,0,0,
0,0,0,0,0,0,0,0,0,0,0,0,0,0,0,0,
0,0,0,0,0,0,0,0,0,0,0,0,0,0,0,0,
0,0,0,0,0,0,0,0,0,0,0,0,0,0,0,0,
0,0,0,0,0,0,0,0,0,0,0,0,0,0,0,0,
0,0,0,0,0,0,0,0,0,0,0,0,0,0,0,0,
0,0,0,0,0,0,0,0,0,0,0,0,0,0,0,0,
0,0,0,0,0,0,0,0,0,0,0,0,0,0,0,0
</chunk>
   <chunk x="128" y="176" width="16" height="16">
0,0,0,0,0,0,0,0,0,0,0,0,168,0,0,0,
0,0,0,0,0,0,0,0,0,0,0,0,0,0,0,0,
0,0,0,0,0,0,0,0,0,0,0,0,0,0,0,0,
0,0,0,0,0,0,0,0,0,0,0,0,0,0,0,0,
0,0,0,0,0,0,0,0,0,0,0,0,0,0,0,0,
0,0,0,0,0,0,0,0,0,0,0,0,0,0,0,0,
0,0,0,0,0,0,0,0,0,0,0,0,0,0,0,0,
0,0,0,0,0,0,0,0,0,0,0,0,0,0,0,0,
0,0,0,0,0,0,0,0,0,0,0,0,0,0,0,0,
0,0,0,0,0,0,0,0,0,0,0,0,0,0,0,0,
0,0,0,0,0,0,0,0,0,0,0,0,0,0,0,0,
0,0,0,0,0,0,0,0,0,0,0,0,0,0,0,0,
0,0,0,0,0,0,0,0,0,0,0,0,0,0,0,0,
0,0,0,0,0,0,0,0,0,0,0,0,0,0,0,0,
0,0,0,0,0,0,0,0,0,0,0,0,0,0,0,0,
0,0,0,0,0,0,0,0,0,0,0,0,0,0,0,0
</chunk>
  </data>
 </layer>
 <layer id="13" name="dekoracje" width="144" height="208">
  <data encoding="csv">
   <chunk x="16" y="0" width="16" height="16">
0,0,0,0,0,0,0,0,0,0,0,0,0,0,0,0,
0,0,0,0,0,0,0,0,0,0,0,0,0,0,0,0,
0,0,0,0,0,0,0,0,0,0,0,0,0,0,0,0,
0,0,0,0,0,0,0,0,0,0,0,0,0,0,0,0,
0,0,0,0,0,0,0,0,0,0,0,0,0,0,0,0,
0,0,0,0,0,0,0,0,0,0,0,0,0,0,0,0,
0,0,0,0,0,0,0,0,0,0,0,0,0,0,0,0,
0,0,0,0,0,0,0,0,0,0,0,0,0,0,0,0,
0,0,0,0,0,0,0,0,0,0,0,0,0,0,0,0,
0,0,0,0,0,0,0,0,0,0,0,0,0,0,0,0,
0,0,0,0,0,0,0,0,0,0,0,0,0,0,0,0,
0,0,0,0,0,0,0,0,0,0,0,0,0,0,0,0,
0,0,0,0,0,0,0,0,0,0,0,0,0,0,0,0,
0,0,0,0,0,0,0,0,0,0,0,0,0,0,0,180,
0,0,0,0,0,0,0,0,0,0,0,0,0,0,0,0,
0,0,0,0,0,0,0,0,0,0,0,0,0,0,0,0
</chunk>
   <chunk x="112" y="0" width="16" height="16">
0,0,0,0,0,0,0,0,0,0,0,0,0,0,0,0,
0,0,0,0,0,0,0,0,0,0,0,0,0,0,0,0,
0,0,0,0,0,0,0,0,0,0,0,0,0,0,0,0,
0,0,0,0,0,0,0,0,0,0,0,0,0,0,0,0,
0,0,0,0,0,0,0,0,0,0,0,0,0,0,0,0,
0,0,0,0,0,0,0,0,0,0,0,0,0,0,0,0,
0,0,0,0,0,0,0,0,0,0,0,0,0,0,0,0,
0,0,0,0,0,0,0,0,0,0,0,0,0,0,0,0,
0,0,0,0,180,0,0,0,0,0,0,0,0,0,0,0,
0,0,0,0,0,0,0,0,0,0,0,0,0,0,0,0,
0,0,0,0,0,0,0,0,0,0,0,0,0,0,0,0,
0,0,0,0,0,0,0,0,0,0,0,0,0,0,0,0,
0,0,0,0,0,0,0,0,0,0,0,0,0,0,0,0,
0,0,0,0,0,0,0,0,0,0,0,0,0,0,0,0,
0,0,0,0,0,0,0,0,0,0,0,0,0,0,0,0,
0,0,0,0,0,0,0,0,0,0,0,0,0,0,0,0
</chunk>
   <chunk x="48" y="16" width="16" height="16">
0,0,0,0,0,0,0,0,0,0,0,0,0,0,0,0,
0,0,0,0,0,0,0,0,0,0,0,0,0,0,0,0,
0,0,0,0,0,0,0,0,0,0,0,0,0,0,0,0,
0,0,0,0,0,0,0,0,0,0,0,0,0,0,0,0,
0,0,0,0,0,0,0,0,0,0,0,0,0,0,0,0,
0,0,0,0,0,0,0,0,0,0,0,0,0,0,0,0,
0,0,0,0,0,0,0,0,0,0,0,0,0,0,0,0,
0,0,0,0,0,0,0,0,0,0,0,0,0,0,0,0,
0,0,0,0,0,0,0,0,0,0,0,0,0,0,0,0,
0,0,0,0,0,0,0,0,0,0,0,0,0,0,180,0,
0,0,0,0,0,0,0,0,0,0,0,0,0,0,0,0,
0,0,0,0,0,0,0,0,0,0,0,0,0,0,0,0,
0,0,0,0,0,0,0,0,0,0,0,0,0,0,0,0,
0,0,0,0,0,0,0,0,0,0,0,0,0,0,0,0,
0,0,0,0,0,0,0,0,0,0,0,0,0,0,0,0,
0,0,0,0,0,0,0,0,0,0,0,0,0,0,0,0
</chunk>
   <chunk x="80" y="16" width="16" height="16">
0,0,0,0,0,0,0,0,0,0,0,0,0,0,0,0,
0,0,0,0,0,180,0,0,0,0,0,0,0,0,0,0,
0,0,0,0,0,0,0,0,0,0,0,0,0,0,0,0,
0,0,0,0,0,0,0,0,0,0,0,0,0,0,0,0,
0,0,0,0,0,0,0,0,0,0,0,0,0,0,0,0,
0,0,0,0,0,0,0,0,0,0,0,0,0,0,0,0,
0,0,0,0,0,0,0,0,0,0,0,0,0,0,0,0,
0,0,333,0,0,0,0,0,0,0,0,0,0,0,0,0,
0,0,0,0,0,0,0,0,0,0,0,0,0,0,0,0,
0,0,0,0,0,0,0,0,0,0,0,0,0,0,0,0,
0,0,0,0,0,0,0,0,0,0,0,0,0,0,0,0,
0,0,0,0,0,0,0,0,0,0,0,0,0,0,0,0,
0,0,0,0,0,0,0,0,0,0,0,0,0,0,0,0,
0,0,0,0,0,0,0,0,0,0,0,0,0,0,0,0,
0,0,0,0,0,0,0,0,0,0,0,0,0,0,0,0,
0,0,0,0,0,0,0,0,0,0,0,0,0,0,0,0
</chunk>
   <chunk x="32" y="32" width="16" height="16">
0,347,0,0,0,0,0,0,0,0,0,0,0,0,0,0,
0,0,0,0,0,0,0,0,0,0,0,0,0,0,0,0,
0,0,0,0,0,0,0,0,0,0,0,0,0,0,0,0,
0,0,0,0,0,0,0,0,0,0,0,0,0,0,0,0,
0,0,0,0,0,0,0,0,0,0,0,0,0,0,0,0,
0,0,0,0,0,0,0,0,0,0,0,0,0,0,0,0,
0,0,0,0,0,0,0,0,0,0,0,0,0,0,0,0,
0,0,0,0,0,0,0,0,0,0,0,0,0,0,0,0,
0,0,0,0,0,0,0,0,0,0,0,0,0,0,0,0,
0,0,0,0,0,0,0,0,0,0,0,0,0,0,0,0,
0,0,0,0,0,0,0,0,0,0,0,0,0,0,0,0,
0,0,0,0,0,0,0,0,0,0,0,0,0,0,0,0,
0,0,0,0,0,0,0,0,0,0,0,0,0,0,0,0,
0,0,0,0,0,0,0,0,0,0,0,0,0,0,0,0,
0,0,0,0,0,0,0,0,0,0,0,0,0,0,0,0,
0,0,0,0,0,0,0,0,0,0,0,0,0,0,0,0
</chunk>
   <chunk x="96" y="64" width="16" height="16">
0,333,0,0,0,0,0,0,0,0,0,0,0,0,0,0,
0,0,0,0,0,0,0,0,0,0,0,0,0,0,0,0,
0,0,0,0,0,0,0,0,0,0,0,0,0,0,0,0,
0,0,0,0,0,0,0,0,0,0,0,0,0,0,0,0,
0,0,0,0,0,0,0,0,0,0,0,0,0,0,0,0,
0,0,0,0,0,0,0,0,0,0,0,0,0,0,0,0,
0,0,0,0,0,0,0,0,0,0,0,0,0,0,0,0,
0,0,0,0,0,0,0,0,0,0,0,0,0,0,0,0,
0,0,0,0,0,0,0,0,0,0,0,0,0,0,0,0,
0,0,0,0,0,0,0,0,0,0,0,0,0,0,0,0,
0,0,0,0,0,0,0,0,0,0,0,0,0,0,0,0,
0,0,0,0,0,0,0,0,0,0,0,0,0,0,0,0,
0,0,0,0,0,0,0,0,0,0,0,0,0,0,0,0,
0,0,0,0,0,0,0,0,0,0,0,0,0,0,0,0,
0,0,0,0,0,0,0,0,0,0,0,0,0,0,0,0,
0,0,0,0,0,0,0,0,0,0,0,0,0,0,0,0
</chunk>
   <chunk x="16" y="80" width="16" height="16">
0,0,0,0,0,180,0,0,0,0,0,0,0,0,0,0,
0,0,0,0,0,0,0,0,0,0,0,0,0,0,0,0,
0,0,0,0,0,0,0,0,0,0,0,0,0,0,0,0,
0,0,0,0,0,0,0,0,0,0,0,0,0,0,0,0,
0,0,0,0,0,0,0,0,0,0,0,0,0,0,0,0,
0,0,0,0,0,0,0,0,0,0,0,0,0,0,0,0,
0,0,0,0,0,0,0,0,0,0,0,0,0,0,0,0,
0,0,0,0,0,0,0,0,0,0,0,0,0,0,0,0,
0,0,0,0,0,0,0,0,0,0,0,0,0,0,0,0,
0,0,0,0,0,0,0,0,0,0,0,0,0,0,0,0,
0,0,0,0,0,0,0,0,0,0,0,0,0,0,0,0,
0,0,0,0,0,0,0,0,0,0,0,0,0,0,0,0,
0,0,0,0,0,0,0,0,0,0,0,0,0,0,0,0,
0,0,0,0,0,0,0,0,0,0,0,0,0,0,0,0,
0,0,0,0,0,0,0,0,0,0,0,0,0,0,0,0,
0,0,0,0,0,0,0,0,0,0,0,0,0,0,0,0
</chunk>
   <chunk x="128" y="80" width="16" height="16">
0,0,0,0,0,0,0,0,0,0,0,0,0,0,0,0,
0,0,0,0,0,0,0,0,0,0,0,0,0,0,0,0,
0,0,0,0,0,0,0,0,0,0,0,0,0,0,0,0,
0,0,0,0,0,0,0,0,0,0,0,0,0,0,0,0,
0,0,0,0,0,0,0,0,0,0,0,0,0,0,0,0,
0,0,0,0,0,0,0,0,0,0,0,0,0,0,0,0,
0,0,0,0,0,0,0,0,0,0,0,0,0,0,0,0,
0,0,0,0,0,0,0,0,0,0,0,0,0,0,0,0,
0,0,0,0,0,0,0,0,0,0,0,0,0,0,0,0,
0,0,0,0,0,0,0,0,0,0,0,0,0,0,0,0,
0,0,0,0,0,0,0,0,0,0,0,0,0,0,0,0,
0,0,0,0,0,0,0,0,0,0,0,0,0,0,0,0,
0,0,0,0,0,0,0,0,0,0,0,0,0,0,0,0,
0,0,0,0,0,0,0,0,0,0,0,0,0,0,0,0,
181,0,0,0,0,0,0,0,0,0,0,0,0,0,0,0,
0,0,0,0,0,0,0,0,0,0,0,0,0,0,0,0
</chunk>
   <chunk x="0" y="96" width="16" height="16">
0,0,0,0,0,0,333,0,0,0,0,0,0,0,0,0,
0,0,0,0,0,0,0,0,0,0,0,0,0,0,0,0,
0,0,0,0,0,0,0,0,0,0,0,0,0,0,0,0,
0,0,0,0,0,0,0,0,0,0,0,0,0,0,0,0,
0,0,0,0,0,0,0,0,0,0,0,0,0,0,0,0,
0,0,0,0,0,0,0,0,0,0,0,0,0,0,0,0,
0,0,0,0,0,0,0,0,0,0,0,0,0,0,0,0,
0,0,0,0,0,0,0,0,0,0,0,0,0,0,0,0,
0,0,0,0,0,0,0,0,0,0,0,0,0,0,0,0,
0,0,0,0,0,0,0,0,0,0,0,0,0,0,0,0,
0,0,0,0,0,0,0,0,0,0,0,0,0,0,0,0,
0,0,0,0,0,0,0,0,0,0,0,0,0,0,0,0,
0,0,0,0,0,0,0,0,0,0,0,0,0,0,0,0,
0,0,0,0,0,0,0,0,0,0,0,0,0,0,0,0,
0,0,0,0,0,0,0,0,0,0,0,0,0,0,0,0,
0,0,0,0,0,0,0,0,0,0,0,0,0,0,0,0
</chunk>
  </data>
 </layer>
 <layer id="14" name="domy" width="144" height="208">
  <data encoding="csv">
   <chunk x="80" y="0" width="16" height="16">
0,0,0,0,0,0,0,0,0,0,0,0,0,0,0,0,
0,0,0,0,0,0,0,0,0,0,0,0,0,0,0,0,
0,0,0,0,0,0,0,0,0,0,0,0,0,0,0,0,
0,0,0,0,0,0,0,0,0,0,0,0,0,0,0,0,
0,0,0,0,0,0,0,0,0,0,0,0,0,0,0,0,
0,0,0,0,0,0,0,0,0,0,0,0,0,0,0,0,
0,0,0,0,0,0,0,0,0,0,0,0,0,0,0,332,
0,0,0,0,0,0,0,0,0,0,0,0,0,0,0,0,
0,0,0,0,0,0,0,0,0,0,0,0,0,0,0,0,
0,0,0,0,0,0,0,0,0,0,0,0,0,0,0,0,
0,0,0,0,0,0,0,0,0,0,0,0,0,0,0,0,
0,0,0,0,0,0,0,0,0,0,0,0,0,0,0,0,
0,0,0,0,0,0,0,332,0,0,0,0,0,0,0,0,
0,0,0,0,0,0,0,0,0,0,0,0,0,0,0,0,
0,0,0,0,0,0,0,0,0,0,0,0,0,0,0,0,
0,0,0,0,0,0,0,0,0,0,0,0,0,0,0,0
</chunk>
   <chunk x="112" y="0" width="16" height="16">
0,0,0,0,0,0,0,0,0,0,0,0,0,0,0,0,
0,0,0,0,0,0,0,0,0,0,0,0,0,0,0,0,
0,0,0,0,0,0,0,0,0,0,0,0,0,0,0,0,
0,0,0,0,0,0,0,0,0,0,0,0,0,0,0,0,
0,0,0,0,0,0,0,0,0,0,0,0,0,0,0,0,
0,0,0,0,0,0,0,0,0,0,0,0,0,0,0,0,
0,0,0,0,0,0,0,0,0,0,0,0,0,0,0,0,
332,0,0,0,0,0,0,0,0,0,0,0,0,0,0,0,
0,0,0,0,0,0,0,0,0,0,0,0,0,0,0,0,
0,0,0,0,0,0,0,0,0,0,0,0,0,0,0,0,
0,0,0,0,0,0,0,0,0,0,0,0,0,0,0,0,
0,0,0,0,0,0,0,0,0,0,0,0,0,0,0,0,
0,0,0,0,0,0,0,0,0,0,0,0,0,0,0,0,
0,0,0,0,0,0,0,0,0,0,0,0,0,0,0,0,
0,0,0,0,0,0,0,0,0,0,0,332,0,0,0,0,
0,0,0,0,0,0,0,0,0,0,0,0,0,0,0,0
</chunk>
   <chunk x="128" y="0" width="16" height="16">
0,0,0,0,0,0,0,0,0,0,0,0,0,0,0,0,
0,0,0,0,0,0,0,0,0,0,0,0,0,0,0,0,
0,0,0,0,0,0,0,0,0,0,0,0,0,0,0,0,
0,0,0,0,0,0,0,0,0,0,0,0,0,0,0,0,
0,0,0,0,0,0,0,0,0,0,0,0,0,0,0,0,
0,0,0,0,0,0,0,0,0,0,0,0,0,0,0,0,
0,0,0,0,0,0,0,0,0,0,0,0,0,0,0,0,
0,0,0,0,0,0,0,0,0,0,0,0,0,0,0,0,
0,0,0,0,0,0,0,0,0,0,0,0,0,0,0,0,
0,0,0,0,0,0,0,0,0,0,0,0,0,0,0,0,
0,0,0,0,0,0,0,0,0,0,0,0,0,0,0,0,
0,0,0,0,0,0,0,0,0,0,0,0,0,0,0,0,
0,0,0,0,0,0,0,0,0,0,0,0,0,0,0,0,
0,0,0,0,0,0,0,186,0,0,0,0,0,0,0,0,
0,0,0,0,0,0,0,0,0,0,0,0,0,0,0,0,
0,0,0,0,0,0,0,0,0,0,0,0,0,0,0,0
</chunk>
   <chunk x="0" y="16" width="16" height="16">
0,0,0,0,0,0,0,0,0,0,0,0,0,0,0,0,
0,0,0,0,0,0,0,0,0,0,0,0,0,0,0,0,
0,0,0,0,0,0,0,0,0,0,0,0,0,0,0,0,
0,0,0,0,0,0,0,0,0,0,0,0,0,0,0,0,
0,0,0,0,0,0,0,0,0,0,0,0,0,0,0,0,
0,0,0,0,0,0,0,0,0,0,0,0,0,0,0,0,
0,0,0,0,0,0,0,0,0,0,0,0,0,0,0,0,
0,0,0,0,0,0,0,0,0,0,0,0,0,0,0,0,
0,0,0,0,0,0,0,0,0,0,0,0,0,0,0,0,
0,0,0,0,0,0,0,0,0,0,0,0,0,0,0,343,
0,0,0,0,0,0,0,0,0,0,0,0,0,0,0,0,
0,0,0,0,0,0,0,0,0,0,0,0,0,0,0,0,
0,0,0,0,0,0,0,0,0,0,0,0,0,0,0,0,
0,0,0,0,0,0,0,0,0,0,0,0,0,0,0,0,
0,0,0,0,0,0,0,0,0,0,0,0,0,0,0,0,
0,0,0,0,0,0,0,0,0,0,0,0,0,0,0,0
</chunk>
   <chunk x="0" y="32" width="16" height="16">
0,0,0,344,0,0,0,0,0,0,0,0,0,0,0,0,
0,0,0,0,0,0,0,0,0,0,0,0,0,0,0,0,
0,0,0,0,0,0,0,0,0,0,0,0,0,0,0,0,
0,0,0,0,0,0,0,0,0,0,0,0,0,0,0,0,
0,0,0,0,0,0,0,0,0,0,0,0,0,0,0,0,
0,0,0,0,0,0,0,0,0,0,0,0,0,0,0,0,
0,0,0,0,0,0,0,0,0,0,0,0,0,0,0,0,
0,0,0,0,0,0,0,0,0,0,0,0,0,0,0,0,
0,0,0,0,0,0,0,0,0,0,0,0,0,0,0,0,
0,0,0,0,0,0,0,0,0,0,0,0,0,0,0,0,
0,0,0,0,0,0,0,0,0,0,0,0,0,0,0,0,
0,0,0,0,0,0,0,0,0,0,0,0,0,0,0,0,
0,0,0,0,0,0,0,0,0,0,0,0,0,0,0,0,
0,0,0,0,0,0,0,0,0,0,0,0,0,0,0,0,
0,0,0,0,0,0,0,0,0,0,0,0,0,0,0,0,
0,0,0,0,0,0,0,0,0,0,0,0,0,0,0,0
</chunk>
   <chunk x="16" y="32" width="16" height="16">
0,0,0,0,0,0,0,0,0,0,0,0,0,0,0,0,
0,0,0,0,0,0,0,0,0,0,0,0,0,0,0,0,
0,0,0,0,0,0,0,0,0,0,0,0,0,0,0,0,
342,0,0,0,0,0,0,0,0,0,0,0,0,0,0,0,
0,0,0,0,0,0,0,0,0,0,0,0,0,0,0,0,
0,0,0,0,0,0,0,0,0,0,0,0,0,0,0,0,
0,0,0,0,0,0,0,0,0,0,0,0,0,0,0,0,
0,0,0,0,0,0,0,0,0,0,0,0,0,0,0,0,
0,0,0,0,0,0,0,0,0,0,0,0,0,0,0,0,
0,0,0,0,0,0,0,0,0,0,0,0,0,0,0,0,
0,0,0,0,0,0,0,0,0,0,0,0,0,0,0,0,
0,0,0,0,0,0,0,0,0,0,0,0,0,0,0,0,
0,0,0,0,0,0,0,0,0,0,0,0,0,0,0,0,
0,0,0,0,0,0,0,0,0,0,0,0,0,0,0,0,
0,0,0,0,0,0,0,0,0,0,0,0,0,0,0,0,
0,0,0,0,0,0,0,0,0,0,0,0,0,0,0,0
</chunk>
   <chunk x="0" y="48" width="16" height="16">
0,0,0,0,0,0,0,0,0,0,0,0,0,0,0,0,
0,0,0,0,0,0,0,342,0,0,0,0,0,0,0,0,
0,0,0,0,0,0,0,0,0,0,0,0,0,0,0,0,
0,0,0,0,0,0,0,0,0,0,0,0,0,0,0,0,
0,0,0,0,0,0,0,0,0,0,0,0,0,0,0,0,
0,0,0,0,0,0,0,0,0,0,0,0,0,0,0,0,
0,0,0,0,0,0,0,0,0,0,0,0,0,0,0,0,
0,0,0,0,0,0,0,0,0,0,0,0,0,0,0,0,
0,0,0,0,0,0,0,0,0,0,0,0,0,0,0,0,
0,0,0,0,0,0,0,0,0,0,0,0,0,0,0,0,
0,0,0,0,0,0,0,0,0,0,0,0,0,0,0,0,
0,0,0,0,0,0,346,0,0,0,0,0,0,0,0,0,
0,0,0,0,0,0,0,0,0,0,0,0,0,343,0,0,
0,0,0,0,0,0,0,0,0,0,0,0,0,0,0,0,
0,0,0,0,0,0,0,0,0,0,0,0,0,0,0,0,
0,0,0,0,0,0,0,0,0,0,0,0,0,0,0,0
</chunk>
   <chunk x="112" y="48" width="16" height="16">
0,0,0,0,0,0,0,0,0,0,0,0,0,0,0,0,
0,0,0,0,0,0,0,0,0,0,0,0,0,0,0,0,
0,0,0,0,0,0,0,0,0,0,0,0,0,0,0,0,
0,0,0,0,0,0,0,0,0,0,0,0,0,0,0,0,
0,0,0,0,0,0,0,0,0,0,0,0,0,0,0,0,
0,0,0,0,0,0,0,0,0,0,0,0,0,0,0,0,
0,0,0,0,0,0,0,0,0,0,0,0,0,0,0,0,
0,0,0,0,0,0,0,0,0,0,0,0,0,0,0,0,
0,329,0,0,0,0,0,0,0,0,0,0,0,0,0,0,
0,0,0,0,0,0,0,0,0,0,0,0,0,0,0,0,
0,0,0,0,0,0,0,0,0,0,0,0,0,0,0,0,
0,0,0,0,0,0,0,0,0,0,0,0,0,0,0,0,
0,0,0,0,0,0,0,0,0,0,0,0,0,0,0,0,
0,0,0,0,0,0,0,0,0,0,0,0,0,0,0,0,
0,0,0,0,0,0,0,0,0,0,0,0,0,0,0,0,
0,0,0,0,0,0,0,0,0,0,0,0,0,0,0,0
</chunk>
   <chunk x="128" y="48" width="16" height="16">
0,0,0,0,0,0,0,0,0,0,0,0,0,0,0,0,
0,0,0,0,0,0,0,0,0,0,0,0,0,0,0,0,
0,0,0,0,0,0,0,0,0,0,0,0,0,0,0,0,
0,0,0,0,0,0,0,0,0,0,0,0,0,0,0,0,
0,331,0,0,0,0,0,0,0,0,0,0,0,0,0,0,
0,0,0,0,0,0,0,0,0,0,0,0,0,0,0,0,
0,0,0,0,0,0,0,0,0,0,0,0,0,0,0,0,
0,0,0,0,0,0,0,0,0,0,0,0,0,0,0,0,
0,0,0,0,0,0,0,0,0,0,0,0,0,0,0,0,
0,0,0,0,0,0,0,0,0,0,0,0,0,0,0,0,
0,0,0,0,0,0,0,0,0,0,0,0,0,0,0,0,
0,0,0,0,0,0,0,0,0,0,0,0,0,0,0,0,
0,0,0,0,0,0,0,0,0,0,0,0,0,0,0,0,
0,0,0,0,0,0,0,0,0,0,0,0,0,0,0,0,
0,0,0,0,0,0,0,0,0,0,0,0,0,0,0,0,
0,0,0,0,0,0,0,0,0,0,0,0,0,0,0,0
</chunk>
   <chunk x="0" y="64" width="16" height="16">
0,0,0,0,0,0,0,0,0,0,0,0,0,0,0,0,
0,0,0,0,0,0,0,0,0,0,0,0,0,0,0,0,
0,0,0,0,0,0,0,0,0,0,0,0,0,0,0,0,
0,0,0,0,0,0,0,0,0,0,0,0,0,0,0,0,
0,0,0,0,0,0,0,0,0,0,0,0,0,0,0,0,
0,0,0,346,0,0,0,0,0,0,0,0,0,0,0,0,
0,0,0,0,0,0,0,0,0,0,0,0,0,0,0,0,
0,0,0,0,0,0,0,0,0,0,0,0,0,0,0,0,
0,0,0,0,0,0,0,0,0,0,0,0,0,0,0,0,
0,0,0,0,0,0,0,0,0,0,0,0,0,0,0,0,
0,0,0,0,0,0,0,0,0,0,0,0,0,0,344,0,
0,0,0,0,0,0,0,0,0,0,0,0,0,0,0,0,
0,0,0,0,0,0,0,0,0,0,0,0,0,0,0,0,
0,0,0,0,0,0,0,0,0,0,0,0,0,0,0,0,
0,0,0,0,0,0,0,0,0,0,0,0,0,0,0,0,
0,0,0,0,0,0,0,0,0,0,0,0,0,0,0,0
</chunk>
   <chunk x="16" y="64" width="16" height="16">
0,0,0,0,0,0,0,0,0,0,0,0,0,0,0,0,
0,0,0,0,0,0,0,342,0,0,0,0,0,0,0,0,
0,0,0,0,0,0,0,0,0,0,0,0,0,0,0,0,
0,0,0,0,0,0,0,0,0,0,0,0,0,0,0,0,
0,0,0,0,0,0,0,0,0,0,0,0,0,0,0,0,
0,0,0,0,0,0,0,0,0,0,0,0,0,0,0,0,
0,0,0,0,0,0,0,0,0,0,0,0,0,0,0,0,
0,0,0,0,0,0,0,0,0,0,0,0,0,0,0,0,
0,0,0,0,0,0,0,0,0,0,0,0,0,0,0,0,
0,0,0,0,0,0,0,0,0,0,0,0,0,0,0,0,
0,0,0,0,0,0,0,0,0,0,0,0,0,0,0,0,
0,0,0,0,0,0,0,0,0,0,0,0,0,0,0,0,
0,0,0,0,0,0,0,0,0,0,0,0,0,0,0,0,
0,0,0,0,0,0,0,0,0,0,0,0,0,0,0,0,
0,0,0,0,0,0,0,0,0,0,0,0,0,0,0,0,
0,0,0,0,0,0,0,0,0,0,0,0,0,0,0,0
</chunk>
   <chunk x="112" y="64" width="16" height="16">
0,0,0,0,0,0,0,0,0,0,0,0,0,0,0,0,
0,0,0,0,0,0,0,0,0,0,0,0,0,0,0,0,
0,0,0,0,0,0,0,0,0,0,0,0,0,0,0,0,
0,0,0,0,0,0,0,0,0,0,0,0,0,0,347,0,
0,0,0,0,0,0,0,0,0,0,0,0,0,0,0,0,
0,0,0,0,0,0,0,0,0,0,0,0,0,0,0,0,
0,0,0,0,0,0,0,0,0,0,0,0,0,0,0,0,
0,0,0,0,0,0,0,0,0,0,0,0,0,0,0,0,
0,0,0,0,0,0,0,0,0,0,0,0,0,0,0,0,
0,0,0,0,0,0,0,0,0,0,0,0,0,0,0,0,
0,0,0,0,0,0,0,0,0,0,0,0,0,0,0,0,
0,0,0,0,0,0,0,0,0,0,0,0,0,0,0,0,
0,0,0,0,0,0,0,0,0,0,0,0,0,0,0,0,
0,0,0,0,0,0,0,0,0,0,0,0,0,0,0,0,
0,0,0,0,0,0,0,0,0,0,0,0,0,0,0,0,
0,0,0,0,0,0,0,0,0,0,0,0,0,0,0,0
</chunk>
   <chunk x="112" y="80" width="16" height="16">
0,0,0,0,0,0,0,0,0,0,0,0,329,0,0,0,
0,0,0,0,0,0,0,0,0,0,0,0,0,0,0,0,
0,0,0,0,0,0,0,0,0,0,0,0,0,0,0,0,
0,0,0,0,0,0,0,0,0,0,0,0,0,0,0,0,
0,0,0,0,0,0,0,0,0,0,0,0,0,0,0,0,
0,0,0,0,0,0,0,0,0,0,0,0,0,0,0,0,
0,0,0,0,0,0,0,0,0,0,0,0,0,0,0,0,
0,0,0,0,0,0,0,0,0,0,0,0,0,0,0,0,
0,0,0,0,0,0,0,0,0,0,0,0,0,0,0,0,
0,0,0,0,0,0,0,0,0,0,0,0,0,0,0,0,
0,0,0,0,0,0,0,0,0,0,0,0,0,0,0,0,
0,0,0,0,0,0,0,0,0,0,0,0,0,0,0,0,
0,0,0,0,0,0,0,0,0,0,0,0,0,0,0,0,
0,0,0,0,0,0,0,0,0,0,0,0,0,0,0,0,
0,0,0,0,0,0,0,0,0,0,0,0,0,0,0,0,
0,0,0,0,0,0,0,0,0,0,0,0,0,0,0,0
</chunk>
  </data>
 </layer>
 <layer id="9" name="fale" width="144" height="208">
  <data encoding="csv">
   <chunk x="64" y="96" width="16" height="16">
0,0,0,0,0,0,0,0,0,0,0,0,0,0,0,0,
0,0,0,0,0,0,0,0,0,0,0,0,0,0,0,0,
0,0,0,0,0,0,0,0,0,0,0,0,0,0,0,0,
0,0,0,0,0,0,0,0,842,843,0,0,0,0,0,0,
0,0,0,0,0,0,0,0,842,842,843,842,843,0,0,0,
0,0,0,0,842,843,0,0,0,0,0,842,843,0,0,0,
0,0,0,842,843,0,0,0,842,843,0,0,0,0,0,0,
0,0,0,0,0,0,0,0,0,0,0,0,0,0,842,843,
0,0,0,0,0,0,0,0,0,0,0,0,0,0,0,0,
0,0,0,0,0,0,0,0,842,843,0,0,0,0,0,0,
0,0,0,0,0,842,843,0,0,0,0,0,0,0,0,0,
0,0,0,0,0,0,0,0,842,843,0,0,0,0,0,0,
0,0,0,0,0,0,0,0,0,0,0,0,0,0,0,0,
0,0,0,0,0,0,0,0,0,0,0,0,0,0,0,0,
0,0,0,0,0,0,0,0,0,0,0,0,0,0,0,0,
0,0,0,0,0,0,0,0,0,0,0,0,0,0,0,0
</chunk>
   <chunk x="80" y="96" width="16" height="16">
0,0,0,0,0,0,0,0,0,0,0,0,0,0,0,0,
0,0,0,0,0,0,0,0,0,0,0,0,0,0,0,0,
0,0,0,0,0,0,0,0,0,0,0,0,0,0,0,0,
0,0,0,0,0,0,0,0,0,0,0,0,0,0,0,0,
0,0,0,0,0,0,0,0,0,0,0,0,0,0,0,0,
0,0,0,0,0,0,0,0,0,0,0,0,0,0,0,0,
0,0,0,0,0,0,0,0,0,0,0,0,0,0,0,0,
843,0,0,0,0,0,0,0,0,0,0,0,0,0,0,0,
0,0,0,0,0,0,0,0,0,0,0,0,0,0,0,0,
0,0,0,0,0,0,0,0,0,0,0,0,0,0,0,0,
0,0,0,0,0,0,0,0,0,0,0,0,0,0,0,0,
0,0,0,0,0,0,0,0,0,0,0,0,0,0,0,0,
0,0,0,0,0,0,0,0,0,0,0,0,0,0,0,0,
0,0,0,0,0,0,0,0,0,0,0,0,0,0,0,0,
0,0,0,0,0,0,0,0,0,0,0,0,0,0,0,0,
0,0,0,0,0,0,0,0,0,0,0,0,0,0,0,0
</chunk>
  </data>
 </layer>
 <layer id="12" name="kosci" width="144" height="208">
  <data encoding="csv">
   <chunk x="16" y="0" width="16" height="16">
0,0,0,0,0,0,0,0,0,0,0,0,0,0,0,0,
0,0,0,0,0,0,0,0,0,0,0,0,0,0,0,0,
0,0,0,0,0,0,0,0,0,0,0,0,0,0,0,0,
0,0,0,0,0,0,0,0,0,0,0,0,0,0,0,0,
0,0,0,0,0,0,0,0,0,0,0,0,0,0,178,0,
0,0,0,0,0,0,0,0,0,0,0,0,0,0,0,0,
0,0,0,0,0,0,0,0,0,0,0,0,0,0,0,0,
0,0,0,0,0,0,0,0,0,0,0,0,0,0,0,0,
0,0,0,0,0,0,0,0,0,0,0,0,0,0,0,0,
0,0,0,0,0,0,0,0,0,0,0,0,0,0,0,0,
0,0,0,0,0,0,0,0,0,0,0,0,0,178,0,0,
0,0,0,0,0,0,0,0,0,0,0,0,0,0,0,0,
0,0,0,0,0,0,0,0,0,0,0,0,0,0,0,0,
0,0,0,0,0,0,0,0,0,0,0,0,0,0,0,0,
0,0,0,0,0,0,0,0,0,0,0,0,0,0,0,0,
0,0,0,0,0,0,0,0,0,0,0,0,0,0,0,0
</chunk>
   <chunk x="32" y="0" width="16" height="16">
0,0,0,0,0,0,0,0,0,0,0,0,0,0,0,0,
0,0,0,0,0,0,0,0,0,0,0,0,0,0,0,0,
0,0,0,0,0,0,0,0,0,0,0,0,0,0,0,0,
0,0,0,0,0,0,0,0,0,0,0,0,0,0,0,0,
0,0,0,0,0,0,0,179,0,0,0,0,0,0,0,0,
0,0,0,0,0,0,0,0,0,0,0,0,0,0,0,178,
0,0,0,0,0,0,0,0,0,0,0,0,0,0,0,0,
0,0,0,0,0,0,0,0,0,0,0,179,0,0,0,0,
0,0,0,0,0,0,0,0,0,0,0,0,0,0,0,0,
0,0,0,0,0,179,0,0,0,0,0,0,0,0,0,0,
0,0,0,0,0,0,0,0,0,0,0,0,0,0,0,0,
0,0,0,0,0,0,0,0,0,0,0,0,0,0,0,0,
0,0,0,0,0,0,0,0,0,0,0,0,0,0,0,0,
0,0,0,0,0,0,0,0,0,0,0,0,0,0,0,0,
0,0,0,0,0,0,0,0,0,0,0,0,0,0,0,0,
0,0,0,0,0,0,0,0,0,0,0,0,0,0,0,0
</chunk>
   <chunk x="48" y="0" width="16" height="16">
0,0,0,0,0,0,0,0,0,0,0,0,0,0,0,0,
0,0,0,0,178,0,0,0,0,0,0,0,0,0,0,0,
0,0,0,0,0,178,0,0,0,0,0,0,0,0,0,0,
0,0,0,0,0,0,0,0,0,0,0,0,0,0,0,0,
0,0,0,0,0,0,0,0,178,0,0,0,0,0,0,0,
178,0,0,0,0,0,0,0,0,0,0,0,0,0,0,0,
0,0,0,0,0,0,0,0,0,0,0,0,0,0,0,0,
0,0,0,0,0,0,0,0,0,0,0,0,0,0,0,0,
0,0,0,0,0,0,179,0,0,0,0,0,0,0,0,0,
0,0,0,0,178,0,0,0,0,0,0,0,0,0,0,0,
0,0,0,0,0,0,0,0,0,0,0,0,0,0,0,0,
0,0,0,0,0,0,0,0,0,0,0,0,0,0,0,0,
0,0,0,0,0,0,0,0,0,0,0,0,0,0,0,0,
0,0,0,0,0,0,0,0,0,0,0,179,0,0,0,0,
0,0,0,0,0,0,0,0,0,0,0,0,0,0,0,0,
0,0,0,0,0,0,0,0,0,0,0,0,0,0,0,0
</chunk>
   <chunk x="0" y="16" width="16" height="16">
0,0,0,0,0,0,0,0,0,0,0,0,0,0,0,0,
0,0,0,0,0,0,0,0,0,0,0,0,0,0,0,0,
0,0,0,0,0,0,0,0,0,0,0,0,0,0,0,0,
0,0,0,0,0,0,0,0,0,0,0,0,0,0,0,0,
0,0,0,0,0,0,0,0,0,0,0,0,0,0,0,0,
0,0,0,0,0,0,0,0,0,0,0,0,0,0,0,0,
0,0,0,0,0,0,0,0,0,0,0,0,0,0,0,0,
0,0,0,0,0,0,0,0,0,0,0,0,0,0,0,0,
0,0,0,0,0,0,0,0,0,0,0,0,0,0,0,0,
0,0,0,0,0,0,0,0,0,0,0,0,0,0,0,0,
0,0,0,0,0,0,0,0,178,179,0,0,0,0,0,0,
0,0,0,0,0,0,0,0,0,0,0,0,0,0,0,0,
0,0,0,0,0,0,0,0,0,0,0,0,0,0,0,0,
0,0,0,0,0,0,0,0,0,0,0,0,0,0,0,0,
0,0,0,0,0,0,0,0,0,0,0,0,0,0,0,0,
0,0,0,0,0,0,0,0,0,0,0,0,0,0,0,0
</chunk>
   <chunk x="16" y="16" width="16" height="16">
0,0,0,0,0,0,0,0,0,0,0,0,0,0,0,0,
0,0,0,0,0,0,0,0,0,0,0,0,0,0,0,0,
0,0,0,0,0,0,0,0,0,0,0,0,0,0,0,0,
0,0,0,0,0,0,0,0,0,0,0,0,0,0,0,0,
0,0,0,0,0,0,0,0,0,0,0,0,0,0,0,0,
0,0,0,0,0,0,0,0,0,0,0,0,0,0,0,0,
0,0,0,0,0,0,0,0,0,0,0,0,0,0,0,0,
0,0,0,0,0,0,0,0,0,0,0,0,0,0,0,0,
0,0,0,0,0,0,0,0,0,0,0,0,0,0,0,0,
0,0,0,0,0,0,0,0,0,0,0,0,0,0,0,0,
0,0,0,0,0,0,0,0,0,0,0,0,0,0,0,0,
0,0,0,0,0,0,0,0,0,0,0,0,0,0,0,0,
0,0,0,0,0,0,0,0,0,0,0,0,0,0,0,0,
0,0,0,0,0,0,0,0,0,0,0,0,0,0,0,0,
0,0,0,179,0,0,0,0,0,0,0,0,0,0,0,0,
0,0,0,0,0,0,0,0,0,0,0,0,0,0,0,0
</chunk>
   <chunk x="32" y="16" width="16" height="16">
0,0,0,0,0,0,0,0,0,0,0,0,0,0,0,0,
0,0,0,0,0,0,0,0,0,0,0,0,0,0,0,0,
0,0,0,0,0,0,0,0,0,0,0,0,0,0,0,0,
0,0,0,0,0,0,0,0,0,0,0,0,0,0,0,0,
0,0,0,0,0,0,0,0,0,0,0,0,0,0,0,0,
0,0,0,0,0,0,0,0,0,0,0,0,0,0,0,0,
0,0,0,0,0,0,0,0,0,0,0,0,0,0,0,0,
0,0,0,0,0,0,0,0,0,0,0,0,0,0,0,0,
0,0,0,0,0,0,0,0,0,0,0,0,0,0,0,0,
0,0,0,0,0,0,0,0,0,0,0,0,0,0,0,0,
0,0,0,0,0,0,0,0,0,0,0,0,0,0,0,0,
0,0,0,0,0,0,0,0,0,0,0,179,0,0,0,0,
0,0,0,0,0,0,0,0,0,0,0,0,0,0,0,0,
0,0,0,0,0,0,0,0,0,0,0,0,0,0,0,0,
0,0,0,0,0,0,0,0,0,0,0,0,0,0,0,0,
0,0,0,0,0,0,0,0,0,0,0,0,0,0,0,0
</chunk>
   <chunk x="0" y="32" width="16" height="16">
0,0,0,0,0,0,0,0,0,0,0,0,0,0,0,0,
0,0,0,0,0,0,0,0,0,0,0,0,0,0,0,0,
0,0,0,0,0,0,0,0,0,0,0,0,0,0,0,0,
0,0,0,0,0,0,0,0,0,0,0,0,0,0,0,0,
0,0,0,0,0,0,0,0,0,0,0,0,0,0,0,0,
0,0,0,0,0,0,0,0,0,0,0,0,0,0,0,0,
0,0,0,0,0,0,0,0,0,0,0,0,0,0,0,0,
0,0,0,0,0,0,0,0,0,0,0,0,0,0,0,0,
0,0,0,0,0,0,0,0,0,0,0,0,0,0,0,0,
0,0,0,0,0,0,0,0,0,0,0,0,0,0,0,0,
0,0,0,178,179,0,0,0,0,0,0,0,0,0,0,0,
0,0,0,0,0,0,0,0,0,0,0,0,0,0,0,0,
0,0,0,0,0,0,0,0,0,0,0,0,0,0,0,0,
0,0,0,0,0,0,0,0,0,0,0,0,0,0,0,0,
0,0,0,0,0,0,0,0,0,0,0,0,0,0,0,0,
0,0,0,0,0,0,0,0,0,0,0,0,0,0,0,0
</chunk>
   <chunk x="32" y="32" width="16" height="16">
0,0,0,0,0,0,0,0,0,0,0,0,0,0,0,0,
0,178,179,0,0,0,0,0,0,0,0,0,0,0,0,0,
0,0,0,0,0,0,0,0,0,0,0,0,0,0,0,0,
0,0,0,0,0,0,0,0,0,0,0,0,0,0,0,0,
0,0,0,0,0,0,0,0,0,0,0,0,0,0,0,0,
0,0,0,0,0,0,0,0,0,0,0,0,0,0,0,0,
0,0,0,0,0,0,0,0,0,0,0,0,0,0,0,0,
0,0,0,0,0,0,0,0,0,0,0,0,0,0,0,0,
0,0,0,0,0,0,0,0,0,0,0,0,0,0,0,0,
0,0,0,0,0,0,0,0,0,0,0,0,0,0,0,0,
0,0,0,0,0,0,0,0,0,0,0,0,0,0,0,0,
0,0,0,0,0,0,0,0,0,0,0,0,0,0,0,0,
0,0,0,0,0,0,0,0,0,0,0,0,0,0,0,0,
0,0,0,0,0,0,0,0,0,0,0,0,0,0,0,0,
0,0,0,0,0,0,0,0,0,0,0,0,0,0,0,0,
0,0,0,0,0,0,0,0,0,0,0,0,0,0,0,0
</chunk>
   <chunk x="80" y="32" width="16" height="16">
0,0,0,0,0,0,0,0,0,0,0,0,0,0,0,0,
0,0,0,0,0,0,0,0,0,0,0,0,0,0,0,0,
0,0,0,0,0,0,0,0,0,0,0,0,0,0,0,0,
0,0,0,0,0,0,0,0,179,0,0,0,0,0,0,0,
0,0,0,0,0,0,0,0,0,0,0,0,0,0,0,0,
0,0,0,0,0,0,0,0,0,0,0,0,0,0,0,0,
0,0,0,0,0,0,0,0,0,0,0,0,0,0,0,0,
0,0,0,0,0,0,0,0,0,0,0,0,0,0,0,0,
0,0,0,0,0,0,0,0,0,0,0,0,0,0,0,0,
0,0,0,0,0,0,0,0,0,0,0,0,0,0,0,0,
0,0,0,0,0,0,0,0,0,0,0,0,0,0,0,0,
0,0,0,0,0,0,0,0,0,0,0,0,0,0,0,0,
0,0,0,0,0,0,0,0,0,0,0,0,0,0,0,0,
0,0,0,0,0,0,0,0,0,0,0,0,0,0,0,0,
0,0,0,0,0,0,0,0,0,0,0,0,0,0,0,0,
0,0,0,0,0,0,0,0,0,0,0,0,0,0,0,0
</chunk>
   <chunk x="0" y="48" width="16" height="16">
0,0,0,0,0,0,0,0,0,0,0,0,0,0,0,0,
0,0,0,0,0,0,0,0,0,0,0,0,0,0,0,0,
0,0,0,0,0,0,0,0,0,178,0,0,0,0,0,0,
0,0,0,0,0,0,0,0,0,0,0,0,0,0,0,0,
0,0,0,0,0,0,0,0,0,0,0,0,0,0,0,0,
0,0,0,0,0,0,0,0,0,0,0,0,0,0,0,0,
0,0,0,0,0,0,0,0,0,0,0,0,0,0,0,0,
0,0,0,0,0,0,0,0,0,0,0,0,0,0,0,0,
0,0,0,0,0,0,0,0,0,0,0,0,0,0,0,0,
0,0,0,0,0,0,0,0,0,0,0,0,0,0,0,0,
0,0,0,0,0,0,0,0,0,0,0,0,0,0,0,0,
0,0,0,0,0,0,0,0,0,0,0,0,0,0,0,0,
0,0,0,0,0,0,0,0,0,0,0,0,0,0,0,0,
0,0,0,0,0,0,0,0,0,0,0,0,0,0,0,0,
0,0,0,0,0,0,0,0,0,0,0,0,0,0,0,0,
0,0,0,0,0,0,0,0,0,0,0,0,0,0,0,0
</chunk>
   <chunk x="16" y="64" width="16" height="16">
0,0,0,0,0,0,0,0,0,0,0,0,0,0,0,0,
0,0,0,0,0,0,0,0,0,0,0,0,0,0,0,0,
0,0,0,0,0,0,0,0,0,0,0,0,0,0,0,0,
0,0,0,0,0,0,0,0,0,0,0,0,0,0,0,0,
0,0,0,0,0,0,0,0,0,0,0,0,0,0,0,0,
0,0,0,0,0,0,0,0,0,0,0,0,0,0,0,0,
0,0,0,0,0,0,0,0,0,0,0,0,0,0,0,0,
0,0,0,0,0,0,0,0,0,0,0,0,0,0,0,0,
0,0,0,0,0,0,0,0,0,0,0,0,0,0,0,0,
0,0,0,0,0,0,0,0,0,0,0,0,0,0,0,0,
0,0,0,0,0,0,0,0,0,0,0,0,0,0,0,0,
0,178,0,0,0,0,0,0,0,0,0,0,0,0,0,0,
0,0,0,0,0,0,0,0,0,0,0,0,0,0,0,0,
0,0,0,0,0,0,0,0,0,0,0,0,0,0,0,0,
0,0,0,0,0,0,0,0,0,0,0,0,0,0,0,0,
0,0,0,0,0,0,0,0,0,0,0,0,0,0,0,0
</chunk>
   <chunk x="0" y="80" width="16" height="16">
0,0,0,0,0,0,0,0,0,0,0,0,0,0,0,0,
0,0,0,0,0,0,0,0,0,0,0,0,0,0,0,0,
0,0,0,178,0,0,0,0,0,0,0,0,0,0,0,0,
0,0,0,0,0,0,0,0,0,0,0,0,0,0,0,0,
0,0,0,0,0,0,0,0,0,0,0,0,0,0,0,0,
0,0,0,0,0,0,0,0,0,0,0,0,0,0,0,0,
0,0,0,0,0,0,0,0,0,0,0,0,0,0,0,0,
0,0,0,0,0,0,0,0,0,0,0,0,0,0,0,0,
0,0,0,0,0,0,0,0,0,0,0,0,0,0,0,0,
0,0,0,0,0,0,0,0,0,0,0,0,0,0,0,0,
0,0,0,0,0,0,0,0,0,0,0,0,0,0,0,0,
0,0,0,0,0,0,0,0,0,0,0,0,0,0,0,0,
0,0,0,0,0,0,0,0,0,0,0,0,0,0,0,0,
0,0,0,0,0,0,0,0,0,0,0,0,0,0,0,0,
0,0,0,0,0,0,0,0,0,0,0,0,0,0,0,0,
0,0,0,0,0,0,0,0,0,0,0,0,0,0,0,0
</chunk>
   <chunk x="16" y="144" width="16" height="16">
0,0,0,0,0,0,0,0,0,0,0,0,0,0,0,0,
0,0,0,0,0,0,0,0,0,0,0,0,0,0,0,0,
0,0,0,0,0,0,0,0,0,0,0,0,0,0,0,0,
0,0,0,0,0,0,0,0,0,0,0,0,0,0,0,0,
0,0,0,0,0,0,0,0,0,0,0,0,0,0,0,0,
0,0,0,0,0,0,0,0,0,0,0,0,179,0,0,0,
0,0,0,0,0,0,0,0,0,0,0,0,0,0,0,0,
0,0,0,0,0,0,0,0,0,0,0,0,0,0,0,0,
0,0,0,0,0,0,0,0,0,178,0,0,0,0,0,0,
0,0,0,0,0,0,0,0,0,0,0,0,0,0,0,0,
0,0,0,0,0,0,0,0,0,0,0,0,0,0,0,0,
0,0,0,0,0,0,0,0,0,0,0,0,0,0,0,0,
0,0,0,0,0,0,0,0,0,0,0,0,0,0,0,0,
0,0,0,0,0,0,0,0,0,0,0,0,0,0,0,0,
0,0,0,0,0,0,0,0,0,0,0,0,0,0,0,0,
0,0,0,0,178,0,0,0,0,0,0,0,0,0,0,0
</chunk>
   <chunk x="32" y="144" width="16" height="16">
0,0,0,0,0,0,0,0,0,0,0,0,0,0,0,0,
0,0,0,0,0,0,0,0,0,0,0,0,0,0,0,0,
0,0,0,0,0,0,0,0,0,0,0,0,0,0,0,0,
0,0,0,0,0,0,0,0,0,0,0,0,0,0,0,0,
0,0,0,0,0,0,0,0,0,0,0,0,0,0,0,0,
0,0,0,0,0,0,0,0,0,0,0,0,0,0,0,0,
0,0,0,0,0,0,0,0,0,0,0,0,0,0,0,0,
0,0,0,0,178,0,0,0,0,0,0,0,0,0,0,0,
0,0,0,0,0,0,0,0,0,0,0,0,0,0,0,0,
0,0,0,0,0,0,0,0,0,0,0,0,0,0,0,0,
0,0,0,0,0,0,0,0,0,0,0,0,0,0,0,0,
0,0,0,0,0,0,0,0,0,0,0,0,0,0,0,0,
0,0,0,0,0,0,0,0,0,0,0,0,0,0,0,0,
0,0,0,0,0,0,0,0,0,0,0,0,0,0,0,0,
0,0,0,178,0,0,0,0,0,0,0,0,0,0,0,0,
0,0,0,0,0,0,0,0,0,0,0,0,0,0,0,0
</chunk>
   <chunk x="48" y="144" width="16" height="16">
0,0,0,0,0,0,0,0,0,0,0,0,0,0,0,0,
0,0,0,0,0,0,0,0,0,0,0,0,0,0,0,0,
0,0,0,0,0,0,0,0,0,0,0,0,0,0,0,0,
0,0,0,0,0,0,0,0,0,0,0,0,0,0,0,0,
0,0,0,0,0,0,0,0,0,0,0,0,0,0,0,0,
0,0,0,0,0,0,0,0,0,0,0,0,0,0,0,0,
0,0,0,0,0,0,0,0,0,0,0,0,0,0,0,0,
0,0,0,0,0,0,0,0,0,0,0,0,0,0,0,0,
0,0,0,0,0,0,0,0,0,0,0,0,0,0,0,0,
0,0,0,0,0,0,0,0,0,0,0,0,0,0,0,0,
0,0,0,0,0,0,0,0,0,0,0,0,0,0,0,0,
0,0,0,0,0,0,0,0,0,0,0,0,0,178,0,0,
0,0,0,0,0,0,0,0,0,0,0,0,0,0,0,0,
0,0,0,0,0,0,0,0,0,0,0,0,0,0,0,0,
0,0,0,0,0,0,0,0,0,0,0,179,0,0,0,0,
0,0,0,0,0,0,0,179,0,0,0,0,0,0,0,0
</chunk>
   <chunk x="64" y="144" width="16" height="16">
0,0,0,0,0,0,0,0,0,0,0,0,0,0,0,0,
0,0,0,0,0,0,0,0,0,0,0,0,0,0,0,0,
0,0,0,0,0,0,0,0,0,0,0,0,0,0,0,0,
0,0,0,0,0,0,0,0,0,0,0,0,0,0,0,0,
0,0,0,0,0,0,0,0,0,0,0,0,0,0,0,0,
0,0,0,0,0,0,0,0,0,0,0,0,0,0,0,0,
0,0,0,0,0,0,0,0,0,0,0,0,0,0,0,0,
0,0,0,0,0,0,0,0,0,0,0,0,0,0,0,0,
0,0,0,0,0,0,0,0,0,0,0,0,0,0,0,0,
0,179,0,0,0,0,0,0,0,0,0,0,0,0,0,0,
0,0,0,0,0,0,0,0,0,0,0,0,0,0,0,0,
0,0,0,0,0,0,0,0,0,0,0,0,0,0,0,0,
178,0,0,0,0,0,0,0,0,0,0,0,0,0,0,0,
0,0,0,0,0,0,0,0,0,0,0,0,0,0,0,0,
0,0,0,0,0,0,0,0,0,0,0,0,0,0,0,0,
0,0,0,0,0,0,0,0,0,0,0,0,0,0,0,0
</chunk>
   <chunk x="80" y="144" width="16" height="16">
0,0,0,0,0,0,0,0,0,0,0,0,0,0,0,0,
0,0,0,0,0,0,0,0,0,0,0,0,0,0,0,0,
0,0,0,0,0,0,0,0,0,0,0,0,0,0,0,0,
0,0,0,0,0,0,0,0,0,0,0,0,0,0,0,0,
0,0,0,0,0,0,0,0,0,0,0,0,0,0,0,0,
0,0,0,0,0,0,0,0,0,0,0,0,0,0,0,0,
0,0,0,0,0,0,0,0,0,0,0,0,0,0,0,0,
0,0,0,0,0,0,0,0,0,0,0,0,0,0,0,0,
0,0,0,0,0,0,0,0,0,0,0,0,0,0,0,0,
0,0,0,0,0,0,0,0,0,0,0,0,0,0,0,0,
0,0,0,0,0,0,0,0,0,0,0,0,0,0,0,0,
0,0,0,0,0,0,0,0,0,0,0,0,0,0,0,0,
0,0,0,0,0,0,0,0,0,0,0,0,0,0,0,0,
0,0,0,0,0,0,0,0,0,0,0,0,0,0,0,0,
0,0,0,0,0,0,0,0,0,0,0,0,0,0,0,0,
0,0,0,0,0,179,0,0,0,0,0,0,0,0,0,0
</chunk>
   <chunk x="0" y="160" width="16" height="16">
0,0,0,0,0,0,0,0,0,0,0,0,0,0,0,0,
0,0,0,0,0,0,0,0,0,0,0,0,0,0,0,0,
0,0,0,0,0,0,0,0,0,0,0,0,0,0,0,0,
0,0,0,0,0,0,0,0,0,0,0,0,0,0,0,0,
0,0,0,0,0,0,0,0,0,0,0,0,0,0,0,0,
0,0,0,0,0,0,0,0,0,0,0,0,0,0,0,0,
0,0,0,0,0,0,0,0,0,0,0,0,0,0,0,0,
0,0,0,0,0,0,0,0,0,0,0,0,0,0,0,0,
0,0,0,0,0,0,0,0,0,0,0,0,0,0,0,0,
0,0,0,0,0,0,0,0,0,0,0,0,0,0,0,0,
0,0,0,0,0,0,0,0,0,0,0,0,0,0,0,0,
0,0,0,0,0,0,0,0,0,0,0,0,0,0,0,0,
0,0,0,0,0,0,0,0,0,0,0,0,0,0,179,0,
0,0,0,0,0,0,0,0,0,0,0,0,0,0,0,0,
0,0,0,0,0,0,0,0,0,0,0,0,0,0,0,0,
0,0,0,0,0,0,0,0,0,0,0,0,0,0,0,0
</chunk>
   <chunk x="16" y="160" width="16" height="16">
0,0,0,179,0,0,0,0,0,0,0,0,0,0,0,0,
0,0,0,0,0,0,0,0,0,0,0,0,0,0,0,0,
0,0,0,0,0,0,0,0,0,0,0,0,0,0,0,0,
0,0,0,0,0,0,0,0,0,0,0,0,0,0,0,0,
0,0,0,0,0,0,0,0,0,0,0,0,0,0,0,0,
0,0,0,0,0,0,0,0,0,0,0,0,0,0,0,0,
0,0,0,0,0,0,0,0,0,0,0,0,0,0,0,0,
0,0,0,0,0,0,0,0,0,0,0,0,0,0,0,0,
0,0,0,0,0,0,0,0,0,0,0,0,0,0,0,0,
0,0,0,0,0,0,0,0,0,0,0,0,0,0,0,0,
0,0,0,0,0,0,0,0,0,0,0,0,0,0,0,0,
0,0,0,0,0,0,0,0,0,0,0,0,0,0,0,0,
0,0,0,0,0,0,0,0,0,0,0,0,0,0,0,0,
0,0,0,0,0,0,0,0,0,0,0,0,0,0,0,0,
0,0,0,0,0,0,0,0,0,0,0,0,0,0,0,0,
0,0,0,0,0,0,0,0,0,0,0,0,0,0,0,0
</chunk>
   <chunk x="32" y="160" width="16" height="16">
0,0,0,0,0,0,179,0,178,0,0,0,0,0,0,0,
0,0,0,0,0,0,0,0,0,0,179,0,0,0,0,0,
0,0,0,0,0,0,0,0,0,0,0,0,0,0,0,0,
0,0,0,0,0,0,0,0,0,0,0,0,0,0,0,0,
0,0,0,0,0,0,0,0,0,0,0,0,0,0,0,0,
0,178,0,0,0,0,0,0,0,0,0,0,0,0,0,0,
0,0,0,0,0,0,0,0,0,0,0,0,0,0,0,0,
0,0,0,0,0,0,0,0,179,0,0,0,0,0,0,0,
0,0,0,0,0,0,0,0,0,0,178,178,0,0,0,0,
0,0,0,0,0,0,0,0,0,0,0,0,0,0,0,0,
0,0,0,0,0,0,0,0,178,0,0,0,0,0,0,0,
0,0,0,0,0,0,0,0,0,0,0,0,0,0,0,0,
0,0,0,0,0,0,0,0,0,0,0,0,0,0,0,0,
0,0,0,0,0,0,0,0,0,0,0,0,0,0,0,0,
0,0,0,0,0,0,0,0,0,0,0,0,0,0,0,0,
0,0,0,0,0,0,0,0,0,0,0,0,0,0,0,0
</chunk>
   <chunk x="48" y="160" width="16" height="16">
0,0,0,0,0,0,0,0,0,0,0,0,0,0,0,0,
0,0,179,0,0,0,0,0,0,0,0,0,0,0,0,0,
0,0,0,0,0,0,0,0,0,0,0,0,0,0,0,0,
0,0,178,0,0,0,0,0,0,0,0,0,0,0,0,0,
0,0,0,0,0,0,0,0,0,0,0,0,0,0,0,0,
0,0,0,0,0,0,0,0,0,0,0,0,0,0,0,0,
0,0,0,0,0,0,0,0,0,0,0,0,0,0,0,0,
0,0,0,0,0,0,0,0,0,0,0,0,0,0,0,0,
0,0,0,0,0,0,0,0,0,0,0,0,0,0,0,0,
0,0,0,0,0,0,0,0,0,0,0,0,0,0,0,0,
0,0,0,0,0,0,0,0,0,0,0,0,0,0,0,0,
0,0,0,0,0,0,0,0,0,0,0,0,0,0,0,0,
0,0,0,0,0,0,0,0,0,0,0,0,0,0,0,0,
0,0,0,0,0,0,0,0,0,0,0,0,0,0,0,0,
0,0,0,0,0,0,0,0,0,0,0,0,0,0,0,0,
0,0,0,0,179,178,0,0,0,0,0,0,0,0,0,0
</chunk>
   <chunk x="64" y="160" width="16" height="16">
0,0,0,0,0,0,0,0,0,0,0,0,0,0,0,0,
0,0,0,0,0,0,0,0,0,0,0,0,0,0,0,0,
0,0,0,0,0,0,0,0,0,0,0,0,0,0,0,0,
0,0,0,0,0,0,0,0,0,0,0,0,0,0,0,0,
0,0,0,0,0,0,0,0,0,0,0,0,0,0,0,0,
0,0,0,0,0,0,0,0,0,0,0,0,0,0,0,0,
0,0,0,0,0,178,0,0,0,0,0,0,0,0,0,0,
0,0,0,179,0,0,0,0,0,0,0,0,0,0,0,179,
0,0,0,0,0,0,0,0,0,0,0,0,0,0,0,0,
0,0,0,178,0,0,0,0,0,0,0,0,0,0,0,0,
0,0,0,0,0,0,0,0,0,0,0,0,0,0,0,0,
0,0,0,0,0,0,0,0,0,0,0,0,0,0,0,0,
0,0,0,0,0,0,0,0,0,0,0,0,0,0,0,0,
0,0,0,0,0,0,0,0,0,0,0,0,0,0,0,0,
0,0,0,0,0,0,0,0,0,0,0,0,0,0,0,0,
0,0,0,0,0,0,0,0,0,0,0,0,0,0,0,0
</chunk>
   <chunk x="16" y="176" width="16" height="16">
0,0,0,0,0,0,0,0,0,0,0,0,0,0,0,0,
0,0,0,0,0,0,0,0,0,0,0,0,0,0,0,0,
0,0,0,0,0,0,0,0,0,0,0,0,0,0,0,0,
0,0,0,0,0,0,0,0,0,0,0,0,0,0,0,0,
0,0,0,0,0,0,0,0,0,0,0,0,179,0,0,0,
0,0,0,0,0,0,0,0,0,0,0,0,0,0,0,0,
0,0,0,0,0,0,0,0,0,0,0,0,0,0,0,0,
0,0,0,0,0,0,0,0,0,0,0,0,0,0,0,0,
0,0,0,0,0,0,0,0,0,0,0,0,0,0,0,0,
0,0,0,0,0,0,0,0,0,0,0,0,0,0,0,0,
0,0,0,0,0,0,0,0,0,0,0,0,0,0,0,0,
0,0,0,0,0,0,0,0,0,0,0,0,0,0,0,0,
0,0,0,0,0,0,0,0,0,0,0,0,0,0,0,0,
0,0,0,0,0,0,0,0,0,0,0,0,0,0,0,0,
0,0,0,0,0,0,0,0,0,0,0,0,0,0,0,0,
0,0,0,0,0,0,0,0,0,0,0,0,0,0,0,0
</chunk>
   <chunk x="48" y="176" width="16" height="16">
0,0,0,179,0,0,0,178,0,0,0,0,0,0,0,0,
0,0,0,0,0,0,0,0,0,0,0,0,0,0,0,0,
179,0,0,0,178,0,179,0,0,0,0,0,0,0,0,0,
0,0,0,0,0,0,0,0,0,0,0,0,0,0,0,0,
0,0,0,0,0,0,0,0,0,0,0,0,0,0,0,0,
0,0,0,0,0,0,0,0,0,0,0,0,0,0,0,0,
0,0,0,0,0,0,0,0,0,0,0,0,0,0,0,0,
0,0,0,0,0,0,0,0,0,0,0,0,0,0,0,0,
0,0,0,0,0,0,0,0,0,0,0,0,0,0,0,0,
0,0,0,0,0,0,0,0,0,0,0,0,0,0,0,0,
0,0,0,0,0,0,0,0,0,0,0,0,0,0,0,0,
0,0,0,0,0,0,0,0,0,0,0,0,0,0,0,0,
0,0,0,0,0,0,0,0,0,0,0,0,0,0,0,0,
0,0,0,0,0,0,0,0,0,0,0,0,0,0,0,0,
0,0,0,0,0,0,0,0,0,0,0,0,0,0,0,0,
0,0,0,0,0,0,0,0,0,0,0,0,0,0,0,0
</chunk>
   <chunk x="64" y="176" width="16" height="16">
0,0,0,0,0,0,0,0,0,0,0,0,0,0,0,0,
0,0,0,0,0,0,0,0,0,0,0,0,0,0,0,0,
0,0,0,0,0,0,0,0,0,0,0,0,0,0,0,0,
0,0,0,0,0,0,0,0,0,0,0,0,0,0,0,0,
0,0,0,0,0,0,0,0,179,0,0,0,0,0,0,0,
0,0,0,0,0,0,178,0,0,0,0,0,0,0,0,0,
0,0,0,0,0,0,0,0,0,0,0,0,0,0,0,0,
0,0,0,0,0,0,0,0,0,0,0,0,0,0,0,0,
0,0,0,0,0,0,0,0,0,0,0,0,0,0,0,0,
0,0,0,0,0,0,0,0,0,0,0,0,0,0,0,0,
0,0,0,0,0,0,0,0,0,0,0,0,0,0,0,0,
0,0,0,0,0,0,0,0,0,0,0,0,0,0,0,0,
0,0,0,0,0,0,0,0,0,0,0,0,0,0,0,0,
0,0,0,0,0,0,0,0,0,0,0,0,0,0,0,0,
0,0,0,0,0,0,0,0,0,0,0,0,0,0,0,0,
0,0,0,0,0,0,0,0,0,0,0,0,0,0,0,0
</chunk>
  </data>
 </layer>
 <layer id="15" name="kaktusy 2" width="144" height="208">
  <data encoding="csv">
   <chunk x="0" y="0" width="16" height="16">
0,0,0,0,0,0,0,0,0,0,0,0,0,0,0,0,
0,0,0,0,0,0,0,0,0,0,0,0,0,0,0,0,
0,0,0,0,0,0,0,0,0,0,0,0,0,0,0,0,
0,0,0,0,0,0,0,0,0,0,0,0,0,0,0,0,
0,0,0,0,0,0,0,0,0,0,0,0,0,0,0,0,
0,0,0,0,0,0,0,0,0,0,350,0,0,0,0,0,
0,0,0,0,0,0,0,0,0,0,0,0,0,0,0,0,
0,0,0,0,0,0,0,0,0,0,0,0,0,0,0,0,
0,0,0,0,0,0,0,0,0,0,0,0,0,0,353,0,
0,0,0,0,0,0,0,0,0,0,0,0,0,0,0,0,
0,0,0,0,0,0,0,0,0,0,0,0,0,0,0,0,
0,0,0,0,0,352,0,0,0,0,0,0,0,0,0,0,
0,0,0,0,0,0,0,0,0,0,0,0,0,0,0,0,
0,0,0,0,0,0,0,0,0,0,0,0,0,0,0,0,
0,0,0,0,0,0,0,0,0,0,0,0,0,0,0,0,
0,0,0,0,0,0,0,0,0,0,0,0,0,0,0,0
</chunk>
   <chunk x="16" y="0" width="16" height="16">
0,0,0,0,0,0,0,0,0,0,0,0,0,0,0,0,
0,0,0,0,0,0,0,0,0,0,0,0,0,0,0,0,
0,0,0,0,0,0,0,0,0,0,0,0,0,0,0,0,
0,0,0,0,0,0,0,0,0,0,0,0,0,0,0,0,
0,0,0,0,0,0,0,0,0,0,0,0,0,0,0,0,
0,0,0,0,0,0,0,0,0,0,0,0,0,0,0,0,
0,0,0,0,0,0,0,0,0,0,0,0,0,0,0,0,
0,0,0,0,0,0,0,0,0,0,0,0,0,0,0,0,
0,0,0,0,0,0,0,0,0,0,0,0,0,0,0,0,
0,0,0,0,0,0,0,0,0,0,0,0,0,0,0,0,
0,0,0,0,0,0,0,0,0,0,0,0,0,0,0,0,
0,0,0,0,0,0,0,0,0,0,0,0,0,0,0,0,
0,0,0,0,0,0,0,0,0,0,0,0,0,0,0,0,
0,0,0,0,0,0,0,0,0,0,0,0,0,0,0,0,
0,0,0,0,0,0,0,349,0,0,0,0,0,0,0,0,
0,0,0,0,0,0,0,0,0,0,0,0,0,0,0,0
</chunk>
   <chunk x="32" y="0" width="16" height="16">
0,0,0,0,0,0,0,0,0,0,0,0,0,0,0,0,
0,0,0,0,0,0,0,0,0,0,0,0,0,0,0,0,
0,0,0,0,0,0,0,0,0,0,0,0,0,0,0,0,
0,0,0,0,0,0,0,0,0,0,0,0,0,0,0,0,
0,0,0,0,0,0,0,0,0,351,0,0,0,0,0,0,
0,0,0,0,0,0,0,0,0,0,0,0,0,0,0,0,
0,0,0,0,0,0,0,0,0,0,0,0,0,0,0,0,
0,0,0,0,0,0,0,0,0,0,0,0,0,0,0,0,
0,0,0,0,0,0,0,0,0,0,0,0,0,0,0,0,
0,0,0,0,0,0,0,0,0,0,0,0,0,0,0,0,
0,0,0,351,0,0,0,0,0,0,0,0,0,0,0,0,
0,0,0,0,0,0,0,0,0,0,0,0,0,0,0,0,
0,0,0,0,0,0,0,0,0,0,0,0,0,0,0,0,
0,0,0,0,0,0,0,0,0,0,0,0,0,0,0,0,
0,0,0,0,0,0,0,0,0,0,0,0,0,0,0,0,
0,0,0,0,0,0,0,0,0,0,0,0,0,0,0,0
</chunk>
   <chunk x="48" y="0" width="16" height="16">
0,0,0,0,0,0,0,0,0,0,0,0,0,0,0,0,
0,0,0,0,0,0,0,0,0,0,0,0,0,0,0,0,
0,0,0,0,0,0,0,0,0,0,0,0,0,0,0,0,
0,0,0,0,0,0,0,0,0,0,0,0,0,0,0,0,
0,0,0,0,0,0,0,0,0,0,0,0,0,0,0,0,
0,0,0,351,0,0,0,0,0,0,0,0,0,0,0,0,
0,0,0,0,0,0,0,0,0,0,0,0,0,0,0,0,
0,0,0,0,0,0,0,0,0,0,0,0,0,0,0,0,
0,0,0,0,0,0,0,0,0,0,0,0,0,0,0,0,
0,0,0,0,0,0,0,0,0,0,0,0,0,0,0,0,
0,0,0,0,0,0,0,0,0,0,0,0,0,0,0,0,
0,0,0,0,0,0,0,0,0,0,0,0,0,0,0,0,
0,0,0,0,0,0,0,0,0,0,0,0,0,0,0,0,
0,0,0,0,0,0,0,0,0,0,0,0,0,0,0,0,
0,0,0,0,0,0,0,0,0,0,0,0,0,0,0,0,
0,0,0,0,0,0,0,0,0,0,0,0,0,0,0,0
</chunk>
   <chunk x="64" y="0" width="16" height="16">
0,0,0,0,0,0,0,0,0,0,0,0,0,0,0,0,
0,0,0,0,0,0,0,0,353,0,0,0,0,0,0,0,
0,0,0,0,0,0,0,0,0,0,0,0,0,0,0,0,
0,0,0,0,0,0,0,0,0,0,350,0,0,0,0,0,
0,0,0,0,0,0,0,0,0,0,0,0,0,0,0,0,
0,0,0,0,0,0,0,0,0,0,0,0,0,0,0,0,
0,0,0,0,0,0,0,0,0,0,0,0,0,0,0,0,
0,0,0,0,0,0,0,0,0,0,0,0,0,0,0,0,
0,0,0,0,0,0,0,0,0,0,0,0,0,0,0,0,
0,0,0,0,0,0,0,0,0,0,0,0,0,0,0,0,
0,0,0,0,0,0,0,0,0,0,0,353,0,0,0,0,
0,0,0,0,0,0,0,0,0,0,0,0,0,0,0,0,
0,0,0,0,0,0,0,0,0,0,0,0,0,0,0,0,
0,0,0,0,0,348,0,0,0,0,0,0,0,0,0,0,
0,0,0,0,0,0,0,0,0,0,0,0,0,0,0,0,
0,0,0,0,0,0,0,0,0,0,0,0,0,0,0,0
</chunk>
   <chunk x="80" y="0" width="16" height="16">
0,0,0,0,0,0,0,0,0,0,0,0,0,0,0,0,
0,0,0,0,0,0,0,0,0,0,0,0,0,0,0,0,
0,0,0,0,0,0,0,0,0,0,0,0,0,0,0,0,
0,0,0,0,0,0,0,0,0,0,0,0,350,0,0,0,
0,0,0,0,0,0,0,0,0,0,0,0,0,0,0,0,
0,0,0,0,0,0,0,0,0,0,0,0,0,0,0,0,
0,0,0,0,0,0,0,0,0,0,0,0,0,0,0,0,
0,0,0,0,0,0,0,0,0,0,0,0,0,0,0,0,
0,0,0,348,0,0,0,0,0,0,0,0,0,0,0,0,
0,0,0,0,0,0,0,0,0,0,0,0,0,0,0,0,
350,0,0,0,0,0,0,0,0,0,0,0,0,0,0,0,
0,0,0,0,0,0,0,0,0,0,0,0,0,0,0,0,
0,0,0,0,0,0,0,0,0,0,0,0,0,0,0,0,
0,0,0,0,0,0,0,0,0,0,0,0,0,0,0,0,
0,0,0,0,0,0,0,0,0,0,0,0,0,0,0,0,
0,0,0,0,0,0,0,0,0,0,0,0,0,0,0,0
</chunk>
   <chunk x="96" y="0" width="16" height="16">
0,0,0,0,0,0,0,0,0,0,0,0,0,0,0,0,
353,0,0,0,0,0,0,0,0,0,0,0,0,0,0,0,
0,0,0,0,0,0,0,0,0,0,0,0,0,0,0,0,
0,0,0,0,0,0,0,0,0,0,0,0,0,0,0,0,
0,0,0,0,0,0,0,0,0,0,0,0,0,0,0,0,
0,0,0,0,0,0,0,0,0,0,0,0,0,0,0,0,
0,0,0,0,0,0,0,0,0,0,0,0,0,0,0,0,
0,0,0,0,0,0,0,0,0,0,0,0,0,0,0,0,
0,0,0,0,0,0,0,0,0,0,0,0,0,0,0,0,
0,0,0,0,0,0,0,0,0,0,0,0,0,0,0,0,
0,0,0,0,0,0,0,0,0,0,0,0,0,0,0,0,
0,0,0,0,0,0,0,0,0,0,0,0,0,0,0,0,
0,0,0,0,0,0,0,0,0,0,0,0,0,0,0,0,
0,0,0,0,0,0,0,0,0,0,0,0,0,0,0,0,
0,0,0,0,0,0,0,0,0,0,0,0,0,0,0,0,
0,0,0,0,0,0,0,0,0,0,0,0,0,0,0,0
</chunk>
   <chunk x="0" y="16" width="16" height="16">
0,0,0,0,0,0,0,0,0,0,0,0,0,0,0,0,
0,0,0,0,0,0,0,0,0,0,0,0,0,0,0,0,
0,0,0,0,0,0,0,0,0,0,0,0,0,0,0,0,
0,0,0,0,0,0,0,0,0,0,348,0,0,0,0,0,
0,0,0,0,0,0,0,0,0,0,0,0,0,0,0,0,
0,0,0,0,0,0,0,0,0,0,0,0,0,0,0,0,
0,0,0,0,0,0,0,0,0,0,0,0,0,0,0,0,
0,0,0,0,0,0,0,0,0,0,0,0,0,0,0,0,
0,0,0,0,0,0,0,0,0,0,0,0,0,0,0,0,
0,0,0,0,0,0,0,0,0,0,0,0,0,0,0,0,
0,0,0,0,0,0,0,0,0,0,0,0,0,0,0,0,
0,0,0,0,0,0,0,0,0,0,0,0,0,0,0,0,
0,0,0,0,0,0,0,0,0,0,0,0,0,0,0,0,
0,0,0,0,0,0,0,0,0,0,0,0,0,0,0,0,
0,0,0,0,0,0,0,0,0,0,0,0,0,0,0,0,
0,0,0,0,0,0,0,0,0,0,0,0,0,0,0,0
</chunk>
   <chunk x="16" y="16" width="16" height="16">
0,0,0,0,0,0,0,0,0,0,0,0,0,0,0,0,
0,0,0,0,0,0,0,0,0,0,0,0,0,0,0,0,
0,0,0,0,0,0,0,0,0,0,0,0,0,0,0,0,
0,0,0,0,0,0,0,0,0,0,0,0,0,0,0,0,
0,0,0,0,0,0,0,0,0,0,0,0,0,0,0,0,
0,0,0,0,0,0,0,0,0,0,0,0,0,0,0,0,
0,0,0,0,0,0,0,0,0,0,0,0,0,0,0,0,
0,0,0,0,0,0,0,0,0,0,0,0,0,0,0,0,
0,0,0,0,0,0,0,0,0,0,0,0,0,0,0,0,
0,0,0,0,0,0,0,0,0,0,0,0,0,0,0,0,
0,0,0,0,0,0,0,0,0,0,0,0,0,0,0,0,
0,0,0,0,0,0,0,0,0,0,0,0,0,0,0,0,
0,0,0,0,0,0,0,0,0,0,0,0,0,0,0,0,
0,0,0,0,0,0,0,0,0,0,0,0,0,0,0,0,
0,0,0,0,0,0,348,0,0,0,0,0,0,0,0,0,
0,0,0,0,0,0,0,0,0,0,0,0,0,0,0,0
</chunk>
   <chunk x="48" y="16" width="16" height="16">
0,0,0,0,0,0,0,0,0,0,0,0,0,0,0,0,
0,0,0,0,0,0,0,0,0,0,0,0,351,0,0,0,
0,0,0,0,0,0,0,0,0,0,0,0,0,0,0,0,
0,0,0,0,0,0,0,0,0,0,0,0,0,0,0,0,
0,0,0,0,0,0,0,0,0,0,0,0,0,0,0,0,
0,0,0,0,0,0,0,0,0,0,0,0,0,0,0,0,
0,0,0,0,0,0,0,0,0,0,0,0,0,0,0,0,
0,0,0,0,0,0,0,0,0,0,0,0,0,0,0,0,
0,0,0,0,0,0,0,0,0,0,0,0,0,0,0,0,
0,0,0,0,0,0,0,0,0,0,0,0,0,0,0,0,
0,0,0,0,0,0,0,0,0,0,0,0,0,0,0,0,
0,0,0,0,0,0,0,0,0,0,0,0,0,0,0,0,
0,0,0,0,0,0,0,0,0,0,0,0,0,0,0,0,
0,0,0,0,0,0,0,0,0,0,0,0,0,0,0,0,
0,0,0,0,0,0,0,0,0,0,0,0,0,0,0,0,
0,0,0,0,0,0,0,0,0,0,0,0,0,0,0,0
</chunk>
   <chunk x="64" y="16" width="16" height="16">
0,0,0,0,0,0,0,0,0,0,0,0,0,0,0,0,
0,0,0,0,0,0,0,0,0,0,0,0,0,0,0,0,
0,0,0,0,0,0,0,0,0,0,0,0,0,0,0,0,
0,0,0,0,0,353,0,0,0,0,0,0,0,0,0,0,
0,0,0,0,0,0,0,0,0,0,0,0,0,0,0,0,
0,0,0,0,0,0,0,0,0,0,0,0,0,0,0,0,
0,0,0,0,0,0,0,0,0,0,0,0,0,0,0,0,
0,0,0,0,0,0,0,0,0,0,0,0,0,0,0,0,
0,0,0,0,0,0,0,0,0,0,349,0,0,0,0,0,
0,0,0,0,0,0,0,0,0,0,0,0,0,0,353,0,
0,0,0,0,0,0,0,0,0,0,0,0,0,0,0,0,
0,0,0,0,0,0,0,0,0,0,0,0,0,0,0,0,
0,0,0,0,0,0,0,0,0,0,0,0,0,0,0,0,
0,0,0,0,0,0,0,0,0,0,0,0,0,0,0,0,
0,0,0,0,0,0,0,0,0,0,0,0,0,0,0,0,
0,0,0,0,0,0,0,0,0,0,0,0,0,0,0,0
</chunk>
   <chunk x="80" y="16" width="16" height="16">
0,0,0,0,0,0,0,0,0,0,0,0,0,0,0,0,
0,0,0,0,0,0,0,0,0,0,0,0,0,0,0,0,
0,0,0,0,0,0,0,0,0,0,0,0,0,0,0,0,
0,0,353,0,0,0,0,0,0,0,0,0,0,0,0,0,
0,0,0,0,0,0,0,0,0,0,0,0,0,0,0,0,
0,0,0,0,0,0,0,0,0,0,0,0,0,0,0,0,
0,0,0,0,0,0,0,0,0,0,0,0,0,0,0,0,
0,0,0,0,0,0,0,0,0,0,0,0,0,0,0,0,
0,0,0,0,0,0,0,0,0,0,0,0,0,0,0,0,
0,0,0,0,0,0,0,0,0,0,0,0,0,0,0,0,
0,0,0,0,0,0,0,0,0,0,0,0,0,0,0,0,
0,0,0,0,0,0,0,0,0,0,0,0,0,0,0,0,
0,0,0,0,0,0,0,0,0,0,0,0,0,0,0,0,
0,0,0,0,0,0,0,0,0,0,0,0,0,0,0,0,
0,0,0,0,0,0,0,0,0,0,0,0,0,0,0,0,
0,0,0,0,0,0,0,0,0,0,0,0,0,0,0,0
</chunk>
   <chunk x="0" y="32" width="16" height="16">
0,0,0,0,0,0,0,0,0,0,0,0,0,0,0,0,
0,0,0,0,0,0,0,0,0,0,0,0,0,0,0,0,
0,0,0,0,0,0,0,0,0,0,0,0,0,0,0,0,
0,0,0,0,0,0,0,0,0,0,0,0,0,0,0,0,
0,0,0,0,0,0,0,0,0,0,0,0,0,0,0,0,
0,0,0,0,0,0,0,0,0,0,0,0,0,0,0,0,
0,0,0,0,0,0,0,0,0,0,0,0,0,0,0,0,
0,0,0,0,350,0,0,0,0,0,0,0,0,0,0,0,
0,0,0,0,0,0,0,0,0,0,0,0,0,0,0,0,
0,0,0,0,0,0,0,0,0,0,0,0,0,0,0,0,
0,0,0,0,0,0,0,0,0,0,0,348,0,0,0,0,
0,0,0,0,0,0,0,0,0,0,0,0,0,0,0,0,
0,0,0,0,0,0,0,0,0,0,0,0,0,0,0,0,
0,0,0,0,0,0,0,0,0,0,0,0,0,0,0,0,
0,0,0,0,0,0,0,0,0,0,0,0,0,0,0,0,
0,0,0,0,0,0,0,0,0,0,0,0,0,0,0,0
</chunk>
   <chunk x="0" y="48" width="16" height="16">
0,0,0,0,0,0,0,0,0,0,0,0,0,0,0,0,
0,0,0,0,0,0,0,0,0,0,0,0,0,0,0,0,
0,0,0,0,0,0,0,0,0,0,0,0,0,0,0,0,
0,0,0,0,0,0,0,0,0,0,0,0,0,0,0,0,
0,0,0,0,0,0,0,0,0,0,0,0,0,0,0,0,
0,0,0,353,0,0,0,0,0,0,0,0,0,0,0,0,
0,0,0,0,0,0,0,0,0,0,0,0,0,0,0,0,
0,0,0,0,0,0,0,0,0,0,0,0,0,0,0,0,
0,0,0,0,0,0,0,0,0,0,0,0,0,0,0,0,
0,0,0,0,0,0,0,0,0,0,0,0,0,0,0,0,
0,0,0,0,0,0,0,0,0,0,0,0,0,0,0,0,
0,0,0,0,0,0,0,0,0,0,0,0,0,0,0,0,
0,0,0,0,0,0,0,0,0,0,0,0,0,0,0,0,
0,0,0,0,0,0,0,0,0,0,0,0,0,0,0,0,
0,0,0,0,0,0,0,0,0,0,0,0,0,0,0,0,
0,0,0,0,0,0,0,0,0,0,0,0,0,0,0,0
</chunk>
   <chunk x="48" y="48" width="16" height="16">
0,0,0,0,0,0,0,0,0,0,0,0,0,0,0,0,
0,0,0,0,0,0,0,0,0,0,0,0,0,0,0,0,
0,0,0,0,0,0,0,0,0,0,0,0,0,0,0,0,
0,0,0,0,0,0,0,0,0,0,0,0,0,0,0,0,
0,0,0,0,0,0,0,0,0,0,0,0,0,0,0,0,
0,0,0,0,0,0,0,0,0,0,0,0,0,0,0,0,
0,0,0,0,0,0,0,0,0,0,0,0,0,0,0,0,
0,0,0,0,0,0,0,0,0,0,0,0,0,0,0,0,
0,0,0,0,0,0,0,0,0,0,0,349,0,0,0,0,
0,0,0,0,0,0,0,0,0,0,0,0,0,0,0,0,
0,0,0,0,0,0,0,0,0,0,0,0,0,0,0,0,
0,0,0,0,0,0,0,0,0,0,0,0,0,0,0,0,
0,0,0,0,0,0,0,0,0,0,0,0,0,0,0,0,
0,0,0,0,0,0,0,0,0,0,0,0,0,0,0,0,
0,0,0,0,0,0,0,0,0,0,0,0,0,0,0,0,
0,0,0,0,0,0,0,0,0,0,0,0,0,0,0,0
</chunk>
   <chunk x="64" y="48" width="16" height="16">
0,0,0,0,0,0,0,0,0,0,0,0,0,0,0,0,
0,0,0,0,0,0,0,0,0,0,0,0,0,0,0,0,
0,0,0,0,0,0,0,0,0,0,0,0,0,0,0,0,
0,0,0,0,0,0,348,0,0,0,0,0,0,0,0,0,
0,0,0,0,0,0,0,0,0,0,0,0,0,0,0,0,
0,0,0,0,0,0,0,0,0,0,0,0,0,0,0,0,
0,0,0,0,0,0,0,0,0,0,0,0,0,0,0,0,
0,0,0,0,0,0,0,0,0,0,0,0,0,0,0,0,
0,0,0,0,0,0,0,0,0,0,0,0,0,0,0,0,
0,0,0,0,0,0,0,0,0,0,0,0,0,0,0,0,
0,0,0,0,0,0,0,0,0,0,0,0,0,0,0,0,
0,0,0,0,0,0,0,0,0,0,0,0,0,0,0,0,
0,0,0,0,0,0,0,0,0,0,0,0,0,0,0,0,
0,0,0,0,0,0,0,0,0,0,0,0,0,0,0,0,
0,0,0,0,0,0,0,0,0,0,0,0,0,0,0,0,
0,0,0,0,0,0,0,0,0,0,0,0,0,0,0,0
</chunk>
   <chunk x="0" y="64" width="16" height="16">
0,0,0,0,0,0,0,0,0,0,0,0,0,0,0,0,
0,0,0,0,0,0,0,0,0,0,0,0,0,0,0,0,
0,0,0,0,0,0,0,0,0,0,0,0,0,0,0,0,
0,0,0,0,0,0,0,0,0,353,0,0,0,0,0,0,
0,0,0,0,0,0,0,0,0,0,0,0,0,0,0,0,
0,0,0,0,0,0,0,0,0,0,0,0,0,0,0,0,
0,0,0,0,0,0,0,0,0,0,0,0,0,0,0,0,
0,0,0,0,0,0,0,0,0,0,0,0,0,0,0,0,
0,0,0,0,0,0,0,0,0,0,0,0,0,0,0,0,
0,0,0,0,0,0,0,0,0,0,0,0,0,0,0,0,
0,0,0,0,0,0,0,0,0,0,0,0,0,0,0,0,
0,0,0,0,0,0,0,0,0,0,0,0,0,0,0,0,
0,0,0,348,0,0,0,0,0,0,0,0,0,0,0,0,
0,0,0,0,0,0,0,0,0,0,0,0,0,0,0,0,
0,0,0,0,0,0,0,0,0,0,0,0,0,0,0,0,
0,0,0,0,0,0,0,0,0,0,0,0,0,0,0,0
</chunk>
  </data>
 </layer>
</map>
